; generated by Slic3r 1.2.9 on 2017-07-18 at 19:00:21

; external perimeters extrusion width = 0.30mm
; perimeters extrusion width = 0.32mm
; infill extrusion width = 0.32mm
; solid infill extrusion width = 0.32mm
; top infill extrusion width = 0.32mm
; support material extrusion width = 0.30mm

M107
M190 S105 ; set bed temperature
M104 S240 ; set temperature
G28 ; home all axes
G1 Z5 F5000 ; lift nozzle

M109 S240 ; wait for temperature to be reached
G21 ; set units to millimeters
G90 ; use absolute coordinates
M82 ; use absolute distances for extrusion
G92 E0
G1 E-1.00000 F1800.00000
G92 E0
G1 Z0.270 F7800.000
G1 X73.310 Y73.121 F7800.000
G1 E1.00000 F1800.00000
G1 X73.767 Y72.666 E1.03666 F1080.000
G1 X75.734 Y70.893 E1.18711
G1 X77.845 Y69.213 E1.34042
G1 X78.325 Y68.869 E1.37396
G1 X79.924 Y67.831 E1.48227
G1 X80.321 Y67.592 E1.50858
G1 X83.303 Y65.946 E1.70214
G1 X83.725 Y65.733 E1.72898
G1 X85.516 Y64.923 E1.84066
G1 X88.240 Y63.893 E2.00616
G1 X88.822 Y63.708 E2.04082
G1 X91.313 Y63.040 E2.18738
G1 X92.875 Y62.705 E2.27813
G1 X95.523 Y62.278 E2.43057
G1 X96.049 Y62.216 E2.46064
G1 X97.319 Y62.122 E2.53300
G1 X99.534 Y62.006 E2.65903
G1 X100.090 Y62.001 E2.69063
G1 X101.151 Y62.036 E2.75093
G1 X103.375 Y62.152 E2.87746 F1080.000
G1 X103.845 Y62.193 E2.90428
G1 X105.064 Y62.350 E2.97411
G1 X107.062 Y62.667 E3.08906
G1 X108.338 Y62.923 E3.16301
G1 X111.624 Y63.805 E3.35632
G1 X112.195 Y63.994 E3.39050
G1 X114.909 Y65.036 E3.55564
G1 X115.452 Y65.273 E3.58932
G1 X117.217 Y66.151 E3.70131
G1 X119.044 Y67.108 E3.81848
G1 X119.551 Y67.405 E3.85188
G1 X121.992 Y68.990 E4.01725
G1 X122.501 Y69.358 E4.05296
G1 X124.845 Y71.246 E4.22395
G1 X126.088 Y72.379 E4.31949
G1 X127.698 Y73.996 E4.44917
G1 X128.678 Y75.075 E4.53200
G1 X130.017 Y76.733 E4.65308
G1 X130.765 Y77.704 E4.72271
G1 X131.061 Y78.121 E4.75178
G1 X132.278 Y79.996 E4.87877
G1 X132.513 Y80.387 E4.90469
G1 X133.645 Y82.432 E5.03749
G1 X134.293 Y83.695 E5.11817
G1 X135.069 Y85.468 E5.22815
G1 X136.013 Y87.950 E5.37899
G1 X136.210 Y88.560 E5.41541
G1 X136.961 Y91.364 E5.58036
G1 X137.092 Y91.964 E5.61525
G1 X137.635 Y95.184 E5.80079
G1 X137.709 Y95.804 E5.83628
G1 X137.854 Y97.902 E5.95575
G1 X137.929 Y99.902 E6.06949
G1 X137.925 Y100.487 E6.10271
G1 X137.799 Y102.890 E6.23943
G1 X137.748 Y103.429 E6.27021
G1 X137.343 Y106.389 E6.43994
G1 X137.205 Y107.101 E6.48112
G1 X136.105 Y111.446 E6.73583
G1 X135.616 Y112.761 E6.81550
G1 X131.599 Y120.776 E7.32494
G1 X130.871 Y121.914 E7.40165
G1 X127.969 Y125.552 E7.66609
G1 X127.449 Y126.130 E7.71025
G1 X125.320 Y128.226 E7.87998
G1 X124.852 Y128.644 E7.91565
G1 X122.689 Y130.377 E8.07316
G1 X121.022 Y131.550 E8.18893
G1 X119.223 Y132.723 E8.31099
G1 X118.661 Y133.050 E8.34794
G1 X117.207 Y133.798 E8.44085
G1 X115.734 Y134.549 E8.53480
G1 X115.155 Y134.809 E8.57085
G1 X112.437 Y135.863 E8.73650
G1 X112.039 Y136.001 E8.76042
G1 X110.514 Y136.470 E8.85108
G1 X107.971 Y137.139 E9.00045
G1 X107.366 Y137.265 E9.03559
G1 X105.023 Y137.636 E9.17037
G1 X103.664 Y137.810 E9.24820
G1 X103.197 Y137.851 E9.27482
G1 X100.982 Y137.967 E9.40084
G1 X99.659 Y137.992 E9.47606
G1 X97.115 Y137.874 E9.62074
G1 X95.921 Y137.785 E9.68879
G1 X95.402 Y137.724 E9.71848
G1 X92.405 Y137.249 E9.89091
G1 X91.749 Y137.110 E9.92898
G1 X88.888 Y136.345 E10.09725
G1 X87.322 Y135.820 E10.19108
G1 X85.353 Y135.062 E10.31099
G1 X84.460 Y134.692 E10.36591
G1 X84.001 Y134.480 E10.39465
G1 X81.423 Y133.167 E10.55899
G1 X80.923 Y132.883 E10.59167
G1 X78.388 Y131.256 E10.76281
G1 X77.337 Y130.508 E10.83614
G1 X75.513 Y129.044 E10.96902
G1 X74.683 Y128.354 E11.03035
G1 X74.248 Y127.956 E11.06383
G1 X72.092 Y125.801 E11.23701
G1 X71.683 Y125.351 E11.27160
G1 X70.301 Y123.663 E11.39555
G1 X68.615 Y121.379 E11.55687
G1 X67.397 Y119.504 E11.68387
G1 X67.080 Y118.960 E11.71965
G1 X65.983 Y116.846 E11.85499
G1 X65.391 Y115.653 E11.93063
G1 X65.149 Y115.100 E11.96494
G1 X64.078 Y112.272 E12.13674
G1 X63.590 Y110.692 E12.23071
G1 X63.157 Y109.060 E12.32662
G1 X62.735 Y107.150 E12.43780
G1 X62.441 Y105.265 E12.54617
G1 X62.198 Y103.101 E12.66994
G1 X62.096 Y101.153 E12.78077
G1 X62.089 Y100.681 E12.80758
G1 X62.134 Y98.438 E12.93506
G1 X62.158 Y97.999 E12.96003
G1 X62.390 Y95.386 E13.10908
G1 X62.484 Y94.719 E13.14731
G1 X63.168 Y91.203 E13.35086
G1 X63.736 Y89.536 E13.45091
G1 X69.908 Y77.222 E14.23354
G1 X70.906 Y75.767 E14.33381
G1 X73.280 Y73.154 E14.53436
G1 X74.963 Y74.007 F7800.000
G1 X76.158 Y73.609 E14.60593 F1080.000
G1 X76.303 Y73.484 E14.61683
G1 X76.930 Y72.234 E14.69628
G1 X78.125 Y71.837 E14.76785
G1 X78.270 Y71.711 E14.77875
G1 X78.360 Y71.532 E14.79012
G1 X79.568 Y70.474 E14.88136
G1 X80.229 Y70.246 E14.92112
G1 X81.225 Y69.474 E14.99273
G1 X82.077 Y69.088 E15.04584
G1 X82.781 Y68.947 E15.08664
G1 X82.958 Y68.812 E15.09930
G1 X83.292 Y68.146 E15.14166
G1 X85.080 Y67.552 E15.24871
G1 X85.871 Y67.051 E15.30190
G1 X88.894 Y65.878 E15.48611
G1 X91.444 Y65.194 E15.63612
G1 X91.587 Y65.132 E15.64497
G1 X94.625 Y64.500 E15.82128
G1 X94.674 Y64.519 E15.82428
G1 X94.839 Y64.522 E15.83362
G1 X95.443 Y64.321 E15.86982
G1 X95.618 Y64.369 E15.88013
G1 X98.595 Y64.144 E16.04974
G1 X98.705 Y64.167 E16.05613
G1 X100.893 Y64.052 E16.18060
G1 X101.037 Y64.126 E16.18982
G1 X101.135 Y64.152 E16.19555 F1080.000
G1 X102.664 Y64.232 E16.28254
G1 X102.865 Y64.201 E16.29411
G1 X105.724 Y64.561 E16.45781
G1 X105.808 Y64.619 E16.46362
G1 X105.980 Y64.661 E16.47368
G1 X106.180 Y64.636 E16.48514
G1 X108.975 Y65.214 E16.64732
G1 X109.136 Y65.315 E16.65807
G1 X110.386 Y65.650 E16.73160
G1 X110.628 Y65.658 E16.74538
G1 X115.072 Y67.364 E17.01586
G1 X115.264 Y67.537 E17.03054
G1 X117.098 Y68.456 E17.14711
G1 X117.146 Y68.511 E17.15124
G1 X117.295 Y68.594 E17.16095
G1 X117.564 Y68.637 E17.17644
G1 X121.560 Y71.232 E17.44716
G1 X121.683 Y71.381 E17.45818
G1 X122.632 Y72.084 E17.52524
G1 X122.749 Y72.269 E17.53771
G1 X123.681 Y73.023 E17.60580
G1 X123.797 Y73.078 E17.61308
G1 X124.133 Y73.390 E17.63913
G1 X124.192 Y73.474 E17.64499
G1 X125.236 Y74.517 E17.72884
G1 X125.365 Y74.588 E17.73722
G1 X127.360 Y76.751 E17.90439
G1 X128.504 Y77.973 E17.99948
G1 X128.566 Y78.018 E18.00383
G1 X128.715 Y78.468 E18.03078
G1 X128.756 Y78.544 E18.03567
G1 X129.539 Y79.518 E18.10665
G1 X129.640 Y79.817 E18.12459
G1 X130.835 Y81.657 E18.24929
G1 X131.106 Y82.485 E18.29878
G1 X131.169 Y82.585 E18.30548
G1 X131.543 Y82.948 E18.33511
G1 X131.846 Y83.521 E18.37196
G1 X131.980 Y83.647 E18.38238
G1 X133.227 Y86.520 E18.56033
G1 X134.205 Y89.146 E18.71954
G1 X134.245 Y89.399 E18.73412
G1 X135.028 Y92.320 E18.90590
G1 X135.088 Y93.063 E18.94830
G1 X135.067 Y93.268 E18.95997
G1 X135.103 Y93.423 E18.96901
G1 X135.218 Y93.609 E18.98147
G1 X135.235 Y93.998 E19.00358
G1 X135.297 Y94.151 E19.01296
G1 X135.487 Y94.367 E19.02933
G1 X135.755 Y98.149 E19.24474
G1 X135.720 Y98.697 E19.27594
G1 X135.646 Y99.068 E19.29743
G1 X135.654 Y99.193 E19.30456
G1 X136.117 Y100.587 E19.38803
G1 X135.608 Y101.604 E19.45261
G1 X135.594 Y101.795 E19.46351
G1 X135.991 Y102.990 E19.53508
G1 X135.203 Y104.563 E19.63505
G1 X135.189 Y104.755 E19.64594
G1 X135.586 Y105.950 E19.71752
G1 X134.103 Y108.909 E19.90559
G1 X134.089 Y109.100 E19.91648
G1 X134.486 Y110.296 E19.98806
G1 X128.948 Y121.346 E20.69036
G1 X127.752 Y121.743 E20.76194
G1 X127.607 Y121.869 E20.77283
G1 X126.046 Y124.985 E20.97086
G1 X124.850 Y125.382 E21.04243
G1 X124.705 Y125.508 E21.05333
G1 X124.533 Y125.851 E21.07516
G1 X124.211 Y126.319 E21.10745
G1 X123.776 Y126.794 E21.14403
G1 X123.338 Y127.156 E21.17633
G1 X122.620 Y127.598 E21.22421
G1 X122.530 Y127.697 E21.23184
G1 X122.102 Y128.550 E21.28608
G1 X120.906 Y128.948 E21.35765
G1 X120.761 Y129.073 E21.36855
G1 X120.523 Y129.549 E21.39880
G1 X118.640 Y130.547 E21.51986
G1 X118.095 Y131.034 E21.56141
G1 X117.594 Y131.232 E21.59206
G1 X117.462 Y131.353 E21.60218
G1 X117.383 Y131.510 E21.61218
G1 X115.633 Y132.104 E21.71720
G1 X114.070 Y133.258 E21.82758
G1 X113.430 Y133.238 E21.86400
G1 X113.335 Y133.254 E21.86947
G1 X110.322 Y134.410 E22.05282
G1 X110.229 Y134.388 E22.05824
G1 X110.109 Y134.390 E22.06507
G1 X107.752 Y135.021 E22.20374
G1 X107.582 Y135.090 E22.21413
G1 X104.586 Y135.564 E22.38645
G1 X104.357 Y135.647 E22.40031
G1 X104.003 Y135.890 E22.42471
G1 X102.181 Y135.787 E22.52838
G1 X99.624 Y135.921 E22.67389
G1 X99.501 Y135.882 E22.68123
G1 X97.900 Y135.798 E22.77228
G1 X97.811 Y135.809 E22.77738
G1 X94.918 Y135.587 E22.94226
G1 X94.852 Y135.545 E22.94667
G1 X94.730 Y135.507 E22.95393
G1 X93.868 Y135.474 E23.00299
G1 X93.724 Y135.373 E23.01298
G1 X93.497 Y135.340 E23.02599
G1 X93.341 Y135.391 E23.03532
G1 X92.594 Y135.017 E23.08281
G1 X92.464 Y134.992 E23.09032
G1 X92.113 Y135.020 E23.11034
G1 X90.150 Y134.494 E23.22579
G1 X89.952 Y134.490 E23.23705
G1 X87.277 Y133.575 E23.39770
G1 X87.166 Y133.495 E23.40546
G1 X85.989 Y133.044 E23.47707
G1 X85.790 Y133.018 E23.48848
G1 X83.928 Y132.070 E23.60720
G1 X83.115 Y131.942 E23.65397
G1 X82.330 Y131.204 E23.71519
G1 X80.574 Y130.313 E23.82707
G1 X80.422 Y130.081 E23.84280
G1 X80.351 Y130.010 E23.84851
G1 X78.819 Y129.015 E23.95230
G1 X78.469 Y128.556 E23.98512
G1 X78.177 Y128.354 E24.00524
G1 X77.531 Y128.031 E24.04630
G1 X77.499 Y127.934 E24.05211
G1 X77.407 Y127.809 E24.06091
G1 X76.722 Y127.328 E24.10848
G1 X76.539 Y127.257 E24.11964
G1 X73.070 Y123.788 E24.39839
G1 X72.962 Y123.590 E24.41118
G1 X71.522 Y121.812 E24.54121
G1 X71.217 Y121.079 E24.58630
G1 X71.099 Y120.952 E24.59616
G1 X70.456 Y120.630 E24.63700
G1 X70.212 Y119.895 E24.68102
G1 X70.173 Y119.822 E24.68568
G1 X69.446 Y118.886 E24.75303
G1 X69.363 Y118.817 E24.75917
G1 X69.239 Y118.755 E24.76704
G1 X68.653 Y116.991 E24.87270
G1 X68.592 Y116.893 E24.87925
G1 X68.154 Y116.465 E24.91404
G1 X67.814 Y115.813 E24.95578
G1 X67.741 Y115.729 E24.96215
G1 X67.622 Y115.643 E24.97043
G1 X66.676 Y113.176 E25.12056
G1 X66.600 Y113.073 E25.12786
G1 X66.524 Y113.012 E25.13337
G1 X65.632 Y110.157 E25.30332
G1 X65.550 Y110.037 E25.31158
G1 X64.790 Y106.720 E25.50490
G1 X64.760 Y106.153 E25.53717
G1 X64.728 Y106.045 E25.54361
G1 X64.505 Y105.656 E25.56907
G1 X64.480 Y104.776 E25.61910
G1 X64.394 Y104.590 E25.63073
G1 X64.192 Y100.742 E25.84967
G1 X64.233 Y100.213 E25.87981
G1 X64.375 Y99.571 E25.91717
G1 X64.376 Y99.412 E25.92624
G1 X63.950 Y98.131 E26.00294
G1 X64.565 Y96.904 E26.08088
G1 X64.579 Y96.713 E26.09178
G1 X64.181 Y95.517 E26.16335
G1 X65.249 Y93.388 E26.29871
G1 X65.263 Y93.196 E26.30961
G1 X64.865 Y92.001 E26.38118
G1 X68.842 Y84.068 E26.88536
G1 X72.558 Y76.652 E27.35669
G1 X73.754 Y76.255 E27.42826
G1 X73.899 Y76.129 E27.43915
G1 X74.943 Y74.047 E27.57150
G1 X75.304 Y74.401 F7800.000
G1 X76.500 Y74.004 E27.64308 F1080.000
G1 X76.645 Y73.878 E27.65397
G1 X77.271 Y72.628 E27.73342
G1 X78.467 Y72.231 E27.80499
G1 X78.612 Y72.106 E27.81589
G1 X78.748 Y71.833 E27.83325
G1 X79.814 Y70.899 E27.91375
G1 X80.514 Y70.658 E27.95582
G1 X80.624 Y70.582 E27.96336
G1 X80.719 Y70.466 E27.97190
G1 X81.474 Y69.890 E28.02585
G1 X82.226 Y69.550 E28.07271
G1 X83.107 Y69.374 E28.12377
G1 X83.284 Y69.239 E28.13643
G1 X83.634 Y68.540 E28.18081
G1 X85.329 Y67.977 E28.28229
G1 X85.515 Y67.836 E28.29555
G1 X86.086 Y67.485 E28.33364
G1 X89.068 Y66.330 E28.51533
G1 X91.608 Y65.649 E28.66476
G1 X91.738 Y65.593 E28.67282
G1 X94.587 Y65.001 E28.83815
G1 X94.666 Y65.030 E28.84290
G1 X94.830 Y65.032 E28.85224
G1 X95.406 Y64.841 E28.88672
G1 X95.440 Y64.858 E28.88889
G1 X95.634 Y64.871 E28.89996
G1 X95.707 Y64.846 E28.90430
G1 X98.507 Y64.635 E29.06385
G1 X98.606 Y64.655 E29.06962
G1 X100.789 Y64.540 E29.19383
G1 X101.008 Y64.628 E29.20720 F1080.000
G1 X102.695 Y64.716 E29.30321
G1 X102.879 Y64.689 E29.31377
G1 X105.547 Y65.025 E29.46655
G1 X105.686 Y65.120 E29.47611
G1 X105.858 Y65.162 E29.48616
G1 X106.160 Y65.124 E29.50350
G1 X108.768 Y65.664 E29.65478
G1 X108.917 Y65.755 E29.66471
G1 X110.323 Y66.132 E29.74742
G1 X110.539 Y66.140 E29.75973
G1 X114.804 Y67.777 E30.01931
G1 X114.978 Y67.933 E30.03260
G1 X116.796 Y68.844 E30.14813
G1 X116.897 Y68.960 E30.15684
G1 X117.046 Y69.043 E30.16655
G1 X117.388 Y69.097 E30.18622
G1 X121.223 Y71.587 E30.44604
G1 X121.337 Y71.725 E30.45619
G1 X122.253 Y72.403 E30.52094
G1 X122.366 Y72.579 E30.53280
G1 X123.447 Y73.455 E30.61186
G1 X123.538 Y73.501 E30.61765
G1 X124.972 Y74.935 E30.73289
G1 X125.092 Y75.003 E30.74072
G1 X128.015 Y78.156 E30.98502
G1 X128.172 Y78.362 E30.99972
G1 X128.326 Y78.778 E31.02496
G1 X129.105 Y79.747 E31.09560
G1 X129.199 Y80.023 E31.11212
G1 X130.397 Y81.867 E31.23708
G1 X130.685 Y82.749 E31.28978
G1 X130.747 Y82.849 E31.29648
G1 X131.153 Y83.241 E31.32853
G1 X131.476 Y83.853 E31.36787
G1 X131.594 Y83.968 E31.37719
G1 X132.764 Y86.663 E31.54415
G1 X133.736 Y89.269 E31.70219
G1 X133.773 Y89.499 E31.71541
G1 X134.551 Y92.402 E31.88618
G1 X134.604 Y93.058 E31.92358
G1 X134.571 Y93.382 E31.94205
G1 X134.606 Y93.537 E31.95110
G1 X134.742 Y93.756 E31.96573
G1 X134.761 Y94.189 E31.99038
G1 X134.823 Y94.342 E31.99975
G1 X135.018 Y94.564 E32.01653
G1 X135.272 Y98.151 E32.22086
G1 X135.241 Y98.635 E32.24839
G1 X135.148 Y99.099 E32.27529
G1 X135.156 Y99.224 E32.28242
G1 X135.597 Y100.550 E32.36180
G1 X135.087 Y101.566 E32.42639
G1 X135.073 Y101.758 E32.43728
G1 X135.471 Y102.953 E32.50885
G1 X134.682 Y104.526 E32.60882
G1 X134.669 Y104.717 E32.61972
G1 X135.066 Y105.913 E32.69129
G1 X133.583 Y108.872 E32.87936
G1 X133.569 Y109.063 E32.89025
G1 X133.966 Y110.258 E32.96183
G1 X128.606 Y120.952 E33.64144
G1 X127.411 Y121.349 E33.71302
G1 X127.266 Y121.474 E33.72391
G1 X125.704 Y124.590 E33.92194
G1 X124.509 Y124.988 E33.99351
G1 X124.364 Y125.113 E34.00441
G1 X124.117 Y125.605 E34.03568
G1 X123.833 Y126.018 E34.06418
G1 X123.443 Y126.443 E34.09695
G1 X123.057 Y126.763 E34.12545
G1 X122.251 Y127.259 E34.17922
G1 X122.160 Y127.358 E34.18686
G1 X121.760 Y128.156 E34.23754
G1 X120.565 Y128.553 E34.30911
G1 X120.420 Y128.679 E34.32000
G1 X120.161 Y129.195 E34.35284
G1 X118.360 Y130.149 E34.46864
G1 X117.836 Y130.619 E34.50863
G1 X117.245 Y130.852 E34.54469
G1 X117.114 Y130.972 E34.55481
G1 X117.042 Y131.115 E34.56394
G1 X115.408 Y131.671 E34.66196
G1 X113.918 Y132.771 E34.76719
G1 X113.348 Y132.753 E34.79964
G1 X113.253 Y132.769 E34.80512
G1 X110.289 Y133.907 E34.98552
G1 X110.102 Y133.892 E34.99614
G1 X107.596 Y134.564 E35.14356
G1 X107.450 Y134.623 E35.15251
G1 X104.472 Y135.094 E35.32381
G1 X104.140 Y135.211 E35.34379
G1 X103.866 Y135.399 E35.36269
G1 X102.183 Y135.304 E35.45849
G1 X99.727 Y135.433 E35.59819
G1 X99.628 Y135.406 E35.60404
G1 X97.860 Y135.313 E35.70463
G1 X97.777 Y135.322 E35.70940
G1 X95.075 Y135.116 E35.86335
G1 X95.001 Y135.069 E35.86831
G1 X94.879 Y135.031 E35.87557
G1 X94.028 Y134.997 E35.92396
G1 X93.802 Y134.839 E35.93968
G1 X93.575 Y134.806 E35.95268
G1 X93.379 Y134.871 E35.96445
G1 X92.690 Y134.526 E36.00824
G1 X92.560 Y134.500 E36.01575
G1 X92.157 Y134.533 E36.03869
G1 X90.207 Y134.010 E36.15344
G1 X90.025 Y134.005 E36.16374
G1 X87.531 Y133.153 E36.31350
G1 X87.427 Y133.079 E36.32073
G1 X86.096 Y132.569 E36.40173
G1 X85.923 Y132.545 E36.41167
G1 X84.075 Y131.604 E36.52949
G1 X83.336 Y131.486 E36.57201
G1 X82.612 Y130.806 E36.62846
G1 X80.907 Y129.941 E36.73708
G1 X80.770 Y129.732 E36.75127
G1 X80.699 Y129.661 E36.75698
G1 X79.156 Y128.659 E36.86150
G1 X78.811 Y128.208 E36.89379
G1 X78.425 Y127.940 E36.92048
G1 X77.926 Y127.689 E36.95223
G1 X77.906 Y127.631 E36.95573
G1 X77.814 Y127.506 E36.96453
G1 X76.940 Y126.891 E37.02527
G1 X76.797 Y126.834 E37.03399
G1 X73.464 Y123.501 E37.30182
G1 X73.369 Y123.326 E37.31315
