; generated by Slic3r 1.1.7 on 2017-05-26 at 15:12:01

; perimeters extrusion width = 0.30mm
; infill extrusion width = 0.32mm
; solid infill extrusion width = 0.32mm
; top infill extrusion width = 0.32mm

G21 ; set units to millimeters
M107
M190 S105 ; wait for bed temperature to be reached
M104 S240 ; set temperature
G28 ; home all axes
G1 Z5 F5000 ; lift nozzle

M109 S240 ; wait for temperature to be reached
G90 ; use absolute coordinates
G92 E0
M82 ; use absolute distances for extrusion
G1 F1800.000 E-1.00000
G92 E0
G1 Z0.300 F7800.000
G1 X66.731 Y67.121 F7800.000
G1 E1.00000 F1800.000
G1 X67.629 Y66.273 E1.08249 F1080.000
G1 X68.611 Y65.524 E1.16498
G1 X69.665 Y64.882 E1.24747
G1 X70.781 Y64.354 E1.32996
G1 X71.947 Y63.945 E1.41245
G1 X73.148 Y63.660 E1.49495
G1 X74.373 Y63.502 E1.57743
G1 X75.265 Y63.464 E1.63711
G1 X125.077 Y63.473 E4.96480
G1 X126.308 Y63.574 E5.04729 F1080.000
G1 X127.521 Y63.802 E5.12975
G1 X128.704 Y64.156 E5.21227
G1 X129.843 Y64.632 E5.29476
G1 X130.927 Y65.224 E5.37725
G1 X131.943 Y65.926 E5.45974
G1 X132.879 Y66.731 E5.54223
G1 X133.077 Y66.929 E5.56092
G1 X133.727 Y67.629 E5.62474
G1 X134.068 Y68.051 E5.66101
G1 X134.476 Y68.611 E5.70726
G1 X134.771 Y69.066 E5.74353
G1 X135.118 Y69.665 E5.78977
G1 X135.646 Y70.781 E5.87226
G1 X136.055 Y71.947 E5.95475
G1 X136.340 Y73.148 E6.03725
G1 X136.425 Y73.684 E6.07351
G1 X136.498 Y74.373 E6.11976
G1 X136.536 Y75.265 E6.17943
G1 X136.527 Y125.077 E9.50712
G1 X136.498 Y125.620 E9.54346
G1 X136.426 Y126.308 E9.58964
G1 X136.341 Y126.844 E9.62591
G1 X136.198 Y127.521 E9.67216
G1 X135.844 Y128.704 E9.75465
G1 X135.649 Y129.212 E9.79098
G1 X135.368 Y129.843 E9.83717
G1 X135.121 Y130.328 E9.87352
G1 X134.776 Y130.927 E9.91969
G1 X134.480 Y131.383 E9.95600
G1 X134.074 Y131.943 E10.00221
G1 X133.732 Y132.365 E10.03850
G1 X133.269 Y132.879 E10.08472
G1 X132.881 Y133.267 E10.12134
G1 X132.371 Y133.726 E10.16721
G1 X131.390 Y134.475 E10.24969
G1 X130.336 Y135.117 E10.33214
G1 X129.219 Y135.646 E10.41465
G1 X128.053 Y136.055 E10.49721
G1 X126.852 Y136.340 E10.57969
G1 X125.628 Y136.498 E10.66212
G1 X124.735 Y136.536 E10.72186
G1 X74.915 Y136.526 E14.05011
G1 X73.692 Y136.426 E14.13204
G1 X72.479 Y136.198 E14.21453
G1 X71.296 Y135.844 E14.29703
G1 X70.157 Y135.368 E14.37952
G1 X69.073 Y134.776 E14.46199
G1 X68.057 Y134.074 E14.54449
G1 X67.121 Y133.269 E14.62699
G1 X66.273 Y132.371 E14.70948
G1 X65.932 Y131.949 E14.74575
G1 X65.524 Y131.389 E14.79200
G1 X64.882 Y130.335 E14.87449
G1 X64.354 Y129.219 E14.95698
G1 X63.945 Y128.053 E15.03947
G1 X63.804 Y127.529 E15.07576
G1 X63.660 Y126.852 E15.12199
G1 X63.502 Y125.627 E15.20447
G1 X63.464 Y124.735 E15.26415
G1 X63.473 Y74.923 E18.59185
G1 X63.574 Y73.692 E18.67433
G1 X63.802 Y72.479 E18.75682
G1 X64.156 Y71.296 E18.83932
G1 X64.632 Y70.157 E18.92180
G1 X65.224 Y69.073 E19.00429
G1 X65.926 Y68.057 E19.08678
G1 X66.702 Y67.155 E19.16627
G1 F1800.000 E18.16627
G92 E0
G1 X77.753 Y126.171 F7800.000
G1 E1.00000 F1800.000
G1 X77.589 Y126.424 E1.02010 F540.000
G1 X77.346 Y126.711 E1.04527
G1 X77.188 Y126.870 E1.06025
G1 X76.954 Y127.059 E1.08034
G1 X76.702 Y127.223 E1.10043
G1 X76.434 Y127.360 E1.12052
G1 X76.153 Y127.467 E1.14061
G1 X75.863 Y127.545 E1.16070
G1 X75.565 Y127.592 E1.18080
G1 X75.265 Y127.608 E1.20090
G1 X74.965 Y127.592 E1.22098
G1 X74.743 Y127.557 E1.23596
G1 X74.377 Y127.467 E1.26113
G1 X74.097 Y127.360 E1.28122
G1 X73.829 Y127.223 E1.30132
G1 X73.576 Y127.059 E1.32141
G1 X73.402 Y126.918 E1.33638
G1 X73.130 Y126.657 E1.36156
G1 X72.941 Y126.424 E1.38166
G1 X72.777 Y126.171 E1.40174
G1 X72.640 Y125.903 E1.42184
G1 X72.533 Y125.623 E1.44193
G1 X72.455 Y125.332 E1.46203
G1 X72.408 Y125.035 E1.48212
G1 X72.392 Y124.735 E1.50220
G1 X72.408 Y124.434 E1.52230
G1 X72.455 Y124.137 E1.54238
G1 X72.533 Y123.847 E1.56248
G1 X72.640 Y123.566 E1.58257
G1 X72.777 Y123.298 E1.60266
G1 X72.941 Y123.046 E1.62275
G1 X73.130 Y122.812 E1.64284
G1 X73.343 Y122.600 E1.66293
G1 X73.576 Y122.411 E1.68300
G1 X73.828 Y122.247 E1.70310
G1 X74.096 Y122.110 E1.72319
G1 X74.377 Y122.002 E1.74329
G1 X74.668 Y121.925 E1.76336
G1 X74.965 Y121.877 E1.78346
G1 X75.265 Y121.862 E1.80355
G1 X75.489 Y121.873 E1.81852
G1 X75.862 Y121.924 E1.84370 F540.000
G1 X76.153 Y122.002 E1.86380
G1 X76.434 Y122.110 E1.88391
G1 X76.702 Y122.247 E1.90399
G1 X76.954 Y122.410 E1.92408
G1 X77.188 Y122.600 E1.94418
G1 X77.400 Y122.812 E1.96426
G1 X77.590 Y123.046 E1.98435
G1 X77.753 Y123.298 E2.00445
G1 X77.890 Y123.566 E2.02453
G1 X77.998 Y123.847 E2.04463
G1 X78.075 Y124.137 E2.06471
G1 X78.123 Y124.435 E2.08481
G1 X78.138 Y124.735 E2.10490
G1 X78.123 Y125.035 E2.12499
G1 X78.075 Y125.332 E2.14509
G1 X77.998 Y125.623 E2.16518
G1 X77.890 Y125.903 E2.18526
G1 X77.774 Y126.131 E2.20235
G1 X77.289 Y125.903 F7800.000
G1 X77.156 Y126.108 E2.21869 F540.000
G1 X76.967 Y126.333 E2.23825
G1 X76.639 Y126.625 E2.26766
G1 X76.434 Y126.759 E2.28400
G1 X76.216 Y126.870 E2.30034
G1 X75.987 Y126.957 E2.31667
G1 X75.751 Y127.021 E2.33301
G1 X75.509 Y127.059 E2.34936
G1 X75.265 Y127.072 E2.36570
G1 X74.827 Y127.028 E2.39510
G1 X74.543 Y126.957 E2.41466
G1 X74.315 Y126.870 E2.43100
G1 X74.097 Y126.759 E2.44734
G1 X73.892 Y126.625 E2.46368
G1 X73.702 Y126.471 E2.48002
G1 X73.529 Y126.298 E2.49636
G1 X73.375 Y126.108 E2.51270
G1 X73.241 Y125.903 E2.52904
G1 X73.130 Y125.685 E2.54538
G1 X73.043 Y125.457 E2.56172
G1 X72.979 Y125.221 E2.57807
G1 X72.941 Y124.979 E2.59441
G1 X72.928 Y124.735 E2.61074
G1 X72.941 Y124.490 E2.62709
G1 X72.979 Y124.249 E2.64342
G1 X73.043 Y124.013 E2.65977
G1 X73.130 Y123.784 E2.67611
G1 X73.242 Y123.566 E2.69245
G1 X73.375 Y123.361 E2.70879
G1 X73.529 Y123.171 E2.72513
G1 X73.702 Y122.998 E2.74146
G1 X73.892 Y122.844 E2.75780
G1 X74.097 Y122.711 E2.77414
G1 X74.315 Y122.600 E2.79048
G1 X74.543 Y122.512 E2.80683
G1 X74.779 Y122.449 E2.82315
G1 X75.217 Y122.401 E2.85256
G1 X75.509 Y122.411 E2.87212 F540.000
G1 X75.751 Y122.449 E2.88846
G1 X75.987 Y122.512 E2.90481
G1 X76.216 Y122.600 E2.92116
G1 X76.434 Y122.711 E2.93749
G1 X76.639 Y122.844 E2.95383
G1 X76.829 Y122.998 E2.97017
G1 X77.002 Y123.171 E2.98651
G1 X77.156 Y123.361 E3.00285
G1 X77.289 Y123.566 E3.01919
G1 X77.400 Y123.784 E3.03553
G1 X77.488 Y124.013 E3.05188
G1 X77.551 Y124.249 E3.06821
G1 X77.589 Y124.491 E3.08455
G1 X77.602 Y124.735 E3.10089
G1 X77.589 Y124.979 E3.11723
G1 X77.551 Y125.221 E3.13358
G1 X77.488 Y125.457 E3.14992
G1 X77.309 Y125.863 E3.17955
G1 X76.824 Y125.635 F7800.000
G1 X76.589 Y125.954 E3.20604 F378.000
G1 X76.323 Y126.191 E3.22983
G1 X76.165 Y126.294 E3.24242
G1 X75.822 Y126.447 E3.26756
G1 X75.640 Y126.496 E3.28015
G1 X75.265 Y126.535 E3.30530
G1 X74.911 Y126.499 E3.32908
G1 X74.709 Y126.447 E3.34302
G1 X74.365 Y126.294 E3.36817
G1 X74.207 Y126.191 E3.38076
G1 X73.927 Y125.940 E3.40590
G1 X73.706 Y125.635 E3.43105
G1 X73.553 Y125.291 E3.45619
G1 X73.504 Y125.109 E3.46879
G1 X73.465 Y124.735 E3.49393
G1 X73.475 Y124.547 E3.50652
G1 X73.553 Y124.178 E3.53166
G1 X73.706 Y123.835 E3.55681
G1 X73.927 Y123.530 E3.58195
G1 X74.207 Y123.278 E3.60709
G1 X74.365 Y123.176 E3.61968
G1 X74.552 Y123.083 E3.63363
G1 X74.891 Y122.974 E3.65741
G1 X75.077 Y122.944 E3.67000
G1 X75.433 Y122.943 E3.69378
G1 X75.822 Y123.023 E3.72028 F378.000
G1 X76.165 Y123.176 E3.74543
G1 X76.323 Y123.278 E3.75801
G1 X76.603 Y123.530 E3.78316
G1 X76.824 Y123.835 E3.80830
G1 X76.910 Y124.003 E3.82089
G1 X77.026 Y124.360 E3.84604
G1 X77.066 Y124.735 E3.87118
G1 X77.026 Y125.109 E3.89633
G1 X76.977 Y125.291 E3.90892
G1 X76.845 Y125.595 E3.93106
G1 F1800.000 E2.93106
G92 E0
G1 X75.415 Y122.644 F7800.000
G1 X121.862 Y124.735 F7800.000
G1 E1.00000 F1800.000
G1 X121.877 Y124.434 E1.02009 F540.000
G1 X121.925 Y124.137 E1.04018
G1 X122.002 Y123.847 E1.06026
G1 X122.110 Y123.566 E1.08036
G1 X122.247 Y123.298 E1.10045
G1 X122.411 Y123.046 E1.12054
G1 X122.600 Y122.812 E1.14062
G1 X122.812 Y122.600 E1.16070
G1 X123.046 Y122.411 E1.18079
G1 X123.298 Y122.247 E1.20089
G1 X123.566 Y122.110 E1.22098
G1 X123.847 Y122.002 E1.24108
G1 X124.137 Y121.925 E1.26115
G1 X124.434 Y121.877 E1.28124
G1 X124.735 Y121.862 E1.30133
G1 X124.959 Y121.873 E1.31632
G1 X125.332 Y121.924 E1.34151 F540.000
G1 X125.623 Y122.002 E1.36160
G1 X125.904 Y122.110 E1.38169
G1 X126.171 Y122.247 E1.40178
G1 X126.424 Y122.410 E1.42187
G1 X126.657 Y122.600 E1.44196
G1 X126.870 Y122.812 E1.46205
G1 X127.059 Y123.046 E1.48214
G1 X127.223 Y123.298 E1.50224
G1 X127.360 Y123.566 E1.52232
G1 X127.467 Y123.847 E1.54241
G1 X127.545 Y124.137 E1.56249
G1 X127.592 Y124.434 E1.58259
G1 X127.608 Y124.735 E1.60267
G1 X127.592 Y125.035 E1.62278
G1 X127.545 Y125.332 E1.64287
G1 X127.467 Y125.623 E1.66295
G1 X127.360 Y125.903 E1.68304
G1 X127.223 Y126.171 E1.70314
G1 X127.011 Y126.483 E1.72832
G1 X126.870 Y126.657 E1.74329
G1 X126.657 Y126.870 E1.76339
G1 X126.424 Y127.059 E1.78348
G1 X126.236 Y127.181 E1.79846
G1 X125.903 Y127.360 E1.82364
G1 X125.623 Y127.467 E1.84373
G1 X125.332 Y127.545 E1.86383
G1 X125.111 Y127.580 E1.87880
G1 X124.735 Y127.608 E1.90399
G1 X124.434 Y127.592 E1.92407
G1 X124.137 Y127.545 E1.94416
G1 X123.847 Y127.467 E1.96425
G1 X123.566 Y127.360 E1.98435
G1 X123.298 Y127.223 E2.00445
G1 X123.110 Y127.101 E2.01941
G1 X122.812 Y126.870 E2.04459
G1 X122.600 Y126.657 E2.06468
G1 X122.410 Y126.424 E2.08478
G1 X122.247 Y126.171 E2.10486
G1 X122.110 Y125.903 E2.12496
G1 X122.002 Y125.623 E2.14504
G1 X121.924 Y125.332 E2.16514
G1 X121.877 Y125.035 E2.18522
G1 X121.864 Y124.780 E2.20233
G1 X122.398 Y124.735 F7800.000
G1 X122.411 Y124.490 E2.21866 F540.000
G1 X122.449 Y124.249 E2.23501
G1 X122.512 Y124.013 E2.25134
G1 X122.600 Y123.784 E2.26768
G1 X122.711 Y123.566 E2.28402
G1 X122.844 Y123.361 E2.30036
G1 X122.998 Y123.171 E2.31670
G1 X123.171 Y122.998 E2.33303
G1 X123.361 Y122.844 E2.34937
G1 X123.566 Y122.711 E2.36571
G1 X123.784 Y122.600 E2.38205
G1 X124.013 Y122.512 E2.39840
G1 X124.249 Y122.449 E2.41473
G1 X124.686 Y122.401 E2.44413
G1 X124.979 Y122.411 E2.46370 F540.000
G1 X125.221 Y122.449 E2.48004
G1 X125.457 Y122.512 E2.49639
G1 X125.685 Y122.600 E2.51273
G1 X125.903 Y122.711 E2.52907
G1 X126.108 Y122.844 E2.54540
G1 X126.298 Y122.998 E2.56175
G1 X126.471 Y123.171 E2.57809
G1 X126.625 Y123.361 E2.59443
G1 X126.759 Y123.566 E2.61077
G1 X126.870 Y123.784 E2.62711
G1 X126.957 Y124.013 E2.64345
G1 X127.051 Y124.443 E2.67285
G1 X127.072 Y124.735 E2.69240
G1 X127.059 Y124.979 E2.70875
G1 X127.008 Y125.267 E2.72831
G1 X126.870 Y125.685 E2.75771
G1 X126.759 Y125.903 E2.77406
G1 X126.625 Y126.108 E2.79040
G1 X126.471 Y126.298 E2.80673
G1 X126.298 Y126.471 E2.82308
G1 X126.108 Y126.625 E2.83942
G1 X125.728 Y126.848 E2.86882
G1 X125.457 Y126.957 E2.88839
G1 X125.027 Y127.051 E2.91779
G1 X124.735 Y127.072 E2.93736
G1 X124.491 Y127.059 E2.95369
G1 X124.249 Y127.021 E2.97003
G1 X124.013 Y126.957 E2.98637
G1 X123.610 Y126.780 E3.01578
G1 X123.361 Y126.625 E3.03534
G1 X123.171 Y126.471 E3.05168
G1 X122.998 Y126.298 E3.06802
G1 X122.844 Y126.108 E3.08436
G1 X122.711 Y125.903 E3.10069
G1 X122.600 Y125.685 E3.11704
G1 X122.512 Y125.457 E3.13338
G1 X122.449 Y125.221 E3.14972
G1 X122.400 Y124.780 E3.17936
G1 X122.934 Y124.735 F7800.000
G1 X122.974 Y124.360 E3.20451 F378.000
G1 X123.090 Y124.002 E3.22965
G1 X123.278 Y123.677 E3.25480
G1 X123.530 Y123.397 E3.27994
G1 X123.835 Y123.176 E3.30508
G1 X124.178 Y123.023 E3.33023
G1 X124.547 Y122.944 E3.35537
G1 X124.903 Y122.943 E3.37915
G1 X125.291 Y123.023 E3.40565 F378.000
G1 X125.467 Y123.090 E3.41824
G1 X125.793 Y123.278 E3.44338
G1 X125.940 Y123.397 E3.45597
G1 X126.191 Y123.677 E3.48112
G1 X126.380 Y124.003 E3.50626
G1 X126.447 Y124.178 E3.51885
G1 X126.522 Y124.526 E3.54263
G1 X126.535 Y124.735 E3.55658
G1 X126.525 Y124.923 E3.56917
G1 X126.447 Y125.291 E3.59431
G1 X126.294 Y125.635 E3.61946
G1 X126.179 Y125.809 E3.63341
G1 X125.940 Y126.073 E3.65719
G1 X125.652 Y126.283 E3.68097
G1 X125.467 Y126.380 E3.69492
G1 X125.291 Y126.447 E3.70751
G1 X124.943 Y126.522 E3.73129
G1 X124.547 Y126.525 E3.75779
G1 X124.198 Y126.452 E3.78157
G1 X124.003 Y126.380 E3.79552
G1 X123.694 Y126.203 E3.81930
G1 X123.530 Y126.073 E3.83324
G1 X123.278 Y125.793 E3.85839
G1 X123.090 Y125.467 E3.88353
G1 X123.023 Y125.291 E3.89612
G1 X122.974 Y125.109 E3.90871
G1 X122.937 Y124.780 E3.93086
G1 F1800.000 E2.93086
G92 E0
G1 X125.013 Y122.664 F7800.000
G1 X124.735 Y78.138 F7800.000
G1 E1.00000 F1800.000
G1 X124.434 Y78.123 E1.02010 F540.000
G1 X124.137 Y78.076 E1.04018
G1 X123.847 Y77.998 E1.06028
G1 X123.566 Y77.890 E1.08036
G1 X123.298 Y77.753 E1.10046
G1 X123.046 Y77.590 E1.12054
G1 X122.812 Y77.400 E1.14063
G1 X122.600 Y77.188 E1.16072
G1 X122.410 Y76.954 E1.18081
G1 X122.247 Y76.702 E1.20090
G1 X122.110 Y76.434 E1.22099
G1 X122.002 Y76.153 E1.24108
G1 X121.924 Y75.862 E1.26119
G1 X121.877 Y75.565 E1.28128
G1 X121.862 Y75.265 E1.30136
G1 X121.877 Y74.965 E1.32145
G1 X121.925 Y74.668 E1.34155
G1 X122.002 Y74.377 E1.36164
G1 X122.110 Y74.097 E1.38172
G1 X122.247 Y73.829 E1.40181
G1 X122.410 Y73.576 E1.42190
G1 X122.600 Y73.343 E1.44199
G1 X122.812 Y73.130 E1.46208
G1 X123.046 Y72.941 E1.48216
G1 X123.298 Y72.777 E1.50226
G1 X123.566 Y72.640 E1.52235
G1 X123.847 Y72.533 E1.54244
G1 X124.137 Y72.455 E1.56254
G1 X124.434 Y72.408 E1.58261
G1 X124.735 Y72.392 E1.60272
G1 X124.958 Y72.404 E1.61768
G1 X125.332 Y72.455 E1.64286 F540.000
G1 X125.623 Y72.533 E1.66296
G1 X125.903 Y72.640 E1.68306
G1 X126.171 Y72.777 E1.70315
G1 X126.424 Y72.941 E1.72324
G1 X126.657 Y73.130 E1.74333
G1 X126.870 Y73.343 E1.76342
G1 X127.059 Y73.576 E1.78351
G1 X127.223 Y73.829 E1.80360
G1 X127.360 Y74.097 E1.82369
G1 X127.467 Y74.377 E1.84378
G1 X127.545 Y74.668 E1.86388
G1 X127.592 Y74.965 E1.88396
G1 X127.608 Y75.265 E1.90404
G1 X127.592 Y75.566 E1.92415
G1 X127.557 Y75.787 E1.93913
G1 X127.467 Y76.153 E1.96432
G1 X127.360 Y76.434 E1.98439
G1 X127.223 Y76.702 E2.00448
G1 X127.059 Y76.954 E2.02457
G1 X126.870 Y77.188 E2.04467
G1 X126.657 Y77.400 E2.06477
G1 X126.424 Y77.590 E2.08486
G1 X126.171 Y77.753 E2.10494
G1 X125.903 Y77.890 E2.12503
G1 X125.623 Y77.998 E2.14512
G1 X125.332 Y78.076 E2.16521
G1 X125.035 Y78.123 E2.18532
G1 X124.780 Y78.136 E2.20239
G1 X124.735 Y77.602 F7800.000
G1 X124.490 Y77.589 E2.21874 F540.000
G1 X124.249 Y77.551 E2.23507
G1 X124.013 Y77.488 E2.25142
G1 X123.784 Y77.400 E2.26775
G1 X123.402 Y77.182 E2.29715
G1 X123.171 Y77.002 E2.31672
G1 X122.998 Y76.829 E2.33306
G1 X122.844 Y76.639 E2.34940
G1 X122.711 Y76.434 E2.36574
G1 X122.600 Y76.216 E2.38208
G1 X122.512 Y75.987 E2.39841
G1 X122.449 Y75.751 E2.41477
G1 X122.411 Y75.509 E2.43110
G1 X122.398 Y75.265 E2.44744
G1 X122.411 Y75.021 E2.46378
G1 X122.449 Y74.779 E2.48012
G1 X122.512 Y74.543 E2.49646
G1 X122.600 Y74.315 E2.51280
G1 X122.711 Y74.097 E2.52914
G1 X122.844 Y73.892 E2.54548
G1 X122.998 Y73.702 E2.56182
G1 X123.171 Y73.529 E2.57816
G1 X123.361 Y73.375 E2.59449
G1 X123.566 Y73.242 E2.61084
G1 X123.784 Y73.130 E2.62718
G1 X124.013 Y73.043 E2.64352
G1 X124.249 Y72.979 E2.65986
G1 X124.686 Y72.931 E2.68926
G1 X124.979 Y72.941 E2.70882 F540.000
G1 X125.221 Y72.979 E2.72516
G1 X125.457 Y73.043 E2.74150
G1 X125.685 Y73.130 E2.75785
G1 X125.903 Y73.241 E2.77419
G1 X126.108 Y73.375 E2.79052
G1 X126.298 Y73.529 E2.80687
G1 X126.471 Y73.702 E2.82321
G1 X126.625 Y73.892 E2.83955
G1 X126.759 Y74.097 E2.85589
G1 X126.870 Y74.315 E2.87223
G1 X126.957 Y74.543 E2.88857
G1 X127.021 Y74.779 E2.90491
G1 X127.059 Y75.021 E2.92125
G1 X127.072 Y75.265 E2.93758
G1 X127.059 Y75.509 E2.95393
G1 X127.021 Y75.751 E2.97028
G1 X126.940 Y76.033 E2.98983
