; generated by Slic3r 1.1.7 on 2017-05-26 at 21:24:56

; perimeters extrusion width = 0.30mm
; infill extrusion width = 0.32mm
; solid infill extrusion width = 0.32mm
; top infill extrusion width = 0.32mm

G21 ; set units to millimeters
M107
M190 S105 ; wait for bed temperature to be reached
M104 S240 ; set temperature
G28 ; home all axes
G1 Z5 F5000 ; lift nozzle

M109 S240 ; wait for temperature to be reached
G90 ; use absolute coordinates
G92 E0
M82 ; use absolute distances for extrusion
G1 F1800.000 E-1.00000
G92 E0
G1 Z0.300 F7800.000
G1 X51.114 Y51.819 F7800.000
G1 E1.00000 F1800.000
G1 X54.273 Y48.704 E1.29642 F1080.000
G1 X59.885 Y44.205 E1.77694
G1 X65.937 Y40.317 E2.25747
G1 X72.362 Y37.084 E2.73800
G1 X74.200 Y36.378 E2.86954
G1 X79.090 Y34.539 E3.21853
G1 X86.047 Y32.712 E3.69906
G1 X93.157 Y31.622 E4.17959
G1 X100.342 Y31.282 E4.66012
G1 X104.877 Y31.519 E4.96347
G1 X107.523 Y31.694 E5.14066 F1080.000
G1 X114.622 Y32.855 E5.62119
G1 X121.560 Y34.751 E6.10171
G1 X125.800 Y36.378 E6.40506
G1 X128.263 Y37.362 E6.58225
G1 X134.655 Y40.659 E7.06278
G1 X140.668 Y44.607 E7.54331
G1 X146.236 Y49.161 E8.02384
G1 X149.447 Y52.372 E8.32719
G1 X151.296 Y54.273 E8.50438
G1 X155.795 Y59.885 E8.98491
G1 X159.683 Y65.937 E9.46544
G1 X162.916 Y72.362 E9.94596
G1 X164.544 Y76.601 E10.24932
G1 X165.461 Y79.090 E10.42650
G1 X167.288 Y86.047 E10.90703
G1 X168.378 Y93.157 E11.38756
G1 X168.718 Y100.342 E11.86809
G1 X168.306 Y107.523 E12.34862
G1 X167.145 Y114.622 E12.82915
G1 X165.249 Y121.560 E13.30968
G1 X162.638 Y128.263 E13.79020
G1 X159.341 Y134.655 E14.27073
G1 X158.268 Y136.307 E14.40227
G1 X155.393 Y140.668 E14.75126
G1 X150.839 Y146.236 E15.23179
G1 X145.727 Y151.296 E15.71232
G1 X140.115 Y155.795 E16.19285
G1 X134.063 Y159.683 E16.67338
G1 X127.638 Y162.916 E17.15391
G1 X120.910 Y165.461 E17.63444
G1 X113.953 Y167.288 E18.11497
G1 X106.843 Y168.378 E18.59549
G1 X102.308 Y168.615 E18.89884
G1 X99.658 Y168.718 E19.07603
G1 X92.477 Y168.306 E19.55656
G1 X85.378 Y167.145 E20.03709
G1 X78.440 Y165.249 E20.51762
G1 X71.737 Y162.638 E20.99815
G1 X65.345 Y159.341 E21.47868
G1 X61.536 Y156.868 E21.78203
G1 X59.332 Y155.393 E21.95922
G1 X55.803 Y152.536 E22.26257
G1 X53.764 Y150.839 E22.43975
G1 X48.704 Y145.727 E22.92028
G1 X44.205 Y140.115 E23.40081
G1 X41.732 Y136.307 E23.70416
G1 X40.317 Y134.063 E23.88135
G1 X38.256 Y130.017 E24.18470
G1 X37.084 Y127.638 E24.36189
G1 X34.539 Y120.910 E24.84242
G1 X32.712 Y113.953 E25.32295
G1 X31.622 Y106.843 E25.80347
G1 X31.282 Y99.658 E26.28400
G1 X31.694 Y92.477 E26.76453
G1 X32.855 Y85.378 E27.24506
G1 X34.751 Y78.440 E27.72559
G1 X37.362 Y71.737 E28.20612
G1 X40.659 Y65.345 E28.68665
G1 X44.607 Y59.332 E29.16718
G1 X49.161 Y53.764 E29.64770
G1 X51.082 Y51.851 E29.82881
G1 F1800.000 E28.82881
G92 E0
G1 X121.436 Y122.601 F7800.000
G1 E1.00000 F1800.000
G1 X120.865 Y123.172 E1.05395 F540.000
G1 X118.328 Y125.226 E1.27199
G1 X115.591 Y127.004 E1.49003
G1 X112.683 Y128.486 E1.70807
G1 X109.636 Y129.655 E1.92611
G1 X106.483 Y130.500 E2.14415
G1 X103.259 Y131.011 E2.36219
G1 X100.000 Y131.182 E2.58024
G1 X96.741 Y131.011 E2.79828
G1 X93.517 Y130.500 E3.01632
G1 X90.364 Y129.655 E3.23436
G1 X87.317 Y128.486 E3.45240
G1 X84.409 Y127.004 E3.67044
G1 X81.672 Y125.226 E3.88848
G1 X79.135 Y123.172 E4.10653
G1 X76.828 Y120.865 E4.32457
G1 X74.774 Y118.328 E4.54261
G1 X72.996 Y115.591 E4.76065
G1 X71.514 Y112.683 E4.97869
G1 X70.345 Y109.636 E5.19673
G1 X69.500 Y106.483 E5.41478
G1 X68.989 Y103.259 E5.63282
G1 X68.818 Y100.000 E5.85086
G1 X68.989 Y96.741 E6.06890
G1 X69.500 Y93.517 E6.28694
G1 X70.345 Y90.364 E6.50498
G1 X71.514 Y87.317 E6.72302
G1 X72.996 Y84.409 E6.94107
G1 X74.774 Y81.672 E7.15911
G1 X76.828 Y79.135 E7.37715
G1 X78.429 Y77.534 E7.52844
G1 X79.135 Y76.828 E7.59519
G1 X81.672 Y74.774 E7.81323
G1 X84.409 Y72.996 E8.03127
G1 X87.317 Y71.514 E8.24931
G1 X90.364 Y70.345 E8.46736
G1 X93.517 Y69.500 E8.68540
G1 X96.741 Y68.989 E8.90344
G1 X100.000 Y68.818 E9.12148
G1 X100.998 Y68.871 E9.18823
G1 X103.259 Y68.989 E9.33952 F540.000
G1 X106.483 Y69.500 E9.55756
G1 X109.636 Y70.345 E9.77561
G1 X112.683 Y71.514 E9.99365
G1 X115.591 Y72.996 E10.21169
G1 X118.328 Y74.774 E10.42973
G1 X120.865 Y76.828 E10.64777
G1 X121.571 Y77.534 E10.71452
G1 X123.172 Y79.135 E10.86581
G1 X125.226 Y81.672 E11.08385
G1 X127.004 Y84.409 E11.30190
G1 X128.486 Y87.317 E11.51994
G1 X129.655 Y90.364 E11.73798
G1 X130.500 Y93.517 E11.95602
G1 X131.011 Y96.741 E12.17406
G1 X131.182 Y100.000 E12.39210
G1 X131.011 Y103.259 E12.61014
G1 X130.500 Y106.483 E12.82819
G1 X129.655 Y109.636 E13.04623
G1 X128.844 Y111.750 E13.19752
G1 X128.486 Y112.683 E13.26427
G1 X127.004 Y115.591 E13.48231
G1 X125.226 Y118.328 E13.70035
G1 X123.172 Y120.865 E13.91839
G1 X121.467 Y122.570 E14.07948
G1 X121.057 Y122.223 F7800.000
G1 X120.506 Y122.774 E14.13155 F540.000
G1 X118.013 Y124.792 E14.34584
G1 X115.323 Y126.539 E14.56014
G1 X112.465 Y127.996 E14.77443
G1 X109.470 Y129.145 E14.98872
G1 X106.371 Y129.975 E15.20301
G1 X103.203 Y130.477 E15.41730
G1 X100.000 Y130.645 E15.63159
G1 X96.797 Y130.477 E15.84588
G1 X93.629 Y129.975 E16.06017
G1 X90.530 Y129.145 E16.27446
G1 X87.535 Y127.996 E16.48875
G1 X84.677 Y126.539 E16.70305
G1 X81.987 Y124.792 E16.91734
G1 X79.494 Y122.774 E17.13163
G1 X78.808 Y122.087 E17.19650
G1 X77.226 Y120.506 E17.34592
G1 X75.208 Y118.013 E17.56021
G1 X73.461 Y115.323 E17.77450
G1 X72.004 Y112.465 E17.98879
G1 X70.855 Y109.470 E18.20308
G1 X70.025 Y106.371 E18.41737
G1 X69.523 Y103.203 E18.63166
G1 X69.355 Y100.000 E18.84595
G1 X69.472 Y97.766 E18.99538
G1 X69.523 Y96.797 E19.06025
G1 X70.025 Y93.629 E19.27454
G1 X70.855 Y90.530 E19.48883
G1 X72.004 Y87.535 E19.70312
G1 X73.461 Y84.677 E19.91741
G1 X75.208 Y81.987 E20.13170
G1 X77.226 Y79.494 E20.34599
G1 X78.808 Y77.913 E20.49541
G1 X79.494 Y77.226 E20.56028
G1 X81.987 Y75.208 E20.77457
G1 X84.677 Y73.461 E20.98886
G1 X87.535 Y72.004 E21.20316
G1 X90.530 Y70.855 E21.41745
G1 X93.629 Y70.024 E21.63174
G1 X96.797 Y69.523 E21.84603
G1 X99.182 Y69.398 E22.00557
G1 X100.000 Y69.355 E22.06032 F540.000
G1 X103.203 Y69.523 E22.27461
G1 X106.371 Y70.024 E22.48890
G1 X109.470 Y70.855 E22.70319
G1 X112.465 Y72.004 E22.91748
G1 X115.323 Y73.461 E23.13177
G1 X118.013 Y75.208 E23.34606
G1 X120.506 Y77.226 E23.56036
G1 X122.774 Y79.494 E23.77465
G1 X124.792 Y81.987 E23.98894
G1 X126.539 Y84.677 E24.20323
G1 X127.996 Y87.535 E24.41752
G1 X129.145 Y90.530 E24.63181
G1 X129.976 Y93.629 E24.84610
G1 X130.477 Y96.797 E25.06039
G1 X130.645 Y100.000 E25.27468
G1 X130.477 Y103.203 E25.48897
G1 X129.976 Y106.371 E25.70327
G1 X129.145 Y109.470 E25.91756
G1 X128.344 Y111.558 E26.06698
G1 X127.996 Y112.465 E26.13185
G1 X126.539 Y115.323 E26.34614
G1 X124.792 Y118.013 E26.56043
G1 X122.774 Y120.506 E26.77472
G1 X121.089 Y122.191 E26.93394
G1 X120.678 Y121.844 F7800.000
G1 X120.147 Y122.375 E26.98413 F378.000
G1 X117.698 Y124.359 E27.19467
G1 X115.054 Y126.075 E27.40521
G1 X112.246 Y127.506 E27.61575
G1 X109.304 Y128.635 E27.82629
G1 X106.260 Y129.451 E28.03683
G1 X103.147 Y129.944 E28.24737
G1 X100.000 Y130.109 E28.45791
G1 X99.427 Y130.079 E28.49628
G1 X96.853 Y129.944 E28.66845
G1 X93.740 Y129.451 E28.87899
G1 X90.696 Y128.635 E29.08953
G1 X87.754 Y127.506 E29.30007
G1 X86.886 Y127.064 E29.36511
G1 X84.946 Y126.075 E29.51061
G1 X82.302 Y124.359 E29.72116
G1 X79.853 Y122.375 E29.93170
G1 X77.625 Y120.147 E30.14224
G1 X75.641 Y117.698 E30.35278
G1 X73.925 Y115.054 E30.56332
G1 X72.494 Y112.246 E30.77386
G1 X71.365 Y109.304 E30.98440
G1 X70.549 Y106.260 E31.19494
G1 X70.056 Y103.147 E31.40548
G1 X70.007 Y102.206 E31.46847
G1 X69.891 Y100.000 E31.61602
G1 X70.056 Y96.853 E31.82656
G1 X70.549 Y93.740 E32.03710
G1 X71.365 Y90.696 E32.24764
G1 X72.494 Y87.754 E32.45818
G1 X73.925 Y84.946 E32.66872
G1 X75.641 Y82.302 E32.87926
G1 X77.625 Y79.853 E33.08980
G1 X79.186 Y78.292 E33.23735
G1 X79.853 Y77.625 E33.30034
G1 X82.302 Y75.641 E33.51088
G1 X84.946 Y73.925 E33.72142
G1 X87.754 Y72.494 E33.93196
G1 X90.696 Y71.365 E34.14250
G1 X93.740 Y70.549 E34.35304
G1 X96.853 Y70.056 E34.56359
G1 X100.000 Y69.891 E34.77413
G1 X100.942 Y69.941 E34.83712
G1 X103.147 Y70.056 E34.98467 F378.000
G1 X106.260 Y70.549 E35.19521
G1 X109.304 Y71.365 E35.40575
G1 X112.246 Y72.494 E35.61629
G1 X115.054 Y73.925 E35.82683
G1 X117.698 Y75.641 E36.03737
G1 X120.147 Y77.625 E36.24791
G1 X120.814 Y78.292 E36.31090
G1 X122.375 Y79.853 E36.45845
G1 X124.359 Y82.302 E36.66899
G1 X126.075 Y84.946 E36.87953
G1 X127.506 Y87.754 E37.09007
G1 X128.635 Y90.696 E37.30061
G1 X129.451 Y93.740 E37.51115
G1 X129.944 Y96.853 E37.72169
G1 X130.109 Y100.000 E37.93223
G1 X129.993 Y102.206 E38.07978
G1 X129.944 Y103.147 E38.14277
G1 X129.451 Y106.260 E38.35331
G1 X128.635 Y109.304 E38.56385
G1 X127.844 Y111.366 E38.71140
G1 X127.506 Y112.246 E38.77439
G1 X126.075 Y115.054 E38.98493
G1 X124.359 Y117.698 E39.19547
G1 X122.375 Y120.147 E39.40601
G1 X120.710 Y121.812 E39.56335
G1 F1800.000 E38.56335
G92 E0
G1 X100.912 Y69.642 F7800.000
G1 X142.363 Y143.529 F7800.000
G1 E1.00000 F1800.000
G1 X140.696 Y145.197 E1.15757 F540.000
G1 X135.748 Y149.203 E1.58285
G1 X130.409 Y152.670 E2.00813
G1 X124.737 Y155.560 E2.43341
G1 X118.794 Y157.842 E2.85869
G1 X112.645 Y159.489 E3.28398
G1 X106.357 Y160.485 E3.70926
G1 X102.097 Y160.709 E3.99423
G1 X100.000 Y160.818 E4.13454
G1 X93.643 Y160.485 E4.55982
G1 X87.355 Y159.489 E4.98511
G1 X81.206 Y157.842 E5.41039
G1 X75.263 Y155.560 E5.83567
G1 X69.591 Y152.670 E6.26095
G1 X64.252 Y149.203 E6.68624
G1 X59.304 Y145.197 E7.11152
G1 X54.803 Y140.695 E7.53680
G1 X50.797 Y135.748 E7.96208
G1 X48.363 Y132.000 E8.26063
G1 X47.330 Y130.409 E8.38736
G1 X44.440 Y124.737 E8.81265
G1 X42.158 Y118.794 E9.23793
G1 X40.511 Y112.645 E9.66321
G1 X39.515 Y106.357 E10.08849
G1 X39.269 Y101.669 E10.40213
G1 X39.182 Y100.000 E10.51378
G1 X39.515 Y93.643 E10.93906
G1 X40.511 Y87.355 E11.36434
G1 X42.158 Y81.206 E11.78962
G1 X44.440 Y75.263 E12.21491
G1 X47.330 Y69.591 E12.64019
G1 X50.797 Y64.252 E13.06547
G1 X54.803 Y59.304 E13.49075
G1 X59.304 Y54.803 E13.91603
G1 X64.252 Y50.797 E14.34132
G1 X69.591 Y47.330 E14.76660
G1 X75.263 Y44.440 E15.19188
G1 X81.206 Y42.158 E15.61716
G1 X87.355 Y40.511 E16.04245
G1 X93.643 Y39.515 E16.46773
G1 X100.000 Y39.182 E16.89301
G1 X104.463 Y39.415 E17.19156
G1 X106.357 Y39.515 E17.31829 F540.000
G1 X112.645 Y40.511 E17.74358
G1 X118.794 Y42.158 E18.16886
G1 X124.737 Y44.440 E18.59414
G1 X130.409 Y47.330 E19.01942
G1 X135.748 Y50.797 E19.44471
G1 X140.696 Y54.803 E19.86999
G1 X143.856 Y57.963 E20.16854
G1 X145.197 Y59.304 E20.29527
G1 X149.203 Y64.252 E20.72055
G1 X152.670 Y69.591 E21.14583
G1 X155.560 Y75.263 E21.57112
G1 X157.842 Y81.206 E21.99640
G1 X159.489 Y87.355 E22.42168
G1 X160.485 Y93.643 E22.84696
G1 X160.818 Y100.000 E23.27225
G1 X160.485 Y106.357 E23.69753
G1 X159.489 Y112.645 E24.12281
G1 X157.842 Y118.794 E24.54809
G1 X155.560 Y124.737 E24.97338
G1 X152.670 Y130.409 E25.39866
G1 X149.203 Y135.748 E25.82394
G1 X145.197 Y140.695 E26.24922
G1 X142.395 Y143.497 E26.51393
G1 X142.742 Y143.908 F7800.000
G1 X141.054 Y145.596 E26.67337 F540.000
G1 X136.063 Y149.637 E27.10241
G1 X130.677 Y153.135 E27.53144
G1 X124.955 Y156.050 E27.96047
G1 X118.960 Y158.352 E28.38950
G1 X112.756 Y160.014 E28.81854
G1 X106.413 Y161.019 E29.24757
G1 X102.126 Y161.243 E29.53441
G1 X100.000 Y161.355 E29.67660
G1 X93.587 Y161.019 E30.10564
G1 X87.244 Y160.014 E30.53467
G1 X81.040 Y158.352 E30.96370
G1 X75.045 Y156.050 E31.39273
G1 X69.323 Y153.135 E31.82177
G1 X63.937 Y149.637 E32.25080
G1 X58.946 Y145.596 E32.67983
G1 X54.404 Y141.054 E33.10887
G1 X50.363 Y136.063 E33.53790
G1 X47.914 Y132.292 E33.83832
G1 X46.865 Y130.677 E33.96693
G1 X43.950 Y124.955 E34.39596
G1 X41.648 Y118.960 E34.82500
G1 X39.986 Y112.756 E35.25403
G1 X38.981 Y106.413 E35.68306
G1 X38.645 Y100.000 E36.11210
G1 X38.981 Y93.587 E36.54113
G1 X39.986 Y87.244 E36.97016
G1 X41.648 Y81.040 E37.39919
G1 X43.950 Y75.045 E37.82823
G1 X46.865 Y69.323 E38.25726
G1 X50.363 Y63.937 E38.68629
G1 X54.404 Y58.946 E39.11533
G1 X58.946 Y54.404 E39.54436
G1 X63.937 Y50.363 E39.97339
G1 X69.323 Y46.865 E40.40242
G1 X75.045 Y43.950 E40.83146
G1 X81.040 Y41.648 E41.26049
G1 X87.244 Y39.986 E41.68952
G1 X93.587 Y38.981 E42.11856
G1 X95.509 Y38.881 E42.24716
G1 X100.000 Y38.645 E42.54759 F540.000
G1 X106.413 Y38.981 E42.97662
G1 X112.756 Y39.986 E43.40565
G1 X118.960 Y41.648 E43.83469
G1 X123.158 Y43.260 E44.13511
G1 X124.955 Y43.950 E44.26372
G1 X130.677 Y46.865 E44.69275
G1 X136.063 Y50.363 E45.12179
G1 X141.054 Y54.404 E45.55082
G1 X145.596 Y58.946 E45.97985
G1 X149.637 Y63.937 E46.40888
G1 X153.135 Y69.323 E46.83792
G1 X156.050 Y75.045 E47.26695
G1 X158.352 Y81.040 E47.69598
G1 X160.014 Y87.244 E48.12502
G1 X161.019 Y93.587 E48.55405
G1 X161.355 Y100.000 E48.98308
G1 X161.019 Y106.413 E49.41211
G1 X160.014 Y112.756 E49.84115
G1 X158.352 Y118.960 E50.27018
G1 X157.609 Y120.894 E50.40863
G1 X156.050 Y124.955 E50.69921
G1 X153.135 Y130.677 E51.12825
G1 X149.637 Y136.063 E51.55728
G1 X145.596 Y141.054 E51.98631
G1 X142.774 Y143.876 E52.25290
G1 X143.121 Y144.287 F7800.000
G1 X141.413 Y145.994 E52.41421 F378.000
G1 X136.379 Y150.071 E52.84700
G1 X130.946 Y153.599 E53.27978
G1 X125.173 Y156.540 E53.71256
G1 X119.125 Y158.862 E54.14535
G1 X112.868 Y160.539 E54.57813
G1 X106.469 Y161.552 E55.01091
G1 X101.951 Y161.789 E55.31321
G1 X100.000 Y161.891 E55.44370
G1 X93.531 Y161.552 E55.87648
G1 X87.132 Y160.539 E56.30926
G1 X80.875 Y158.862 E56.74205
G1 X74.827 Y156.540 E57.17483
G1 X69.054 Y153.599 E57.60761
G1 X63.621 Y150.071 E58.04040
G1 X58.587 Y145.994 E58.47318
G1 X54.006 Y141.413 E58.90596
G1 X49.929 Y136.379 E59.33875
G1 X47.464 Y132.584 E59.64105
G1 X46.401 Y130.946 E59.77153
G1 X43.460 Y125.173 E60.20431
G1 X41.138 Y119.125 E60.63710
G1 X39.461 Y112.868 E61.06988
G1 X38.448 Y106.469 E61.50266
G1 X38.109 Y100.000 E61.93545
G1 X38.448 Y93.531 E62.36823
G1 X39.461 Y87.132 E62.80101
G1 X41.138 Y80.875 E63.23380
G1 X43.460 Y74.827 E63.66658
G1 X46.401 Y69.054 E64.09937
G1 X49.929 Y63.621 E64.53215
G1 X54.006 Y58.587 E64.96493
G1 X58.587 Y54.006 E65.39771
G1 X63.621 Y49.929 E65.83050
G1 X69.054 Y46.401 E66.26328
G1 X74.827 Y43.460 E66.69607
G1 X80.875 Y41.138 E67.12885
G1 X87.132 Y39.461 E67.56163
G1 X93.531 Y38.448 E67.99442
G1 X100.000 Y38.109 E68.42720
G1 X104.519 Y38.346 E68.72950
G1 X106.469 Y38.448 E68.85998 F378.000
G1 X112.868 Y39.461 E69.29277
G1 X119.125 Y41.138 E69.72555
G1 X125.173 Y43.460 E70.15833
G1 X130.946 Y46.401 E70.59112
G1 X136.379 Y49.929 E71.02390
G1 X141.413 Y54.006 E71.45668
G1 X144.613 Y57.206 E71.75898
G1 X145.994 Y58.587 E71.88947
G1 X150.071 Y63.621 E72.32225
G1 X153.599 Y69.054 E72.75503
G1 X156.540 Y74.827 E73.18782
G1 X158.862 Y80.875 E73.62060
G1 X160.539 Y87.132 E74.05338
G1 X161.552 Y93.531 E74.48617
G1 X161.891 Y100.000 E74.91895
G1 X161.552 Y106.469 E75.35173
G1 X160.539 Y112.868 E75.78452
G1 X158.862 Y119.125 E76.21730
G1 X158.162 Y120.949 E76.34778
G1 X156.540 Y125.173 E76.65008
G1 X153.599 Y130.946 E77.08287
G1 X150.071 Y136.379 E77.51565
G1 X145.994 Y141.413 E77.94843
G1 X143.153 Y144.255 E78.21689
G1 F1800.000 E77.21689
G92 E0
G1 X104.791 Y38.471 F7800.000
G1 X118.792 Y42.552 F7800.000
G1 E1.00000 F1800.000
G1 X157.448 Y81.208 E4.65212 F1080.000
G1 X157.743 Y82.262 E4.72525
G1 X117.738 Y42.257 E8.50485
G1 X116.702 Y41.979 E8.57652
G1 X158.021 Y83.298 E12.48027
G1 X158.299 Y84.335 E12.55194
G1 X115.665 Y41.701 E16.57982
G1 X114.629 Y41.424 E16.65149
G1 X158.576 Y85.371 E20.80351
