; generated by Slic3r 1.1.7 on 2017-06-07 at 20:23:27

; perimeters extrusion width = 0.30mm
; infill extrusion width = 0.32mm
; solid infill extrusion width = 0.32mm
; top infill extrusion width = 0.32mm

G21 ; set units to millimeters
M107
M190 S105 ; wait for bed temperature to be reached
M104 S240 ; set temperature
G28 ; home all axes
G1 Z5 F5000 ; lift nozzle

M109 S240 ; wait for temperature to be reached
G90 ; use absolute coordinates
G92 E0
M82 ; use absolute distances for extrusion
G1 F1800.000 E-1.00000
G92 E0
G1 Z0.300 F7800.000
G1 X39.125 Y63.614 F7800.000
G1 E1.00000 F1800.000
G1 X42.120 Y62.748 E1.20828 F1080.000
G1 X67.472 Y61.723 E2.90330
G1 X157.547 Y62.403 E8.92093
G1 X159.786 Y62.817 E9.07311 F1080.000
G1 X161.748 Y63.974 E9.22528
G1 X163.194 Y65.735 E9.37745
G1 X164.033 Y68.914 E9.59714
G1 X164.105 Y88.429 E10.90080
G1 X164.150 Y124.426 E13.30561
G1 X163.755 Y126.669 E13.45778
G1 X162.615 Y128.641 E13.60995
G1 X160.868 Y130.102 E13.76212
G1 X158.089 Y130.952 E13.95627
G1 X132.724 Y132.785 E15.65518
G1 X82.690 Y133.057 E18.99780
G1 X80.993 Y132.843 E19.11201
G1 X70.753 Y130.153 E19.81932
G1 X68.685 Y129.199 E19.97149
G1 X67.491 Y128.130 E20.07856
G1 X52.527 Y110.992 E21.59843
G1 X51.424 Y109.221 E21.73785
G1 X36.363 Y73.305 E24.33963
G1 X35.854 Y70.794 E24.51078
G1 X35.850 Y69.294 E24.61099
G1 X36.242 Y67.050 E24.76316
G1 X37.379 Y65.077 E24.91533
G1 X39.091 Y63.643 E25.06450
G1 F1800.000 E24.06450
G92 E0
G1 X131.785 Y125.412 F7800.000
G1 E1.00000 F1800.000
G1 X83.399 Y125.329 E4.23244 F540.000
G1 X83.296 Y124.010 E4.32085
G1 X131.682 Y124.092 E7.55329
G1 X131.781 Y125.367 E7.63869
G1 X132.248 Y124.458 F7800.000
G1 X132.364 Y125.948 E7.73859 F378.000
G1 X83.605 Y125.865 E10.99597
G1 X82.923 Y126.108 E11.04434
G1 X82.789 Y124.390 E11.15942
G1 X72.693 Y123.554 E11.83618
G1 X72.624 Y122.664 E11.89578
G1 X82.380 Y123.473 E12.54980
G1 X132.682 Y123.558 E15.91024
G1 X157.220 Y123.242 E17.54966
G1 X157.290 Y124.138 E17.60970
G1 X132.293 Y124.457 E19.27979
G1 X131.948 Y124.474 F7800.000
G1 X131.944 Y124.009 F7800.000
G1 X156.987 Y123.694 E20.21689 F360.000
G1 X131.465 Y124.752 F7800.000
G1 X83.616 Y124.670 E25.20381 F360.000
G1 X83.022 Y123.941 F7800.000
G1 X82.354 Y123.912 E25.22882 F360.000
G1 X72.929 Y123.131 E25.58272
G1 F1800.000 E24.58272
G92 E0
G1 X131.741 Y89.027 F7800.000
G1 E1.00000 F1800.000
G1 X107.587 Y88.960 E2.61362 F540.000
G1 X83.361 Y88.542 E4.23225
G1 X83.298 Y87.218 E4.32078
G1 X107.427 Y87.635 E5.93295
G1 X131.677 Y87.702 E7.55303
G1 X131.739 Y88.982 E7.63865
G1 X132.231 Y88.066 F7800.000
G1 X132.303 Y89.565 E7.73886 F378.000
G1 X107.582 Y89.496 E9.39038
G1 X57.810 Y88.637 E12.71589
G1 X57.767 Y87.739 E12.77593
G1 X82.807 Y88.171 E14.44903
G1 X82.736 Y86.673 E14.54923
G1 X107.432 Y87.099 E16.19933
G1 X157.211 Y87.238 E19.52486
G1 X157.254 Y88.136 E19.58494
G1 X132.276 Y88.066 E21.25362
G1 X131.931 Y88.076 F7800.000
G1 X131.941 Y87.616 F7800.000
G1 X156.965 Y87.686 E22.18994 F360.000
G1 X131.441 Y88.364 F7800.000
G1 X107.594 Y88.298 E24.67539 F360.000
G1 X83.598 Y87.885 E27.17665
G1 X83.097 Y88.625 F7800.000
G1 X58.057 Y88.193 E28.11375 F360.000
G1 F1800.000 E27.11375
G92 E0
G1 X141.155 Y80.501 F7800.000
G1 E1.00000 F1800.000
G1 X136.327 Y80.149 E1.32337 F540.000
G1 X130.040 Y79.611 E1.74494
G1 X123.759 Y78.995 E2.16651
G1 X117.488 Y78.299 E2.58808
G1 X111.225 Y77.525 E3.00965
G1 X104.972 Y76.673 E3.43122
G1 X98.731 Y75.742 E3.85280
G1 X92.501 Y74.734 E4.27437
G1 X86.285 Y73.647 E4.69594
G1 X80.854 Y72.640 E5.06496
G1 X78.519 Y72.241 E5.22320
G1 X76.180 Y71.867 E5.38144
G1 X73.837 Y71.518 E5.53968
G1 X71.491 Y71.195 E5.69792
G1 X68.800 Y70.858 E5.87905
G1 X68.797 Y69.657 E5.95932
G1 X92.419 Y70.110 E7.53766
G1 X141.129 Y70.341 E10.79182
G1 X141.155 Y80.456 E11.46756
G1 X68.264 Y70.611 F7800.000
G1 X68.261 Y69.111 E11.56777 F540.000
G1 X92.425 Y69.575 E13.18242
G1 X141.664 Y69.808 E16.47184
G1 X141.692 Y81.077 E17.22469
G1 X136.285 Y80.683 E17.58687
G1 X129.991 Y80.144 E18.00889
G1 X123.704 Y79.527 E18.43091
G1 X117.425 Y78.831 E18.85293
G1 X111.213 Y78.064 E19.27107
G1 X104.896 Y77.203 E19.69697
G1 X98.648 Y76.272 E20.11899
G1 X92.412 Y75.262 E20.54101
G1 X86.190 Y74.174 E20.96303
G1 X80.761 Y73.167 E21.33189
G1 X78.432 Y72.769 E21.48974
G1 X76.099 Y72.396 E21.64759
G1 X73.761 Y72.048 E21.80544
G1 X71.421 Y71.726 E21.96329
G1 X69.076 Y71.429 E22.12115
G1 X64.781 Y70.954 E22.40988
G1 X64.806 Y70.544 E22.43731
G1 X68.219 Y70.610 E22.66538
G1 X67.727 Y70.065 F7800.000
G1 X67.724 Y68.565 E22.76559 F378.000
G1 X92.432 Y69.039 E24.41655
G1 X142.497 Y69.276 E27.76121
G1 X157.198 Y69.239 E28.74332
G1 X157.200 Y70.139 E28.80344
G1 X142.200 Y70.177 E29.80552
G1 X142.227 Y80.777 E30.51366
G1 X149.727 Y80.758 E31.01470
G1 X149.729 Y81.658 E31.07483
G1 X142.540 Y81.676 E31.55507
G1 X136.243 Y81.217 E31.97691
G1 X129.942 Y80.678 E32.39938
G1 X123.648 Y80.060 E32.82185
G1 X117.363 Y79.363 E33.24431
G1 X111.087 Y78.588 E33.66678
G1 X104.821 Y77.734 E34.08925
G1 X98.566 Y76.801 E34.51172
G1 X92.323 Y75.790 E34.93419
G1 X86.094 Y74.701 E35.35666
G1 X80.668 Y73.695 E35.72535
G1 X78.344 Y73.297 E35.88282
G1 X76.017 Y72.925 E36.04028
G1 X73.685 Y72.579 E36.19774
G1 X71.350 Y72.257 E36.35521
G1 X69.012 Y71.961 E36.51267
G1 X66.671 Y71.690 E36.67014
G1 X64.326 Y71.445 E36.82760
G1 X61.622 Y71.192 E37.00905
G1 X57.280 Y70.862 E37.29999
G1 X54.922 Y70.719 E37.45776
G1 X42.689 Y70.484 E38.27515
G1 X42.687 Y69.584 E38.33526
G1 X67.682 Y70.064 E40.00540
G1 X68.027 Y70.066 F7800.000
G1 X71.523 Y70.792 F7800.000
G1 X71.565 Y70.834 E40.00938 F1080.000
G1 X72.448 Y70.955 E40.06892
G1 X71.593 Y70.100 E40.14974
G1 X72.348 Y70.093 E40.20018
G1 X73.331 Y71.077 E40.29310
G1 X74.218 Y71.203 E40.35295
G1 X73.124 Y70.108 E40.45634
G1 X73.900 Y70.123 E40.50821
G1 X75.113 Y71.336 E40.62276
G1 X76.007 Y71.469 E40.68317
G1 X74.676 Y70.138 E40.80888
G1 X75.453 Y70.153 E40.86075
G1 X76.910 Y71.610 E40.99845
G1 X77.816 Y71.755 E41.05976
G1 X76.229 Y70.168 E41.20973
G1 X77.005 Y70.183 E41.26160
G1 X78.724 Y71.902 E41.42404
G1 X79.643 Y72.059 E41.48628
G1 X77.781 Y70.198 E41.66215
G1 X78.558 Y70.212 E41.71402
G1 X80.561 Y72.216 E41.90331
G1 X81.490 Y72.383 E41.96633
G1 X79.334 Y70.227 E42.16999
G1 X80.110 Y70.242 E42.22186
G1 X82.424 Y72.556 E42.44048
G1 X83.359 Y72.730 E42.50398
G1 X80.886 Y70.257 E42.73757
G1 X81.663 Y70.272 E42.78944
G1 X84.293 Y72.903 E43.03798
G1 X85.228 Y73.076 E43.10149
G1 X82.439 Y70.287 E43.36500
G1 X83.215 Y70.302 E43.41687
G1 X86.163 Y73.249 E43.69534
G1 X87.088 Y73.413 E43.75810
G1 X83.991 Y70.317 E44.05064
G1 X84.768 Y70.332 E44.10250
G1 X88.010 Y73.575 E44.40887
G1 X88.933 Y73.736 E44.47145
G1 X85.544 Y70.347 E44.79165
G1 X86.320 Y70.362 E44.84352
G1 X89.856 Y73.897 E45.17755
G1 X90.779 Y74.058 E45.24013
G1 X87.096 Y70.376 E45.58800
G1 X87.873 Y70.391 E45.63987
G1 X91.701 Y74.220 E46.00157
G1 X92.623 Y74.380 E46.06407
G1 X88.649 Y70.406 E46.43952
G1 X89.425 Y70.421 E46.49139
G1 X93.531 Y74.527 E46.87933
G1 X94.440 Y74.674 E46.94081
G1 X90.201 Y70.436 E47.34124
G1 X90.978 Y70.451 E47.39311
G1 X95.348 Y74.822 E47.80604
G1 X96.257 Y74.969 E47.86752
G1 X91.754 Y70.466 E48.29294
G1 X92.525 Y70.475 E48.34444
G1 X97.165 Y75.116 E48.78286
G1 X98.074 Y75.263 E48.84434
G1 X93.290 Y70.479 E49.29632
G1 X94.055 Y70.483 E49.34743
G1 X98.979 Y75.407 E49.81268
G1 X99.874 Y75.541 E49.87312
G1 X94.820 Y70.486 E50.35063
G1 X95.585 Y70.490 E50.40174
G1 X100.769 Y75.674 E50.89150
G1 X101.664 Y75.807 E50.95194
G1 X96.350 Y70.494 E51.45396
G1 X97.115 Y70.497 E51.50507
G1 X102.558 Y75.941 E52.01935
G1 X103.453 Y76.074 E52.07979
G1 X97.880 Y70.501 E52.60633
G1 X98.645 Y70.505 E52.65744
G1 X104.348 Y76.208 E53.19623
G1 X105.240 Y76.338 E53.25642
G1 X99.410 Y70.508 E53.80717
G1 X100.175 Y70.512 E53.85828
G1 X106.121 Y76.458 E54.42003
G1 X107.003 Y76.578 E54.47946
G1 X100.940 Y70.516 E55.05222
G1 X101.705 Y70.519 E55.10333
G1 X107.884 Y76.698 E55.68709
G1 X108.766 Y76.819 E55.74653
G1 X102.470 Y70.523 E56.34129
G1 X103.235 Y70.527 E56.39240
G1 X109.647 Y76.939 E56.99817
G1 X110.529 Y77.059 E57.05761
G1 X104.000 Y70.531 E57.67439
G1 X104.765 Y70.534 E57.72550
G1 X111.408 Y77.177 E58.35309
G1 X112.277 Y77.284 E58.41156
G1 X105.530 Y70.538 E59.04895
G1 X106.295 Y70.542 E59.10006
G1 X113.146 Y77.392 E59.74724
G1 X114.014 Y77.499 E59.80571
G1 X107.061 Y70.545 E60.46268
G1 X107.826 Y70.549 E60.51379
G1 X114.883 Y77.606 E61.18056
G1 X115.752 Y77.714 E61.23903
G1 X108.591 Y70.553 E61.91559
G1 X109.356 Y70.556 E61.96670
G1 X116.620 Y77.821 E62.65305
G1 X117.489 Y77.928 E62.71153
G1 X110.121 Y70.560 E63.40767
G1 X110.886 Y70.564 E63.45878
G1 X118.346 Y78.024 E64.16360
G1 X119.202 Y78.119 E64.22116
G1 X111.651 Y70.567 E64.93460
G1 X112.416 Y70.571 E64.98571
G1 X120.058 Y78.214 E65.70777
G1 X120.915 Y78.309 E65.76532
G1 X113.181 Y70.575 E66.49601
G1 X113.946 Y70.578 E66.54711
G1 X121.771 Y78.404 E67.28642
G1 X122.627 Y78.498 E67.34397
G1 X114.711 Y70.582 E68.09189
G1 X115.476 Y70.586 E68.14300
G1 X123.484 Y78.593 E68.89954
G1 X124.332 Y78.681 E68.95654
G1 X116.241 Y70.589 E69.72098
G1 X117.006 Y70.593 E69.77209
G1 X125.176 Y78.764 E70.54401
G1 X126.021 Y78.846 E70.60068
G1 X117.771 Y70.597 E71.38009
G1 X118.536 Y70.600 E71.43120
G1 X126.865 Y78.929 E72.21809
G1 X127.709 Y79.012 E72.27476
G1 X119.301 Y70.604 E73.06913
G1 X120.066 Y70.608 E73.12024
G1 X128.553 Y79.095 E73.92210
G1 X129.398 Y79.178 E73.97877
G1 X120.831 Y70.611 E74.78811
G1 X121.596 Y70.615 E74.83922
G1 X130.240 Y79.259 E75.65582
G1 X131.072 Y79.330 E75.71164
G1 X122.361 Y70.619 E76.53463
G1 X123.126 Y70.623 E76.58573
G1 X131.905 Y79.401 E77.41510
G1 X132.737 Y79.472 E77.47092
G1 X123.891 Y70.626 E78.30666
G1 X124.656 Y70.630 E78.35777
G1 X133.570 Y79.543 E79.19989
G1 X134.402 Y79.615 E79.25571
G1 X125.421 Y70.634 E80.10422
G1 X126.186 Y70.637 E80.15532
G1 X135.235 Y79.686 E81.01021
G1 X136.067 Y79.757 E81.06603
G1 X126.951 Y70.641 E81.92729
G1 X127.716 Y70.645 E81.97840
G1 X136.893 Y79.821 E82.84534
G1 X137.714 Y79.881 E82.90035
G1 X128.481 Y70.648 E83.77260
G1 X129.247 Y70.652 E83.82371
G1 X138.535 Y79.941 E84.70127
G1 X139.356 Y80.000 E84.75628
G1 X130.012 Y70.656 E85.63915
G1 X130.777 Y70.659 E85.69026
G1 X140.178 Y80.060 E86.57844
G1 X140.785 Y79.906 E86.62030
G1 X131.542 Y70.663 E87.49360
G1 X132.307 Y70.667 E87.54471
G1 X140.783 Y79.143 E88.34554
G1 X140.781 Y78.380 E88.39653
G1 X133.072 Y70.670 E89.12491
G1 X133.837 Y70.674 E89.17602
G1 X140.779 Y77.617 E89.83194
G1 X140.777 Y76.853 E89.88293
G1 X134.602 Y70.678 E90.46639
G1 X135.367 Y70.681 E90.51750
G1 X140.776 Y76.090 E91.02850
G1 X140.774 Y75.327 E91.07949
G1 X136.132 Y70.685 E91.51804
G1 X136.897 Y70.689 E91.56915
G1 X140.772 Y74.564 E91.93523
G1 X140.770 Y73.800 E91.98622
G1 X137.662 Y70.692 E92.27985
G1 X138.427 Y70.696 E92.33096
G1 X140.768 Y73.037 E92.55213
G1 X140.766 Y72.274 E92.60312
G1 X139.192 Y70.700 E92.75183
G1 X139.957 Y70.703 E92.80294
G1 X140.764 Y71.511 E92.87919
G1 X140.762 Y70.747 E92.93018
G1 X140.722 Y70.707 E92.93397
G1 X141.960 Y81.205 F7800.000
G1 X142.556 Y81.226 E92.95629 F360.000
G1 X149.460 Y81.209 E93.21462
G1 F1800.000 E92.21462
G92 E0
G1 X156.931 Y69.690 F7800.000
G1 E1.00000 F1800.000
G1 X141.931 Y69.725 E1.56126 F360.000
G1 X71.180 Y70.426 F7800.000
G1 X69.067 Y70.273 E1.78213 F360.000
G1 X64.526 Y70.732 F7800.000
G1 X59.580 Y70.467 E2.29834 F360.000
G1 X59.580 Y70.467 F7800.000
G1 X54.936 Y70.269 E2.47226 F360.000
G1 X42.956 Y70.039 E2.92063
G1 F1800.000 E1.92063
G92 E0
G1 X83.250 Y105.214 F7800.000
G1 E1.00000 F1800.000
G1 X131.636 Y105.815 E4.23272 F540.000
G1 X131.668 Y107.142 E4.32141
G1 X83.281 Y106.541 E7.55413
G1 X83.251 Y105.259 E7.63982
G1 X82.737 Y106.175 F7800.000
G1 X82.701 Y104.671 E7.74033 F378.000
G1 X132.451 Y105.290 E11.06413
G1 X157.204 Y105.239 E12.71781
G1 X157.226 Y106.139 E12.77793
G1 X132.181 Y106.190 E14.45107
G1 X132.216 Y107.685 E14.55098
G1 X82.471 Y107.067 E17.87449
G1 X57.744 Y106.401 E19.52699
G1 X57.722 Y105.502 E19.58706
G1 X82.692 Y106.174 E21.25575
G1 X83.037 Y106.173 F7800.000
G1 X83.533 Y105.881 F7800.000
G1 X131.384 Y106.475 E26.24325 F360.000
G1 X131.902 Y105.737 F7800.000
G1 X156.947 Y105.689 E27.18038 F360.000
G1 X83.015 Y106.628 F7800.000
G1 X58.001 Y105.959 E28.11669 F360.000
M104 S230 ; set temperature
M140 S95 ; set bed temperature
G1 F1800.000 E27.11669
G92 E0
G1 Z0.600 F7800.000
G1 X83.204 Y123.924 F7800.000
G1 E1.00000 F1800.000
G1 X131.761 Y124.007 E2.81691 F1800.000
G1 X131.877 Y125.498 E2.87286
G1 X85.588 Y125.419 E4.60489
G1 X83.381 Y126.203 E4.69253
G1 X83.207 Y123.969 E4.77637
G1 X82.928 Y124.251 F7800.000
G1 X72.833 Y123.415 E5.15542 F1800.000
G1 X72.787 Y122.828 E5.17743
G1 X82.374 Y123.623 E5.53738
G1 X132.457 Y123.708 E7.41140
G1 X157.081 Y123.394 E8.33284
G1 X157.128 Y123.990 E8.35522
G1 X132.086 Y124.310 E9.29232
G1 X132.202 Y125.798 E9.34818
G1 X85.640 Y125.719 E11.09043
G1 X83.959 Y126.316 E11.15717
M106 S255
G1 X83.113 Y126.617 E11.18356 F3600.000
G1 X83.105 Y126.520 E11.18640
M107
G1 X82.932 Y124.296 E11.26987 F1800.000
G1 X82.649 Y124.529 F7800.000
G1 X72.553 Y123.693 E11.64892 F1260.000
G1 X72.460 Y122.500 E11.69368
G1 X82.386 Y123.323 E12.06636
G1 X132.456 Y123.408 E13.93985
G1 X157.359 Y123.090 E14.87173
G1 X157.452 Y124.286 E14.91661
G1 X132.410 Y124.606 E15.85371
G1 X132.526 Y126.099 E15.90974
G1 X85.691 Y126.019 E17.66220
G1 X84.851 Y126.317 E17.69557
M106 S255
G1 X82.844 Y127.030 E17.75816 F3600.000
G1 X82.812 Y126.624 E17.77012
M107
G1 X82.652 Y124.574 E17.84707 F1260.000
G1 X83.064 Y126.461 F7800.000
G1 X84.748 Y125.505 F7800.000
G1 X86.124 Y124.129 E17.92273 F3600.000
G1 X85.680 Y124.128 E17.93998
G1 X84.059 Y125.750 E18.02914
G1 X83.552 Y125.812 E18.04900
G1 X85.236 Y124.128 E18.14165
G1 X84.793 Y124.127 E18.15890
G1 X83.519 Y125.400 E18.22891
G1 X83.487 Y124.988 E18.24499
G1 X84.349 Y124.126 E18.29237
G1 X83.905 Y124.125 E18.30963
G1 X83.455 Y124.576 E18.33438
G1 X83.423 Y124.163 E18.35046
G1 X83.462 Y124.125 E18.35258
G1 X85.437 Y125.260 F7800.000
G1 X86.567 Y124.130 E18.41473 F3600.000
G1 X87.011 Y124.131 E18.43198
G1 X85.922 Y125.219 E18.49184
G1 X86.366 Y125.220 E18.50909
G1 X87.454 Y124.131 E18.56894
G1 X87.898 Y124.132 E18.58620
G1 X86.810 Y125.221 E18.64605
G1 X87.253 Y125.221 E18.66331
G1 X88.342 Y124.133 E18.72316
G1 X88.785 Y124.134 E18.74041
G1 X87.697 Y125.222 E18.80027
G1 X88.141 Y125.223 E18.81752
G1 X89.229 Y124.135 E18.87738
G1 X89.673 Y124.135 E18.89463
G1 X88.584 Y125.224 E18.95449
G1 X89.028 Y125.224 E18.97174
G1 X90.116 Y124.136 E19.03160
G1 X90.560 Y124.137 E19.04885
G1 X89.472 Y125.225 E19.10871
G1 X89.915 Y125.226 E19.12596
G1 X91.004 Y124.138 E19.18581
G1 X91.447 Y124.138 E19.20307
G1 X90.359 Y125.227 E19.26292
G1 X90.803 Y125.227 E19.28018
G1 X91.891 Y124.139 E19.34003
G1 X92.335 Y124.140 E19.35728
G1 X91.246 Y125.228 E19.41714
G1 X91.690 Y125.229 E19.43439
G1 X92.778 Y124.141 E19.49425
G1 X93.222 Y124.141 E19.51150
G1 X92.134 Y125.230 E19.57136
G1 X92.577 Y125.230 E19.58861
G1 X93.666 Y124.142 E19.64847
G1 X94.109 Y124.143 E19.66572
G1 X93.021 Y125.231 E19.72557
G1 X93.465 Y125.232 E19.74283
G1 X94.553 Y124.144 E19.80268
G1 X94.997 Y124.144 E19.81994
G1 X93.908 Y125.233 E19.87979
G1 X94.352 Y125.234 E19.89704
G1 X95.440 Y124.145 E19.95690
G1 X95.884 Y124.146 E19.97415
G1 X94.796 Y125.234 E20.03401
G1 X95.239 Y125.235 E20.05126
G1 X96.328 Y124.147 E20.11112
G1 X96.771 Y124.147 E20.12837
G1 X95.683 Y125.236 E20.18823
G1 X96.127 Y125.237 E20.20548
G1 X97.215 Y124.148 E20.26533
G1 X97.659 Y124.149 E20.28259
G1 X96.570 Y125.237 E20.34244
