; generated by Slic3r 1.1.7 on 2017-06-07 at 17:08:19

; perimeters extrusion width = 0.30mm
; infill extrusion width = 0.32mm
; solid infill extrusion width = 0.32mm
; top infill extrusion width = 0.32mm

G21 ; set units to millimeters
M107
M190 S105 ; wait for bed temperature to be reached
M104 S240 ; set temperature
G28 ; home all axes
G1 Z5 F5000 ; lift nozzle

M109 S240 ; wait for temperature to be reached
G90 ; use absolute coordinates
G92 E0
M82 ; use absolute distances for extrusion
G1 F1800.000 E-1.00000
G92 E0
G1 Z0.300 F7800.000
G1 X63.974 Y38.252 F7800.000
G1 E1.00000 F1800.000
G1 X65.735 Y36.806 E1.15217 F1080.000
G1 X68.914 Y35.967 E1.37186
G1 X88.429 Y35.895 E2.67552
G1 X124.426 Y35.850 E5.08033
G1 X126.669 Y36.245 E5.23250
G1 X128.641 Y37.385 E5.38467 F1080.000
G1 X130.102 Y39.132 E5.53684
G1 X130.952 Y41.911 E5.73099
G1 X132.785 Y67.276 E7.42990
G1 X133.057 Y117.310 E10.77252
G1 X132.843 Y119.007 E10.88673
G1 X130.153 Y129.247 E11.59405
G1 X129.199 Y131.315 E11.74622
G1 X128.130 Y132.509 E11.85328
G1 X110.992 Y147.473 E13.37316
G1 X109.221 Y148.576 E13.51257
G1 X73.305 Y163.637 E16.11435
G1 X70.794 Y164.146 E16.28551
G1 X69.294 Y164.150 E16.38572
G1 X67.050 Y163.758 E16.53789
G1 X65.077 Y162.620 E16.69006
G1 X63.614 Y160.875 E16.84223
G1 X62.748 Y157.880 E17.05051
G1 X61.723 Y132.528 E18.74553
G1 X62.403 Y42.453 E24.76316
G1 X62.817 Y40.214 E24.91533
G1 X63.952 Y38.290 E25.06450
G1 F1800.000 E24.06450
G92 E0
G1 X70.858 Y131.200 F7800.000
G1 E1.00000 F1800.000
G1 X69.657 Y131.203 E1.08027 F540.000
G1 X70.110 Y107.581 E2.65861
G1 X70.341 Y58.871 E5.91277
G1 X80.501 Y58.845 E6.59152
G1 X80.149 Y63.673 E6.91489
G1 X79.611 Y69.960 E7.33646
G1 X78.995 Y76.240 E7.75803
G1 X78.299 Y82.513 E8.17960
G1 X77.525 Y88.775 E8.60117
G1 X76.673 Y95.028 E9.02274
G1 X75.742 Y101.269 E9.44431
G1 X74.734 Y107.499 E9.86588
G1 X73.647 Y113.715 E10.28745
G1 X72.640 Y119.146 E10.65648
G1 X72.241 Y121.481 E10.81472
G1 X71.867 Y123.820 E10.97296
G1 X71.518 Y126.163 E11.13120
G1 X71.195 Y128.509 E11.28944
G1 X70.863 Y131.155 E11.46756
G1 X70.611 Y131.736 F7800.000
G1 X69.111 Y131.739 E11.56777 F540.000
G1 X69.575 Y107.575 E13.18242
G1 X69.808 Y58.336 E16.47184
G1 X81.077 Y58.308 E17.22469
G1 X80.683 Y63.715 E17.58687
G1 X80.144 Y70.009 E18.00889
G1 X79.527 Y76.296 E18.43091
G1 X78.831 Y82.575 E18.85293
G1 X78.057 Y88.844 E19.27495
G1 X77.203 Y95.104 E19.69697
G1 X76.272 Y101.352 E20.11899
G1 X75.262 Y107.588 E20.54101
G1 X74.174 Y113.810 E20.96303
G1 X73.167 Y119.239 E21.33189
G1 X72.769 Y121.568 E21.48974
G1 X72.396 Y123.901 E21.64759
G1 X72.048 Y126.239 E21.80544
G1 X71.726 Y128.579 E21.96330
G1 X71.429 Y130.924 E22.12115
G1 X70.954 Y135.219 E22.40988
G1 X70.544 Y135.194 E22.43731
G1 X70.610 Y131.781 E22.66538
G1 X70.065 Y132.273 F7800.000
G1 X68.565 Y132.276 E22.76559 F378.000
G1 X69.039 Y107.568 E24.41654
G1 X69.276 Y57.503 E27.76120
G1 X69.239 Y42.802 E28.74331
G1 X70.139 Y42.800 E28.80344
G1 X70.177 Y57.800 E29.80552
G1 X80.777 Y57.773 E30.51365
G1 X80.758 Y50.273 E31.01469
G1 X81.658 Y50.271 E31.07482
G1 X81.676 Y57.460 E31.55506
G1 X81.217 Y63.757 E31.97690
G1 X80.678 Y70.058 E32.39937
G1 X80.060 Y76.352 E32.82184
G1 X79.363 Y82.637 E33.24431
G1 X78.588 Y88.913 E33.66678
G1 X77.734 Y95.179 E34.08924
G1 X76.801 Y101.434 E34.51171
G1 X75.790 Y107.677 E34.93418
G1 X74.701 Y113.906 E35.35665
G1 X73.695 Y119.332 E35.72535
G1 X73.297 Y121.656 E35.88281
G1 X72.925 Y123.983 E36.04027
G1 X72.579 Y126.315 E36.19774
G1 X72.257 Y128.650 E36.35520
G1 X71.961 Y130.988 E36.51266
G1 X71.690 Y133.329 E36.67013
G1 X71.445 Y135.674 E36.82759
G1 X71.225 Y138.020 E36.98506
G1 X71.031 Y140.369 E37.14252
G1 X70.862 Y142.720 E37.29998
G1 X70.719 Y145.078 E37.45775
G1 X70.484 Y157.311 E38.27514
G1 X69.584 Y157.313 E38.33526
G1 X70.064 Y132.318 E40.00540
G1 X70.066 Y131.973 F7800.000
G1 X70.120 Y128.428 F7800.000
G1 X70.079 Y128.387 E40.00929 F1080.000
G1 X70.093 Y127.640 E40.05919
G1 X70.840 Y128.387 E40.12975
G1 X70.932 Y127.718 E40.17486
G1 X70.108 Y126.893 E40.25276
G1 X70.122 Y126.147 E40.30266
G1 X71.024 Y127.049 E40.38790
G1 X71.117 Y126.380 E40.43302
G1 X70.137 Y125.400 E40.52561
G1 X70.151 Y124.653 E40.57551
G1 X71.213 Y125.715 E40.67581
G1 X71.311 Y125.052 E40.72056
G1 X70.165 Y123.906 E40.82882
G1 X70.180 Y123.159 E40.87872
G1 X71.410 Y124.389 E40.99494
G1 X71.509 Y123.727 E41.03967
G1 X70.194 Y122.413 E41.16387
G1 X70.208 Y121.666 E41.21377
G1 X71.613 Y123.071 E41.34653
G1 X71.718 Y122.415 E41.39093
G1 X70.223 Y120.919 E41.53224
G1 X70.237 Y120.172 E41.58214
G1 X71.823 Y121.759 E41.73201
G1 X71.931 Y121.105 E41.77624
G1 X70.251 Y119.425 E41.93495
G1 X70.266 Y118.679 E41.98485
G1 X72.042 Y120.455 E42.15271
G1 X72.153 Y119.805 E42.19676
G1 X70.280 Y117.932 E42.37377
G1 X70.294 Y117.185 E42.42366
G1 X72.265 Y119.155 E42.60981
G1 X72.383 Y118.512 E42.65349
G1 X70.309 Y116.438 E42.84944
G1 X70.323 Y115.692 E42.89934
G1 X72.502 Y117.870 E43.10519
G1 X72.621 Y117.228 E43.14882
G1 X70.337 Y114.945 E43.36456
G1 X70.352 Y114.198 E43.41446
G1 X72.740 Y116.586 E43.64009
G1 X72.859 Y115.944 E43.68371
G1 X70.366 Y113.451 E43.91924
G1 X70.380 Y112.704 E43.96914
G1 X72.978 Y115.302 E44.21455
G1 X73.097 Y114.660 E44.25818
G1 X70.395 Y111.958 E44.51349
G1 X70.409 Y111.211 E44.56339
G1 X73.216 Y114.018 E44.82859
G1 X73.333 Y113.373 E44.87234
G1 X70.423 Y110.464 E45.14720
G1 X70.438 Y109.717 E45.19710
G1 X73.446 Y112.726 E45.48131
G1 X73.559 Y112.078 E45.52524
G1 X70.452 Y108.971 E45.81880
G1 X70.466 Y108.224 E45.86870
G1 X73.672 Y111.430 E46.17160
G1 X73.786 Y110.782 E46.21553
G1 X70.479 Y107.475 E46.52793
G1 X70.483 Y106.718 E46.57854
G1 X73.899 Y110.134 E46.90130
G1 X74.012 Y109.486 E46.94523
G1 X70.486 Y105.960 E47.27835
G1 X70.490 Y105.203 E47.32896
G1 X74.125 Y108.838 E47.67245
G1 X74.239 Y108.191 E47.71638
G1 X70.493 Y104.445 E48.07023
G1 X70.497 Y103.688 E48.12084
G1 X74.352 Y107.543 E48.48505
G1 X74.459 Y106.889 E48.52932
G1 X70.501 Y102.930 E48.90332
G1 X70.504 Y102.173 E48.95393
G1 X74.565 Y106.234 E49.33762
G1 X74.671 Y105.579 E49.38195
G1 X70.508 Y101.415 E49.77532
G1 X70.511 Y100.658 E49.82593
G1 X74.778 Y104.924 E50.22898
G1 X74.884 Y104.269 E50.27331
G1 X70.515 Y99.900 E50.68605
G1 X70.518 Y99.143 E50.73666
G1 X74.990 Y103.614 E51.15909
G1 X75.096 Y102.959 E51.20342
G1 X70.522 Y98.385 E51.63552
G1 X70.526 Y97.627 E51.68613
G1 X75.202 Y102.304 E52.12792
G1 X75.308 Y101.649 E52.17225
G1 X70.529 Y96.870 E52.62373
G1 X70.533 Y96.112 E52.67434
G1 X75.412 Y100.991 E53.13526
G1 X75.510 Y100.329 E53.18000
G1 X70.536 Y95.355 E53.64992
G1 X70.540 Y94.597 E53.70052
G1 X75.609 Y99.666 E54.17942
G1 X75.708 Y99.004 E54.22416
G1 X70.544 Y93.840 E54.71205
G1 X70.547 Y93.082 E54.76266
G1 X75.806 Y98.341 E55.25953
G1 X75.905 Y97.679 E55.30427
G1 X70.551 Y92.325 E55.81013
G1 X70.554 Y91.567 E55.86073
G1 X76.004 Y97.017 E56.37558
G1 X76.102 Y96.354 E56.42032
G1 X70.558 Y90.810 E56.94415
G1 X70.562 Y90.052 E56.99475
G1 X76.201 Y95.692 E57.52757
G1 X76.300 Y95.029 E57.57231
G1 X70.565 Y89.295 E58.11411
G1 X70.569 Y88.537 E58.16472
G1 X76.392 Y94.361 E58.71492
G1 X76.484 Y93.691 E58.76008
G1 X70.572 Y87.780 E59.31857
G1 X70.576 Y87.022 E59.36918
G1 X76.575 Y93.021 E59.93596
G1 X76.666 Y92.351 E59.98112
G1 X70.579 Y86.264 E60.55618
G1 X70.583 Y85.507 E60.60679
G1 X76.758 Y91.681 E61.19014
G1 X76.849 Y91.012 E61.23531
G1 X70.587 Y84.749 E61.82694
G1 X70.590 Y83.992 E61.87755
G1 X76.940 Y90.342 E62.47748
G1 X77.031 Y89.672 E62.52264
G1 X70.594 Y83.234 E63.13086
G1 X70.597 Y82.477 E63.18146
G1 X77.123 Y89.002 E63.79797
G1 X77.210 Y88.328 E63.84338
G1 X70.601 Y81.719 E64.46775
G1 X70.605 Y80.962 E64.51836
G1 X77.293 Y87.651 E65.15029
G1 X77.377 Y86.973 E65.19589
G1 X70.608 Y80.204 E65.83540
G1 X70.612 Y79.447 E65.88600
G1 X77.461 Y86.296 E66.53308
G1 X77.544 Y85.618 E66.57868
G1 X70.615 Y78.689 E67.23332
G1 X70.619 Y77.932 E67.28393
G1 X77.628 Y84.941 E67.94614
G1 X77.712 Y84.263 E67.99174
G1 X70.622 Y77.174 E68.66152
G1 X70.626 Y76.417 E68.71213
G1 X77.796 Y83.586 E69.38948
G1 X77.879 Y82.909 E69.43508
G1 X70.630 Y75.659 E70.12000
G1 X70.633 Y74.901 E70.17061
G1 X77.960 Y82.228 E70.86284
G1 X78.036 Y81.543 E70.90889
G1 X70.637 Y74.144 E71.60796
G1 X70.640 Y73.386 E71.65857
G1 X78.112 Y80.858 E72.36447
G1 X78.188 Y80.173 E72.41053
G1 X70.644 Y72.629 E73.12327
G1 X70.648 Y71.871 E73.17388
G1 X78.264 Y79.488 E73.89346
G1 X78.340 Y78.803 E73.93951
G1 X70.651 Y71.114 E74.66593
G1 X70.655 Y70.356 E74.71654
G1 X78.416 Y78.117 E75.44979
G1 X78.492 Y77.432 E75.49584
G1 X70.658 Y69.599 E76.23593
G1 X70.662 Y68.841 E76.28654
G1 X78.568 Y76.747 E77.03347
G1 X78.642 Y76.060 E77.07962
G1 X70.665 Y68.084 E77.83323
G1 X70.669 Y67.326 E77.88384
G1 X78.710 Y75.367 E78.64354
G1 X78.778 Y74.674 E78.69006
G1 X70.673 Y66.569 E79.45585
G1 X70.676 Y65.811 E79.50646
G1 X78.846 Y73.981 E80.27834
G1 X78.914 Y73.288 E80.32486
G1 X70.680 Y65.054 E81.10283
G1 X70.683 Y64.296 E81.15344
G1 X78.982 Y72.595 E81.93750
G1 X79.050 Y71.902 E81.98403
G1 X70.687 Y63.538 E82.77418
G1 X70.691 Y62.781 E82.82478
G1 X79.118 Y71.209 E83.62102
G1 X79.186 Y70.516 E83.66755
G1 X70.694 Y62.023 E84.46988
G1 X70.698 Y61.266 E84.52048
G1 X79.253 Y69.821 E85.32879
G1 X79.313 Y69.120 E85.37580
G1 X70.701 Y60.508 E86.18943
G1 X70.705 Y59.751 E86.24003
G1 X79.373 Y68.419 E87.05898
G1 X79.433 Y67.718 E87.10599
G1 X70.953 Y59.237 E87.90721
G1 X71.712 Y59.235 E87.95793
G1 X79.493 Y67.017 E88.69307
G1 X79.553 Y66.315 E88.74008
G1 X72.471 Y59.234 E89.40916
G1 X73.230 Y59.232 E89.45988
G1 X79.613 Y65.614 E90.06288
G1 X79.673 Y64.913 E90.10989
G1 X73.989 Y59.230 E90.64683
G1 X74.749 Y59.228 E90.69755
G1 X79.732 Y64.212 E91.16841
G1 X79.791 Y63.510 E91.21548
G1 X75.508 Y59.226 E91.62019
G1 X76.267 Y59.224 E91.67091
G1 X79.843 Y62.800 E92.00877
G1 X79.895 Y62.091 E92.05629
G1 X77.026 Y59.222 E92.32731
G1 X77.786 Y59.220 E92.37803
G1 X79.947 Y61.381 E92.58220
G1 X79.998 Y60.672 E92.62972
G1 X78.545 Y59.218 E92.76706
G1 X79.304 Y59.216 E92.81778
G1 X80.050 Y59.963 E92.88827
G1 X80.102 Y59.253 E92.93579
G1 X80.063 Y59.215 E92.93944
G1 X81.205 Y58.040 F7800.000
G1 X81.226 Y57.444 E92.96176 F360.000
G1 X81.209 Y50.540 E93.22009
G1 F1800.000 E92.22009
G92 E0
G1 X69.690 Y43.069 F7800.000
G1 E1.00000 F1800.000
G1 X69.725 Y58.069 E1.56126 F360.000
G1 X70.426 Y128.820 F7800.000
G1 X70.273 Y130.933 E1.78212 F360.000
G1 X70.732 Y135.474 F7800.000
G1 X70.467 Y140.420 E2.29833 F360.000
G1 X70.467 Y140.420 F7800.000
G1 X70.269 Y145.064 E2.47225 F360.000
G1 X70.039 Y157.044 E2.92062
G1 F1800.000 E1.92062
G92 E0
G1 X87.218 Y116.702 F7800.000
G1 E1.00000 F1800.000
G1 X87.635 Y92.573 E2.61217 F540.000
G1 X87.702 Y68.323 E4.23225
G1 X89.027 Y68.259 E4.32087
G1 X88.960 Y92.413 E5.93449
G1 X88.542 Y116.639 E7.55312
G1 X87.263 Y116.700 E7.63865
G1 X88.171 Y117.193 F7800.000
G1 X86.673 Y117.264 E7.73886 F378.000
G1 X87.099 Y92.568 E9.38896
G1 X87.238 Y42.789 E12.71449
G1 X88.136 Y42.746 E12.77456
G1 X88.066 Y67.769 E14.44625
G1 X89.565 Y67.697 E14.54646
G1 X89.496 Y92.418 E16.19798
G1 X88.637 Y142.190 E19.52349
G1 X87.739 Y142.233 E19.58353
G1 X88.171 Y117.238 E21.25362
G1 X88.163 Y116.893 F7800.000
G1 X87.616 Y68.059 F7800.000
G1 X87.686 Y43.035 E22.18994 F360.000
G1 X88.364 Y68.559 F7800.000
G1 X88.298 Y92.406 E24.67539 F360.000
G1 X87.885 Y116.402 E27.17665
G1 X88.625 Y116.903 F7800.000
G1 X88.193 Y141.943 E28.11375 F360.000
G1 F1800.000 E27.11375
G92 E0
G1 X105.214 Y116.750 F7800.000
G1 E1.00000 F1800.000
G1 X105.815 Y68.364 E4.23272 F540.000
G1 X107.142 Y68.332 E4.32141
G1 X106.541 Y116.719 E7.55413
G1 X105.259 Y116.749 E7.63982
G1 X106.175 Y117.263 F7800.000
G1 X104.671 Y117.299 E7.74033 F378.000
G1 X105.290 Y67.549 E11.06413
G1 X105.239 Y42.796 E12.71781
G1 X106.139 Y42.774 E12.77793
G1 X106.190 Y67.819 E14.45107
G1 X107.685 Y67.784 E14.55098
G1 X107.067 Y117.529 E17.87449
G1 X106.401 Y142.256 E19.52699
G1 X105.502 Y142.278 E19.58706
G1 X106.174 Y117.308 E21.25575
G1 X106.173 Y116.963 F7800.000
G1 X105.881 Y116.467 F7800.000
G1 X106.475 Y68.616 E26.24325 F360.000
G1 X105.737 Y68.098 F7800.000
G1 X105.689 Y43.053 E27.18038 F360.000
G1 X106.628 Y116.985 F7800.000
G1 X105.959 Y141.999 E28.11669 F360.000
G1 F1800.000 E27.11669
G92 E0
G1 X124.010 Y116.704 F7800.000
G1 E1.00000 F1800.000
G1 X124.092 Y68.318 E4.23244 F540.000
G1 X125.412 Y68.215 E4.32085
G1 X125.329 Y116.601 E7.55329
G1 X124.055 Y116.700 E7.63869
G1 X124.390 Y117.211 F7800.000
G1 X123.554 Y127.307 E8.31545 F378.000
G1 X122.664 Y127.376 E8.37505
G1 X123.473 Y117.620 E9.02907
G1 X123.558 Y67.318 E12.38951
G1 X123.242 Y42.780 E14.02893
G1 X124.138 Y42.710 E14.08897
G1 X124.458 Y67.752 E15.76207
G1 X125.948 Y67.636 E15.86196
G1 X125.865 Y116.395 E19.11934
G1 X126.108 Y117.077 E19.16771
G1 X124.435 Y117.208 E19.27979
G1 X124.090 Y117.203 F7800.000
G1 X124.670 Y116.384 F7800.000
G1 X124.752 Y68.535 E24.26670 F360.000
G1 X124.009 Y68.056 F7800.000
G1 X123.694 Y43.013 E25.20381 F360.000
G1 X123.941 Y116.978 F7800.000
G1 X123.912 Y117.646 E25.22882 F360.000
G1 X123.131 Y127.071 E25.58272
M104 S230 ; set temperature
M140 S95 ; set bed temperature
G1 F1800.000 E24.58272
G92 E0
G1 Z0.600 F7800.000
G1 X70.523 Y131.822 F7800.000
G1 E1.00000 F1800.000
G1 X69.023 Y131.825 E1.05613 F1800.000
G1 X69.489 Y107.573 E1.96374
G1 X69.722 Y58.251 E3.80930
G1 X81.169 Y58.222 E4.23761
G1 X80.768 Y63.722 E4.44394
G1 X80.230 Y70.017 E4.68035
G1 X79.612 Y76.305 E4.91676
G1 X78.916 Y82.585 E5.15318
G1 X78.141 Y88.855 E5.38959
G1 X77.288 Y95.116 E5.62600
G1 X76.356 Y101.365 E5.86242
G1 X75.346 Y107.602 E6.09883
G1 X74.258 Y113.826 E6.33524
G1 X73.252 Y119.254 E6.54183
G1 X72.853 Y121.582 E6.63020
G1 X72.481 Y123.915 E6.71858
G1 X72.133 Y126.251 E6.80696
G1 X71.811 Y128.591 E6.89534
G1 X71.514 Y130.934 E6.98372
G1 X71.243 Y133.280 E7.07209
G1 X70.997 Y135.629 E7.16047
G1 X70.595 Y140.177 E7.33129
G1 X70.363 Y140.165 E7.33999
G1 X70.523 Y131.867 E7.65056
G1 X70.218 Y132.122 F7800.000
G1 X68.718 Y132.126 E7.70669 F1800.000
G1 X69.189 Y107.570 E8.62569
G1 X69.426 Y57.503 E10.49909
G1 X69.390 Y42.952 E11.04358
G1 X69.990 Y42.950 E11.06603
G1 X70.027 Y57.950 E11.62729
G1 X80.927 Y57.923 E12.03515
G1 X80.908 Y50.423 E12.31578
G1 X81.508 Y50.421 E12.33823
G1 X81.526 Y57.454 E12.60139
G1 X81.067 Y63.746 E12.83741
G1 X80.528 Y70.045 E13.07397
G1 X79.911 Y76.336 E13.31052
G1 X79.214 Y82.620 E13.54708
G1 X78.439 Y88.894 E13.78363
G1 X77.585 Y95.158 E14.02018
G1 X76.653 Y101.411 E14.25674
G1 X75.642 Y107.652 E14.49329
G1 X74.553 Y113.879 E14.72984
G1 X73.547 Y119.306 E14.93638
G1 X73.149 Y121.631 E15.02463
G1 X72.777 Y123.960 E15.11289
G1 X72.430 Y126.293 E15.20114
G1 X72.109 Y128.630 E15.28940
G1 X71.812 Y130.970 E15.37766
G1 X71.541 Y133.313 E15.46591
G1 X71.296 Y135.659 E15.55417
G1 X71.076 Y138.007 E15.64243
G1 X70.881 Y140.358 E15.73068
G1 X70.713 Y142.711 E15.81894
G1 X70.569 Y145.072 E15.90745
G1 X70.337 Y157.161 E16.35990
G1 X69.737 Y157.163 E16.38234
G1 X70.217 Y132.167 E17.31778
G1 X69.912 Y132.423 F7800.000
G1 X68.412 Y132.427 E17.37391 F1260.000
G1 X68.889 Y107.566 E18.30430
G1 X69.126 Y57.503 E20.17758
G1 X69.089 Y42.652 E20.73325
G1 X70.289 Y42.649 E20.77816
G1 X70.326 Y57.649 E21.33942
G1 X80.626 Y57.624 E21.72482
G1 X80.608 Y50.124 E22.00545
G1 X81.808 Y50.121 E22.05036
G1 X81.826 Y57.465 E22.32516
G1 X81.366 Y63.769 E22.56168
G1 X80.827 Y70.072 E22.79838
G1 X80.228 Y76.179 E23.02800
G1 X79.512 Y82.655 E23.27177
G1 X78.737 Y88.933 E23.50846
G1 X77.882 Y95.200 E23.74515
G1 X76.949 Y101.457 E23.98185
G1 X75.938 Y107.701 E24.21854
G1 X74.848 Y113.933 E24.45524
