; generated by Slic3r 1.1.7 on 2017-05-25 at 15:54:58

; perimeters extrusion width = 0.30mm
; infill extrusion width = 0.32mm
; solid infill extrusion width = 0.32mm
; top infill extrusion width = 0.32mm

G21 ; set units to millimeters
M107
M190 S105 ; wait for bed temperature to be reached
M104 S240 ; set temperature
G28 ; home all axes
G1 Z5 F5000 ; lift nozzle

M109 S240 ; wait for temperature to be reached
G90 ; use absolute coordinates
G92 E0
M82 ; use absolute distances for extrusion
G1 F1800.000 E-1.00000
G92 E0
G1 Z0.300 F7800.000
G1 X61.444 Y57.691 F7800.000
G1 E1.00000 F1800.000
G1 X64.172 Y55.013 E1.25543 F1080.000
G1 X67.166 Y52.635 E1.51086
G1 X70.392 Y50.582 E1.76629
G1 X73.815 Y48.878 E2.02172
G1 X77.397 Y47.542 E2.27715
G1 X81.100 Y46.587 E2.53258
G1 X84.881 Y46.024 E2.78801
G1 X88.359 Y45.851 E3.02064
G1 X122.641 Y45.851 E5.31083
G1 X124.884 Y46.248 E5.46300
G1 X126.854 Y47.390 E5.61517 F1080.000
G1 X128.313 Y49.140 E5.76734
G1 X128.984 Y50.814 E5.88782
G1 X147.440 Y125.354 E11.01789
G1 X148.003 Y129.136 E11.27332
G1 X148.176 Y132.614 E11.50595
G1 X148.176 Y147.614 E12.50803
G1 X147.779 Y149.857 E12.66020
G1 X146.637 Y151.827 E12.81238
G1 X144.887 Y153.286 E12.96455
G1 X141.641 Y154.149 E13.18898
G1 X88.017 Y154.140 E16.77132
G1 X84.201 Y153.905 E17.02675
G1 X80.430 Y153.271 E17.28218
G1 X77.526 Y152.493 E17.48303
G1 X76.747 Y152.247 E17.53765
G1 X74.006 Y151.195 E17.73375
G1 X73.190 Y150.843 E17.79311
G1 X70.575 Y149.511 E17.98921
G1 X69.800 Y149.076 E18.04858
G1 X67.338 Y147.477 E18.24468
G1 X66.613 Y146.963 E18.30405
G1 X64.297 Y145.088 E18.50315
G1 X63.664 Y144.529 E18.55952
G1 X60.986 Y141.801 E18.81495
G1 X58.608 Y138.807 E19.07037
G1 X58.496 Y138.635 E19.08406
G1 X56.555 Y135.581 E19.32581
G1 X54.851 Y132.158 E19.58123
G1 X53.515 Y128.576 E19.83666
G1 X52.560 Y124.873 E20.09209
G1 X52.110 Y122.032 E20.28429
G1 X51.997 Y121.092 E20.34755
G1 X51.824 Y117.614 E20.58019
G1 X51.833 Y82.044 E22.95642
G1 X52.068 Y78.228 E23.21185
G1 X52.702 Y74.457 E23.46728
G1 X53.071 Y73.079 E23.56259
G1 X53.726 Y70.774 E23.72272
G1 X55.130 Y67.217 E23.97814
G1 X56.897 Y63.827 E24.23357
G1 X59.010 Y60.640 E24.48900
G1 X61.415 Y57.726 E24.74143
G1 F1800.000 E23.74143
G92 E0
G1 X112.372 Y124.301 F7800.000
G1 E1.00000 F1800.000
G1 X112.455 Y122.723 E1.10553 F540.000
G1 X112.502 Y122.426 E1.12562
G1 X112.580 Y122.136 E1.14571
G1 X112.688 Y121.855 E1.16580
G1 X112.824 Y121.587 E1.18590
G1 X112.988 Y121.335 E1.20598
G1 X113.177 Y121.101 E1.22608
G1 X113.390 Y120.888 E1.24617
G1 X113.624 Y120.699 E1.26626
G1 X113.876 Y120.535 E1.28635
G1 X114.144 Y120.399 E1.30644
G1 X114.425 Y120.291 E1.32653
G1 X114.715 Y120.213 E1.34663
G1 X115.012 Y120.166 E1.36671
G1 X115.313 Y120.150 E1.38680
G1 X115.613 Y120.166 E1.40690
G1 X115.910 Y120.213 E1.42699
G1 X116.200 Y120.291 E1.44707
G1 X116.481 Y120.399 E1.46717
G1 X116.818 Y120.580 E1.49272
G1 X117.001 Y120.699 E1.50732
G1 X117.235 Y120.888 E1.52741
G1 X117.448 Y121.101 E1.54750
G1 X117.637 Y121.335 E1.56759
G1 X117.756 Y121.518 E1.58220
G1 X117.937 Y121.855 E1.60775
G1 X118.045 Y122.136 E1.62784
G1 X118.123 Y122.426 E1.64793
G1 X118.170 Y122.723 E1.66802
G1 X118.186 Y123.023 E1.68811
G1 X118.170 Y123.324 E1.70821
G1 X118.123 Y123.621 E1.72830
G1 X118.045 Y123.911 E1.74839
G1 X117.937 Y124.192 E1.76848
G1 X117.801 Y124.460 E1.78857
G1 X117.637 Y124.712 E1.80866
G1 X117.448 Y124.946 E1.82875
G1 X117.235 Y125.159 E1.84884
G1 X117.065 Y125.296 E1.86345
G1 X116.749 Y125.512 E1.88900
G1 X116.481 Y125.648 E1.90909
G1 X116.200 Y125.756 E1.92918
G1 X115.910 Y125.834 E1.94927
G1 X115.694 Y125.868 E1.96388
G1 X115.312 Y125.897 E1.98943
G1 X115.012 Y125.881 E2.00952
G1 X114.715 Y125.834 E2.02961
G1 X114.425 Y125.756 E2.04971
G1 X114.144 Y125.648 E2.06979
G1 X113.876 Y125.512 E2.08988
G1 X113.624 Y125.348 E2.10997
G1 X113.390 Y125.159 E2.13006
G1 X113.177 Y124.946 E2.15015
G1 X112.988 Y124.712 E2.17024
G1 X112.743 Y124.301 E2.20224
G1 X112.417 Y124.301 E2.22400
G1 X112.937 Y123.765 F7800.000
G1 X112.989 Y122.779 E2.28995 F540.000
G1 X113.027 Y122.538 E2.30629
G1 X113.090 Y122.301 E2.32263
G1 X113.178 Y122.073 E2.33897
G1 X113.289 Y121.855 E2.35531
G1 X113.422 Y121.650 E2.37165
G1 X113.576 Y121.460 E2.38799
G1 X113.749 Y121.287 E2.40433
G1 X113.939 Y121.133 E2.42067
G1 X114.144 Y121.000 E2.43701
G1 X114.362 Y120.889 E2.45335
G1 X114.590 Y120.801 E2.46969
G1 X114.827 Y120.738 E2.48604
G1 X115.122 Y120.697 E2.50596
G1 X115.557 Y120.700 E2.53500 F540.000
G1 X115.798 Y120.738 E2.55134
G1 X116.035 Y120.801 E2.56768
G1 X116.263 Y120.889 E2.58402
G1 X116.481 Y121.000 E2.60036
G1 X116.686 Y121.133 E2.61670
G1 X116.876 Y121.287 E2.63304
G1 X117.049 Y121.460 E2.64937
G1 X117.203 Y121.650 E2.66572
G1 X117.336 Y121.855 E2.68206
G1 X117.447 Y122.073 E2.69840
G1 X117.535 Y122.301 E2.71474
G1 X117.598 Y122.538 E2.73108
G1 X117.636 Y122.779 E2.74742
G1 X117.649 Y123.023 E2.76376
G1 X117.636 Y123.268 E2.78010
G1 X117.598 Y123.509 E2.79644
G1 X117.535 Y123.746 E2.81278
G1 X117.361 Y124.144 E2.84181
G1 X117.203 Y124.397 E2.86174
G1 X117.049 Y124.587 E2.87809
G1 X116.728 Y124.880 E2.90712
G1 X116.481 Y125.047 E2.92705
G1 X116.263 Y125.158 E2.94339
G1 X116.035 Y125.246 E2.95973
G1 X115.610 Y125.339 E2.98876
G1 X115.312 Y125.360 E3.00870
G1 X115.068 Y125.347 E3.02504
G1 X114.827 Y125.309 E3.04137
G1 X114.590 Y125.246 E3.05772
G1 X114.362 Y125.158 E3.07405
G1 X114.144 Y125.047 E3.09039
G1 X113.939 Y124.914 E3.10674
G1 X113.614 Y124.625 E3.13577
G1 X113.422 Y124.397 E3.15570
G1 X113.289 Y124.192 E3.17204
G1 X113.098 Y123.765 E3.20329
G1 X112.982 Y123.765 E3.21102
G1 X113.600 Y123.580 F7800.000
G1 X113.501 Y123.229 E3.23534 F378.000
G1 X113.522 Y122.835 E3.26171
G1 X113.600 Y122.467 E3.28685
G1 X113.668 Y122.291 E3.29944
G1 X113.856 Y121.965 E3.32459
G1 X113.975 Y121.819 E3.33718
G1 X114.254 Y121.567 E3.36232
G1 X114.580 Y121.379 E3.38747
G1 X114.938 Y121.262 E3.41261
G1 X115.338 Y121.224 E3.43947
G1 X115.687 Y121.262 E3.46288 F378.000
G1 X115.869 Y121.311 E3.47547
G1 X116.045 Y121.379 E3.48806
G1 X116.371 Y121.567 E3.51321
G1 X116.650 Y121.819 E3.53835
G1 X116.872 Y122.123 E3.56350
G1 X116.957 Y122.291 E3.57609
G1 X117.074 Y122.649 E3.60123
G1 X117.113 Y123.023 E3.62637
G1 X117.103 Y123.212 E3.63896
G1 X117.025 Y123.580 E3.66411
G1 X116.957 Y123.756 E3.67670
G1 X116.769 Y124.082 E3.70184
G1 X116.517 Y124.361 E3.72699
G1 X116.234 Y124.569 E3.75040
G1 X116.045 Y124.668 E3.76472
G1 X115.869 Y124.736 E3.77731
G1 X115.526 Y124.810 E3.80072
G1 X115.124 Y124.814 E3.82758
G1 X114.756 Y124.736 E3.85273
G1 X114.412 Y124.583 E3.87787
G1 X114.254 Y124.480 E3.89046
G1 X113.993 Y124.247 E3.91387
G1 X113.856 Y124.082 E3.92819
G1 X113.753 Y123.924 E3.94078
G1 X113.616 Y123.622 E3.96292
G1 F1800.000 E2.96292
G92 E0
G1 X115.412 Y120.934 F7800.000
G1 X63.072 Y106.170 F7800.000
G1 E1.00000 F1800.000
G1 X63.004 Y106.346 E1.01259 F378.000
G1 X62.816 Y106.672 E1.03773
G1 X62.564 Y106.952 E1.06288
G1 X62.259 Y107.173 E1.08802
G1 X61.940 Y107.317 E1.11144
G1 X61.734 Y107.375 E1.12575
G1 X61.547 Y107.404 E1.13834
G1 X61.171 Y107.404 E1.16349
G1 X60.803 Y107.326 E1.18863
G1 X60.482 Y107.185 E1.21205
G1 X60.301 Y107.070 E1.22636
G1 X60.155 Y106.952 E1.23895
G1 X59.903 Y106.672 E1.26409
G1 X59.800 Y106.514 E1.27668
G1 X59.656 Y106.194 E1.30010
G1 X59.569 Y105.802 E1.32696
G1 X59.569 Y105.426 E1.35210
G1 X59.598 Y105.239 E1.36469
G1 X59.647 Y105.057 E1.37728
G1 X59.800 Y104.713 E1.40243
G1 X60.021 Y104.409 E1.42757
G1 X60.155 Y104.276 E1.44016
G1 X60.459 Y104.055 E1.46531
G1 X60.627 Y103.969 E1.47789
G1 X60.985 Y103.853 E1.50304
G1 X61.385 Y103.815 E1.52990
G1 X61.734 Y103.853 E1.55331 F378.000
G1 X61.916 Y103.901 E1.56590
G1 X62.259 Y104.055 E1.59105
G1 X62.564 Y104.276 E1.61619
G1 X62.816 Y104.555 E1.64134
G1 X63.004 Y104.881 E1.66648
G1 X63.120 Y105.239 E1.69163
G1 X63.160 Y105.614 E1.71677
G1 X63.150 Y105.802 E1.72936
G1 X63.083 Y106.127 E1.75150
G1 F1800.000 E0.75150
G92 E0
G1 X61.335 Y103.519 F7800.000
G1 X74.987 Y119.022 F7800.000
G1 E1.00000 F1800.000
G1 X75.302 Y118.767 E1.02708 F540.000
G1 X75.642 Y118.546 E1.05417
G1 X76.003 Y118.362 E1.08125
G1 X76.381 Y118.217 E1.10833
G1 X76.773 Y118.112 E1.13542
G1 X77.173 Y118.048 E1.16250
G1 X77.667 Y118.032 E1.19550
G1 X77.983 Y118.048 E1.21664 F540.000
G1 X78.383 Y118.112 E1.24372
G1 X78.775 Y118.217 E1.27080
G1 X79.153 Y118.362 E1.29789
G1 X79.589 Y118.595 E1.33088
G1 X79.855 Y118.767 E1.35203
G1 X80.170 Y119.022 E1.37911
G1 X80.456 Y119.309 E1.40619
G1 X80.712 Y119.624 E1.43328
G1 X80.932 Y119.964 E1.46036
G1 X81.116 Y120.325 E1.48745
G1 X81.262 Y120.703 E1.51453
G1 X81.367 Y121.095 E1.54161
G1 X81.430 Y121.496 E1.56870
G1 X81.451 Y121.900 E1.59578
G1 X81.435 Y122.216 E1.61692
G1 X81.367 Y122.706 E1.64992
G1 X81.262 Y123.097 E1.67700
G1 X81.116 Y123.476 E1.70409
G1 X80.932 Y123.837 E1.73117
G1 X80.760 Y124.102 E1.75231
G1 X80.456 Y124.492 E1.78531
G1 X80.170 Y124.779 E1.81240
G1 X79.855 Y125.034 E1.83948
G1 X79.515 Y125.255 E1.86656
G1 X79.233 Y125.398 E1.88770
G1 X78.775 Y125.584 E1.92070
G1 X78.383 Y125.689 E1.94778
G1 X77.983 Y125.752 E1.97487
G1 X77.578 Y125.773 E2.00195
G1 X77.173 Y125.752 E2.02903
G1 X76.773 Y125.689 E2.05612
G1 X76.381 Y125.584 E2.08320
G1 X76.086 Y125.470 E2.10434
G1 X75.642 Y125.255 E2.13734
G1 X75.302 Y125.034 E2.16442
G1 X74.987 Y124.779 E2.19150
G1 X74.700 Y124.492 E2.21859
G1 X74.445 Y124.177 E2.24567
G1 X74.224 Y123.837 E2.27276
G1 X74.040 Y123.476 E2.29984
G1 X73.895 Y123.097 E2.32692
G1 X73.790 Y122.706 E2.35401
G1 X73.726 Y122.305 E2.38109
G1 X73.705 Y121.900 E2.40817
G1 X73.726 Y121.496 E2.43525
G1 X73.790 Y121.095 E2.46234
G1 X73.895 Y120.703 E2.48942
G1 X74.040 Y120.325 E2.51650
G1 X74.224 Y119.964 E2.54359
G1 X74.445 Y119.624 E2.57067
G1 X74.700 Y119.309 E2.59776
G1 X74.955 Y119.054 E2.62184
G1 X75.345 Y119.421 F7800.000
G1 X75.617 Y119.201 E2.64517 F540.000
G1 X75.910 Y119.011 E2.66850
G1 X76.221 Y118.852 E2.69183
G1 X76.547 Y118.727 E2.71516
G1 X76.884 Y118.636 E2.73850
G1 X77.290 Y118.579 E2.76588
G1 X77.578 Y118.564 E2.78515 F540.000
G1 X77.927 Y118.582 E2.80848
G1 X78.272 Y118.637 E2.83181
G1 X78.609 Y118.727 E2.85514
G1 X78.990 Y118.880 E2.88252
G1 X79.247 Y119.011 E2.90179
G1 X79.539 Y119.201 E2.92512
G1 X79.811 Y119.421 E2.94846
G1 X80.058 Y119.668 E2.97179
G1 X80.278 Y119.939 E2.99512
G1 X80.468 Y120.232 E3.01846
G1 X80.626 Y120.543 E3.04179
G1 X80.752 Y120.869 E3.06512
G1 X80.842 Y121.207 E3.08845
G1 X80.897 Y121.552 E3.11179
G1 X80.915 Y121.900 E3.13512
G1 X80.897 Y122.249 E3.15845
G1 X80.842 Y122.594 E3.18179
G1 X80.752 Y122.931 E3.20512
G1 X80.626 Y123.258 E3.22845
G1 X80.496 Y123.515 E3.24772
G1 X80.278 Y123.862 E3.27510
G1 X80.058 Y124.133 E3.29843
G1 X79.811 Y124.380 E3.32177
G1 X79.539 Y124.600 E3.34510
G1 X79.298 Y124.757 E3.36436
G1 X78.935 Y124.949 E3.39174
G1 X78.609 Y125.074 E3.41508
G1 X78.272 Y125.164 E3.43841
G1 X77.927 Y125.219 E3.46174
G1 X77.578 Y125.237 E3.48507
G1 X77.229 Y125.219 E3.50841
G1 X76.884 Y125.164 E3.53174
G1 X76.606 Y125.090 E3.55101
G1 X76.221 Y124.949 E3.57839
G1 X75.910 Y124.790 E3.60172
G1 X75.617 Y124.600 E3.62505
G1 X75.345 Y124.380 E3.64838
G1 X75.098 Y124.133 E3.67172
G1 X74.879 Y123.862 E3.69505
G1 X74.688 Y123.569 E3.71838
G1 X74.530 Y123.258 E3.74172
G1 X74.405 Y122.931 E3.76505
G1 X74.314 Y122.594 E3.78838
G1 X74.260 Y122.249 E3.81171
G1 X74.241 Y121.900 E3.83505
G1 X74.260 Y121.552 E3.85838
G1 X74.314 Y121.207 E3.88171
G1 X74.405 Y120.869 E3.90505
G1 X74.530 Y120.543 E3.92838
G1 X74.688 Y120.232 E3.95171
G1 X74.879 Y119.939 E3.97504
G1 X75.098 Y119.668 E3.99838
G1 X75.314 Y119.452 E4.01871
G1 X75.704 Y119.819 F7800.000
G1 X75.932 Y119.635 E4.03829 F378.000
G1 X76.178 Y119.475 E4.05787
G1 X76.439 Y119.342 E4.07745
G1 X76.713 Y119.237 E4.09703
G1 X76.996 Y119.161 E4.11662
G1 X77.285 Y119.115 E4.13620
G1 X77.611 Y119.102 E4.15796
G1 X77.871 Y119.115 E4.17535 F378.000
G1 X78.160 Y119.161 E4.19494
G1 X78.444 Y119.237 E4.21452
G1 X78.717 Y119.342 E4.23410
G1 X79.006 Y119.493 E4.25586
G1 X79.224 Y119.635 E4.27325
G1 X79.452 Y119.819 E4.29284
G1 X79.659 Y120.027 E4.31242
G1 X79.844 Y120.254 E4.33200
G1 X80.003 Y120.500 E4.35158
G1 X80.136 Y120.761 E4.37116
G1 X80.242 Y121.035 E4.39075
G1 X80.317 Y121.318 E4.41033
G1 X80.363 Y121.608 E4.42991
G1 X80.379 Y121.900 E4.44949
G1 X80.363 Y122.193 E4.46908
G1 X80.317 Y122.483 E4.48866
G1 X80.242 Y122.766 E4.50824
G1 X80.136 Y123.039 E4.52782
G1 X80.018 Y123.271 E4.54522
G1 X79.844 Y123.546 E4.56698
G1 X79.659 Y123.774 E4.58656
G1 X79.452 Y123.981 E4.60614
G1 X79.224 Y124.166 E4.62572
G1 X79.006 Y124.308 E4.64312
G1 X78.717 Y124.459 E4.66488
G1 X78.444 Y124.564 E4.68446
G1 X78.160 Y124.640 E4.70404
G1 X77.871 Y124.685 E4.72362
G1 X77.578 Y124.701 E4.74321
G1 X77.285 Y124.685 E4.76279
G1 X76.996 Y124.640 E4.78237
G1 X76.744 Y124.572 E4.79976
G1 X76.439 Y124.459 E4.82153
G1 X76.178 Y124.326 E4.84111
G1 X75.932 Y124.166 E4.86069
G1 X75.704 Y123.981 E4.88027
G1 X75.497 Y123.774 E4.89985
G1 X75.313 Y123.546 E4.91944
G1 X75.153 Y123.301 E4.93902
G1 X75.020 Y123.039 E4.95860
G1 X74.915 Y122.766 E4.97818
G1 X74.839 Y122.483 E4.99777
G1 X74.793 Y122.193 E5.01735
G1 X74.778 Y121.900 E5.03693
G1 X74.793 Y121.608 E5.05651
G1 X74.839 Y121.318 E5.07610
G1 X74.915 Y121.035 E5.09568
G1 X75.020 Y120.761 E5.11526
G1 X75.153 Y120.500 E5.13484
G1 X75.313 Y120.254 E5.15442
G1 X75.497 Y120.027 E5.17401
G1 X75.673 Y119.851 E5.19058
G1 X77.717 Y118.864 F7800.000
G1 F1800.000 E4.19058
G92 E0
G1 X92.679 Y136.789 F7800.000
G1 E1.00000 F1800.000
G1 X92.913 Y136.600 E1.02009 F540.000
G1 X93.165 Y136.436 E1.04017
G1 X93.433 Y136.299 E1.06026
G1 X93.714 Y136.191 E1.08036
G1 X94.004 Y136.114 E1.10045
G1 X94.301 Y136.067 E1.12054
G1 X94.684 Y136.055 E1.14609
G1 X94.902 Y136.067 E1.16070 F540.000
G1 X95.199 Y136.114 E1.18079
G1 X95.490 Y136.191 E1.20088
G1 X95.770 Y136.299 E1.22097
G1 X96.038 Y136.436 E1.24106
G1 X96.291 Y136.600 E1.26115
G1 X96.524 Y136.789 E1.28124
G1 X96.737 Y137.001 E1.30133
G1 X96.926 Y137.235 E1.32142
G1 X97.090 Y137.487 E1.34151
G1 X97.226 Y137.755 E1.36160
G1 X97.334 Y138.036 E1.38169
G1 X97.412 Y138.327 E1.40178
G1 X97.459 Y138.624 E1.42188
G1 X97.475 Y138.924 E1.44197
G1 X97.463 Y139.142 E1.45658
G1 X97.412 Y139.521 E1.48212
G1 X97.334 Y139.812 E1.50222
G1 X97.226 Y140.093 E1.52230
G1 X97.090 Y140.361 E1.54240
G1 X96.971 Y140.544 E1.55701
G1 X96.737 Y140.846 E1.58255
G1 X96.524 Y141.059 E1.60265
G1 X96.290 Y141.248 E1.62274
G1 X96.038 Y141.412 E1.64283
G1 X95.770 Y141.549 E1.66292
G1 X95.490 Y141.656 E1.68301
G1 X95.199 Y141.734 E1.70310
G1 X94.902 Y141.781 E1.72319
G1 X94.602 Y141.797 E1.74328
G1 X94.301 Y141.781 E1.76337
G1 X94.004 Y141.734 E1.78346
G1 X93.714 Y141.656 E1.80356
G1 X93.433 Y141.549 E1.82364
G1 X93.165 Y141.412 E1.84373
G1 X92.913 Y141.248 E1.86382
G1 X92.679 Y141.059 E1.88391
G1 X92.467 Y140.846 E1.90400
G1 X92.277 Y140.613 E1.92410
G1 X92.114 Y140.361 E1.94418
G1 X91.977 Y140.093 E1.96428
G1 X91.869 Y139.812 E1.98437
G1 X91.791 Y139.521 E2.00446
G1 X91.744 Y139.224 E2.02455
G1 X91.729 Y138.924 E2.04464
G1 X91.744 Y138.624 E2.06473
G1 X91.791 Y138.327 E2.08482
G1 X91.848 Y138.115 E2.09943
G1 X91.977 Y137.755 E2.12498
G1 X92.114 Y137.487 E2.14507
G1 X92.277 Y137.235 E2.16516
G1 X92.467 Y137.001 E2.18525
G1 X92.648 Y136.821 E2.20234
G1 X93.038 Y137.187 F7800.000
G1 X93.228 Y137.033 E2.21868 F540.000
G1 X93.433 Y136.900 E2.23502
G1 X93.651 Y136.789 E2.25136
G1 X93.880 Y136.702 E2.26770
G1 X94.116 Y136.638 E2.28404
G1 X94.411 Y136.597 E2.30397
G1 X94.846 Y136.600 E2.33300 F540.000
G1 X95.088 Y136.638 E2.34935
