; generated by Slic3r 1.1.7 on 2017-05-30 at 13:24:46

; perimeters extrusion width = 0.30mm
; infill extrusion width = 0.32mm
; solid infill extrusion width = 0.32mm
; top infill extrusion width = 0.32mm

G21 ; set units to millimeters
M107
M190 S105 ; wait for bed temperature to be reached
M104 S240 ; set temperature
G28 ; home all axes
G1 Z5 F5000 ; lift nozzle

M109 S240 ; wait for temperature to be reached
G90 ; use absolute coordinates
G92 E0
M82 ; use absolute distances for extrusion
G1 F1800.000 E-1.00000
G92 E0
G1 Z0.300 F7800.000
G1 X56.091 Y54.758 F7800.000
G1 E1.00000 F1800.000
G1 X57.759 Y53.207 E1.15217 F1080.000
G1 X59.858 Y52.322 E1.30434
G1 X61.319 Y52.159 E1.40252
G1 X120.409 Y52.259 E5.35006
G1 X122.651 Y52.660 E5.50223 F1080.000
G1 X124.620 Y53.806 E5.65440
G1 X126.539 Y56.559 E5.87864
G1 X144.833 Y106.822 E9.45193
G1 X145.228 Y109.065 E9.60411
G1 X144.828 Y111.308 E9.75628
G1 X144.140 Y112.666 E9.85801
G1 X137.314 Y122.896 E10.67960
G1 X135.378 Y125.203 E10.88079
G1 X134.548 Y126.029 E10.95902
G1 X111.450 Y145.218 E12.96511
G1 X109.471 Y146.346 E13.11729
G1 X107.949 Y146.692 E13.22160
G1 X97.219 Y147.806 E13.94223
G1 X94.947 Y147.643 E14.09440
G1 X92.869 Y146.710 E14.24657
G1 X91.772 Y145.771 E14.34303
G1 X78.414 Y131.350 E15.65621
G1 X67.763 Y114.830 E16.96939
G1 X60.142 Y96.710 E18.28256
G1 X55.784 Y77.543 E19.59574
G1 X54.782 Y59.048 E20.83308
G1 X55.057 Y56.787 E20.98525
G1 X56.071 Y54.798 E21.13442
G1 F1800.000 E20.13442
G92 E0
G1 X97.422 Y139.076 F7800.000
G1 E1.00000 F1800.000
G1 X96.531 Y140.068 E1.08911 F540.000
G1 X84.549 Y127.264 E2.26065
G1 X74.514 Y111.870 E3.48822
G1 X67.305 Y94.968 E4.71580
G1 X63.140 Y77.071 E5.94337
G1 X62.192 Y59.560 E7.11491
G1 X63.525 Y59.604 E7.20402
G1 X64.461 Y76.883 E8.36002
G1 X68.573 Y94.554 E9.57206
G1 X75.691 Y111.242 E10.78411
G1 X85.599 Y126.441 E11.99615
G1 X97.391 Y139.043 E13.14915
G1 X98.149 Y139.068 F7800.000
G1 X96.540 Y140.861 E13.31009 F378.000
G1 X84.126 Y127.596 E14.52381
G1 X74.040 Y112.124 E15.75765
G1 X66.794 Y95.135 E16.99148
G1 X62.608 Y77.147 E18.22532
G1 X61.625 Y59.006 E19.43904
G1 X64.033 Y59.085 E19.59998
G1 X64.993 Y76.807 E20.78564
G1 X69.084 Y94.387 E21.99143
G1 X76.165 Y110.989 E23.19721
G1 X86.022 Y126.109 E24.40299
G1 X98.118 Y139.035 E25.58564
G1 X97.861 Y139.153 F7800.000
G1 X96.793 Y139.376 F7800.000
G1 X85.074 Y126.852 E27.37322 F360.000
G1 X75.089 Y111.524 E29.27979
G1 X67.931 Y94.727 E31.18276
G1 X63.801 Y76.977 E33.08216
G1 X62.873 Y59.851 E34.86973
G1 F1800.000 E33.86973
G92 E0
G1 X107.220 Y138.956 F7800.000
G1 E1.00000 F1800.000
G1 X94.819 Y126.555 E2.17154 F540.000
G1 X84.280 Y111.503 E3.39911
G1 X76.514 Y94.849 E4.62669
G1 X71.758 Y77.100 E5.85426
G1 X70.230 Y59.630 E7.02580
G1 X71.564 Y59.630 E7.11491
G1 X73.072 Y76.869 E8.27091
G1 X77.767 Y94.393 E9.48296
G1 X85.435 Y110.836 E10.69500
G1 X95.841 Y125.698 E11.90704
G1 X108.077 Y137.934 E13.06305
G1 X107.249 Y138.921 E13.14915
G1 X107.254 Y139.748 F7800.000
G1 X94.408 Y126.901 E14.36286 F378.000
G1 X83.814 Y111.772 E15.59670
G1 X76.009 Y95.033 E16.83054
G1 X71.229 Y77.194 E18.06437
G1 X69.645 Y59.095 E19.27809
G1 X72.054 Y59.095 E19.43904
G1 X73.601 Y76.775 E20.62470
G1 X78.273 Y94.209 E21.83048
G1 X85.901 Y110.567 E23.03626
G1 X96.253 Y125.352 E24.24204
G1 X108.803 Y137.902 E25.42771
G1 X107.283 Y139.713 E25.58564
G1 X107.168 Y139.460 F7800.000
G1 X107.458 Y138.255 F7800.000
G1 X95.331 Y126.126 E27.37322 F360.000
G1 X84.877 Y111.198 E29.27262
G1 X77.155 Y94.653 E31.17558
G1 X72.416 Y76.984 E33.08216
G1 X70.920 Y59.898 E34.86973
G1 F1800.000 E33.86973
G92 E0
G1 X78.592 Y59.716 F7800.000
G1 E1.00000 F1800.000
G1 X79.616 Y59.666 E1.06853 F540.000
G1 X81.959 Y76.811 E2.22453
G1 X87.499 Y94.088 E3.43657
G1 X95.955 Y110.139 E4.64862
G1 X106.555 Y123.816 E5.80462
G1 X105.576 Y124.722 E5.89373
G1 X94.833 Y110.862 E7.06527
G1 X86.269 Y94.604 E8.29284
G1 X80.658 Y77.106 E9.52042
G1 X78.284 Y59.731 E10.69195
G1 X78.547 Y59.718 E10.70953
G1 X77.674 Y59.224 F7800.000
G1 X80.081 Y59.108 E10.87047 F378.000
G1 X82.483 Y76.692 E12.05614
G1 X87.994 Y93.879 E13.26192
G1 X96.407 Y109.848 E14.46770
G1 X107.279 Y123.876 E15.65336
G1 X105.511 Y125.512 E15.81431
G1 X94.381 Y111.153 E17.02803
G1 X85.773 Y94.812 E18.26186
G1 X80.134 Y77.225 E19.49570
G1 X77.680 Y59.269 E20.70641
G1 X77.945 Y59.354 F7800.000
G1 X78.987 Y59.965 F7800.000
G1 X81.309 Y76.959 E22.49398 F360.000
G1 X86.885 Y94.346 E24.39699
G1 X95.394 Y110.500 E26.30000
G1 X105.901 Y124.057 E28.08757
G1 F1800.000 E27.08757
G92 E0
G1 X86.318 Y59.818 F7800.000
G1 E1.00000 F1800.000
G1 X87.649 Y59.728 E1.08911 F540.000
G1 X90.326 Y76.823 E2.24511
G1 X96.203 Y93.988 E3.45715
G1 X104.971 Y109.872 E4.66920
G1 X115.837 Y123.338 E5.82520
G1 X114.876 Y124.263 E5.91431
G1 X103.864 Y110.615 E7.08585
G1 X94.983 Y94.528 E8.31342
G1 X89.031 Y77.144 E9.54100
G1 X86.325 Y59.863 E10.70953
G1 X85.698 Y59.324 F7800.000
G1 X88.102 Y59.160 E10.87047 F378.000
G1 X90.848 Y76.694 E12.05614
G1 X96.694 Y93.770 E13.26192
G1 X105.417 Y109.572 E14.46770
G1 X116.562 Y123.384 E15.65336
G1 X114.826 Y125.054 E15.81431
G1 X103.417 Y110.915 E17.02803
G1 X94.492 Y94.746 E18.26186
G1 X88.509 Y77.273 E19.49570
G1 X85.705 Y59.368 E20.70641
G1 X85.971 Y59.448 F7800.000
G1 X87.025 Y60.039 F7800.000
G1 X89.679 Y76.983 E22.49398 F360.000
G1 X95.594 Y94.258 E24.39699
G1 X104.418 Y110.243 E26.30000
G1 X115.188 Y123.591 E28.08757
G1 F1800.000 E27.08757
G92 E0
G1 X94.264 Y59.630 F7800.000
G1 E1.00000 F1800.000
G1 X95.598 Y59.630 E1.08911 F540.000
G1 X96.726 Y72.519 E1.95341
G1 X100.291 Y85.826 E2.87374
G1 X106.113 Y98.311 E3.79408
G1 X114.015 Y109.596 E4.71442
G1 X123.163 Y118.744 E5.57871
G1 X122.306 Y119.766 E5.66782
G1 X112.993 Y110.454 E6.54765
G1 X104.958 Y98.978 E7.48352
G1 X99.038 Y86.282 E8.41939
G1 X95.412 Y72.750 E9.35526
G1 X94.268 Y59.675 E10.23209
G1 X93.680 Y59.095 F7800.000
G1 X96.089 Y59.095 E10.39303 F378.000
G1 X97.255 Y72.425 E11.28699
G1 X100.796 Y85.642 E12.20106
G1 X106.579 Y98.042 E13.11514
G1 X114.427 Y109.251 E14.02921
G1 X123.889 Y118.713 E14.92317
G1 X122.341 Y120.558 E15.08412
G1 X112.581 Y110.799 E16.00613
G1 X104.492 Y99.247 E16.94826
G1 X98.532 Y86.466 E17.89039
G1 X94.882 Y72.844 E18.83252
G1 X93.683 Y59.140 E19.75152
G1 X93.944 Y59.237 F7800.000
G1 X94.954 Y59.898 F7800.000
G1 X96.069 Y72.634 E21.08401 F360.000
G1 X99.679 Y86.085 E22.53549
G1 X105.556 Y98.673 E23.98337
G1 X113.505 Y110.024 E25.42768
G1 X122.545 Y119.065 E26.76016
G1 F1800.000 E25.76016
G92 E0
G1 X102.276 Y59.630 F7800.000
G1 E1.00000 F1800.000
G1 X103.609 Y59.630 E1.08911 F540.000
G1 X104.737 Y72.519 E1.95341
G1 X108.303 Y85.826 E2.87374
G1 X114.125 Y98.311 E3.79408
G1 X122.027 Y109.596 E4.71442
G1 X131.175 Y118.744 E5.57871
G1 X130.317 Y119.766 E5.66782
G1 X121.005 Y110.454 E6.54765
G1 X112.970 Y98.978 E7.48352
G1 X107.049 Y86.282 E8.41939
G1 X103.423 Y72.750 E9.35526
G1 X102.279 Y59.675 E10.23209
G1 X101.691 Y59.095 F7800.000
G1 X104.100 Y59.095 E10.39303 F378.000
G1 X105.266 Y72.425 E11.28699
G1 X108.808 Y85.642 E12.20106
G1 X114.590 Y98.042 E13.11514
G1 X122.438 Y109.251 E14.02921
G1 X131.901 Y118.713 E14.92317
G1 X130.352 Y120.558 E15.08412
G1 X120.593 Y110.799 E16.00613
G1 X112.504 Y99.247 E16.94826
G1 X106.544 Y86.466 E17.89039
G1 X102.894 Y72.844 E18.83252
G1 X101.695 Y59.140 E19.75152
G1 X101.955 Y59.237 F7800.000
G1 X102.568 Y59.898 F7800.000
G1 X103.001 Y60.295 E19.81270 F360.000
G1 X104.081 Y72.634 E21.10370
G1 X107.667 Y86.020 E22.54800
G1 X113.532 Y98.613 E23.99588
G1 X121.516 Y110.024 E25.44737
G1 X130.556 Y119.065 E26.77985
G1 F1800.000 E25.77985
G92 E0
G1 X110.287 Y59.630 F7800.000
G1 E1.00000 F1800.000
G1 X111.621 Y59.630 E1.08911 F540.000
G1 X112.748 Y72.519 E1.95341
G1 X116.314 Y85.826 E2.87374
G1 X122.136 Y98.311 E3.79408
G1 X129.557 Y108.909 E4.65838
G1 X128.535 Y109.766 E4.74749
G1 X120.981 Y98.978 E5.62732
G1 X115.061 Y86.282 E6.56319
G1 X111.435 Y72.750 E7.49906
G1 X110.291 Y59.675 E8.37588
G1 X109.702 Y59.095 F7800.000
G1 X112.112 Y59.095 E8.53683 F378.000
G1 X113.278 Y72.425 E9.43078
G1 X116.819 Y85.642 E10.34486
G1 X122.602 Y98.042 E11.25893
G1 X130.277 Y109.004 E12.15289
G1 X128.432 Y110.552 E12.31384
G1 X120.515 Y99.247 E13.23585
G1 X114.555 Y86.466 E14.17798
G1 X110.905 Y72.844 E15.12011
G1 X109.706 Y59.140 E16.03911
G1 X109.967 Y59.237 F7800.000
G1 X110.579 Y59.898 F7800.000
G1 X111.012 Y60.295 E16.10029 F360.000
G1 X112.092 Y72.634 E17.39129
G1 X115.688 Y86.053 E18.83920
G1 X121.559 Y98.644 E20.28712
G1 X128.892 Y109.118 E21.61960
G1 F1800.000 E20.61960
G92 E0
G1 X118.298 Y59.630 F7800.000
G1 E1.00000 F1800.000
G1 X119.632 Y59.630 E1.08911 F540.000
G1 X120.760 Y72.519 E1.95341
G1 X124.325 Y85.826 E2.87374
G1 X130.148 Y98.311 E3.79408
G1 X137.568 Y108.909 E4.65838
G1 X136.547 Y109.766 E4.74749
G1 X128.992 Y98.978 E5.62732
G1 X123.072 Y86.282 E6.56319
G1 X119.446 Y72.750 E7.49906
G1 X118.302 Y59.675 E8.37588
G1 X117.714 Y59.095 F7800.000
G1 X120.123 Y59.095 E8.53683 F378.000
G1 X121.289 Y72.425 E9.43078
G1 X124.831 Y85.642 E10.34486
G1 X130.613 Y98.042 E11.25893
G1 X138.289 Y109.004 E12.15289
G1 X136.443 Y110.552 E12.31384
G1 X128.527 Y99.247 E13.23585
G1 X122.567 Y86.466 E14.17798
G1 X118.917 Y72.844 E15.12011
G1 X117.718 Y59.140 E16.03911
G1 X117.978 Y59.237 F7800.000
G1 X118.591 Y59.898 F7800.000
G1 X119.024 Y60.295 E16.10029 F360.000
G1 X120.104 Y72.634 E17.39129
G1 X123.699 Y86.053 E18.83920
G1 X129.571 Y98.644 E20.28712
G1 X136.903 Y109.118 E21.61960
M104 S230 ; set temperature
M140 S95 ; set bed temperature
G1 F1800.000 E20.61960
G92 E0
G1 Z0.600 F7800.000
G1 X63.606 Y59.521 F7800.000
G1 E1.00000 F1800.000
G1 X64.546 Y76.871 E1.65013 F1800.000
G1 X68.654 Y94.527 E2.32844
G1 X75.767 Y111.202 E3.00674
G1 X85.666 Y126.388 E3.68504
G1 X97.538 Y139.074 E4.33518
G1 X96.533 Y140.195 E4.39152
G1 X84.481 Y127.317 E5.05147
G1 X74.438 Y111.911 E5.73959
G1 X67.223 Y94.995 E6.42772
G1 X63.055 Y77.083 E7.11584
G1 X62.101 Y59.472 E7.77580
G1 X63.561 Y59.520 E7.83045
G1 X63.891 Y59.231 F7800.000
G1 X64.844 Y76.829 E8.48989 F1800.000
G1 X68.941 Y94.434 E9.16623
G1 X76.032 Y111.060 E9.84257
G1 X85.903 Y126.202 E10.51891
G1 X97.945 Y139.070 E11.17834
G1 X96.537 Y140.639 E11.25722
G1 X84.244 Y127.503 E11.93041
G1 X74.173 Y112.053 E12.62050
G1 X66.937 Y95.089 E13.31059
G1 X62.757 Y77.126 E14.00067
G1 X61.784 Y59.161 E14.67386
G1 X63.846 Y59.229 E14.75105
G1 X64.175 Y58.940 F7800.000
G1 X65.142 Y76.786 E15.41979 F1260.000
G1 X69.227 Y94.340 E16.09417
G1 X76.298 Y110.918 E16.76854
G1 X86.140 Y126.016 E17.44292
G1 X98.352 Y139.066 E18.11166
G1 X96.542 Y141.083 E18.21307
G1 X84.007 Y127.688 E18.89949
G1 X73.907 Y112.195 E19.59154
G1 X66.651 Y95.182 E20.28360
G1 X62.459 Y77.168 E20.97565
G1 X61.467 Y58.850 E21.66207
G1 X64.130 Y58.939 E21.76180
G1 X64.032 Y59.204 F7800.000
G1 X62.353 Y59.680 F7800.000
G1 X62.315 Y59.719 E21.76391 F3600.000
G1 X62.338 Y60.137 E21.78022
G1 X62.781 Y59.694 E21.80459
G1 X63.208 Y59.709 E21.82122
G1 X62.360 Y60.556 E21.86784
G1 X62.383 Y60.975 E21.88415
G1 X63.428 Y59.930 E21.94161
G1 X63.450 Y60.349 E21.95792
G1 X62.406 Y61.394 E22.01538
G1 X62.428 Y61.813 E22.03169
G1 X63.473 Y60.768 E22.08915
G1 X63.496 Y61.187 E22.10546
G1 X62.451 Y62.232 E22.16292
G1 X62.474 Y62.651 E22.17923
G1 X63.519 Y61.606 E22.23669
G1 X63.541 Y62.025 E22.25300
G1 X62.496 Y63.070 E22.31046
G1 X62.519 Y63.488 E22.32677
G1 X63.564 Y62.444 E22.38423
G1 X63.587 Y62.863 E22.40054
G1 X62.542 Y63.907 E22.45800
G1 X62.564 Y64.326 E22.47431
G1 X63.609 Y63.281 E22.53177
G1 X63.632 Y63.700 E22.54808
G1 X62.587 Y64.745 E22.60554
G1 X62.610 Y65.164 E22.62186
G1 X63.655 Y64.119 E22.67931
G1 X63.677 Y64.538 E22.69563
G1 X62.633 Y65.583 E22.75308
G1 X62.655 Y66.002 E22.76940
G1 X63.700 Y64.957 E22.82685
G1 X63.723 Y65.376 E22.84317
G1 X62.678 Y66.421 E22.90062
G1 X62.701 Y66.839 E22.91694
G1 X63.745 Y65.795 E22.97439
G1 X63.768 Y66.214 E22.99071
G1 X62.723 Y67.258 E23.04816
G1 X62.746 Y67.677 E23.06448
G1 X63.791 Y66.632 E23.12193
G1 X63.813 Y67.051 E23.13825
G1 X62.769 Y68.096 E23.19571
G1 X62.791 Y68.515 E23.21202
G1 X63.836 Y67.470 E23.26948
G1 X63.859 Y67.889 E23.28579
G1 X62.814 Y68.934 E23.34325
G1 X62.837 Y69.353 E23.35956
G1 X63.882 Y68.308 E23.41702
G1 X63.904 Y68.727 E23.43333
G1 X62.859 Y69.772 E23.49079
G1 X62.882 Y70.190 E23.50710
G1 X63.927 Y69.146 E23.56456
G1 X63.950 Y69.565 E23.58087
G1 X62.905 Y70.609 E23.63833
G1 X62.927 Y71.028 E23.65464
G1 X63.972 Y69.983 E23.71210
G1 X63.995 Y70.402 E23.72841
G1 X62.950 Y71.447 E23.78587
G1 X62.973 Y71.866 E23.80218
G1 X64.018 Y70.821 E23.85964
G1 X64.040 Y71.240 E23.87595
G1 X62.996 Y72.285 E23.93341
G1 X63.018 Y72.704 E23.94972
G1 X64.063 Y71.659 E24.00718
G1 X64.086 Y72.078 E24.02349
G1 X63.041 Y73.123 E24.08095
G1 X63.064 Y73.542 E24.09726
G1 X64.108 Y72.497 E24.15472
G1 X64.131 Y72.916 E24.17103
G1 X63.086 Y73.960 E24.22849
G1 X63.109 Y74.379 E24.24480
G1 X64.154 Y73.334 E24.30226
G1 X64.176 Y73.753 E24.31857
G1 X63.132 Y74.798 E24.37603
G1 X63.154 Y75.217 E24.39234
G1 X64.199 Y74.172 E24.44980
G1 X64.222 Y74.591 E24.46611
G1 X63.177 Y75.636 E24.52357
G1 X63.200 Y76.055 E24.53989
G1 X64.244 Y75.010 E24.59734
G1 X64.267 Y75.429 E24.61366
G1 X63.222 Y76.474 E24.67111
G1 X63.245 Y76.893 E24.68743
G1 X64.290 Y75.848 E24.74488
G1 X64.313 Y76.267 E24.76120
G1 X63.305 Y77.274 E24.81661
G1 X63.388 Y77.632 E24.83091
G1 X64.335 Y76.686 E24.88299
G1 X64.388 Y77.075 E24.89826
G1 X63.472 Y77.991 E24.94864
G1 X63.555 Y78.349 E24.96294
G1 X64.471 Y77.433 E25.01331
G1 X64.554 Y77.791 E25.02761
G1 X63.638 Y78.707 E25.07799
G1 X63.722 Y79.065 E25.09229
G1 X64.638 Y78.149 E25.14266
G1 X64.721 Y78.508 E25.15697
G1 X63.805 Y79.424 E25.20734
G1 X63.888 Y79.782 E25.22164
G1 X64.804 Y78.866 E25.27202
G1 X64.888 Y79.224 E25.28632
G1 X63.972 Y80.140 E25.33669
G1 X64.055 Y80.498 E25.35099
G1 X64.971 Y79.582 E25.40137
G1 X65.054 Y79.940 E25.41567
G1 X64.138 Y80.856 E25.46605
G1 X64.222 Y81.215 E25.48035
G1 X65.138 Y80.299 E25.53072
G1 X65.221 Y80.657 E25.54502
G1 X64.305 Y81.573 E25.59540
G1 X64.389 Y81.931 E25.60970
G1 X65.305 Y81.015 E25.66007
G1 X65.388 Y81.373 E25.67438
G1 X64.472 Y82.289 E25.72475
G1 X64.555 Y82.647 E25.73905
G1 X65.471 Y81.731 E25.78943
G1 X65.555 Y82.090 E25.80373
G1 X64.639 Y83.006 E25.85410
G1 X64.722 Y83.364 E25.86840
G1 X65.638 Y82.448 E25.91878
G1 X65.721 Y82.806 E25.93308
G1 X64.805 Y83.722 E25.98345
G1 X64.889 Y84.080 E25.99776
G1 X65.805 Y83.164 E26.04813
G1 X65.888 Y83.522 E26.06243
G1 X64.972 Y84.438 E26.11281
G1 X65.055 Y84.797 E26.12711
G1 X65.971 Y83.881 E26.17748
G1 X66.055 Y84.239 E26.19178
G1 X65.139 Y85.155 E26.24216
G1 X65.222 Y85.513 E26.25646
G1 X66.138 Y84.597 E26.30684
G1 X66.221 Y84.955 E26.32114
G1 X65.305 Y85.871 E26.37151
G1 X65.389 Y86.229 E26.38581
G1 X66.305 Y85.313 E26.43619
G1 X66.388 Y85.672 E26.45049
G1 X65.472 Y86.588 E26.50086
G1 X65.556 Y86.946 E26.51517
G1 X66.472 Y86.030 E26.56554
G1 X66.555 Y86.388 E26.57984
G1 X65.639 Y87.304 E26.63022
G1 X65.722 Y87.662 E26.64452
G1 X66.638 Y86.746 E26.69489
G1 X66.722 Y87.104 E26.70919
G1 X65.806 Y88.020 E26.75957
G1 X65.889 Y88.379 E26.77387
G1 X66.805 Y87.463 E26.82424
G1 X66.888 Y87.821 E26.83855
G1 X65.972 Y88.737 E26.88892
G1 X66.056 Y89.095 E26.90322
G1 X66.972 Y88.179 E26.95360
G1 X67.055 Y88.537 E26.96790
G1 X66.139 Y89.453 E27.01827
G1 X66.222 Y89.812 E27.03257
G1 X67.138 Y88.896 E27.08295
G1 X67.222 Y89.254 E27.09725
G1 X66.306 Y90.170 E27.14763
G1 X66.389 Y90.528 E27.16193
G1 X67.305 Y89.612 E27.21230
G1 X67.388 Y89.970 E27.22660
G1 X66.472 Y90.886 E27.27698
