; generated by Slic3r 1.1.7 on 2017-05-30 at 13:25:58

; perimeters extrusion width = 0.30mm
; infill extrusion width = 0.32mm
; solid infill extrusion width = 0.32mm
; top infill extrusion width = 0.32mm

G21 ; set units to millimeters
M107
M190 S105 ; wait for bed temperature to be reached
M104 S240 ; set temperature
G28 ; home all axes
G1 Z5 F5000 ; lift nozzle

M109 S240 ; wait for temperature to be reached
G90 ; use absolute coordinates
G92 E0
M82 ; use absolute distances for extrusion
G1 F1800.000 E-1.00000
G92 E0
G1 Z0.300 F7800.000
G1 X58.840 Y52.632 F7800.000
G1 E1.00000 F1800.000
G1 X60.589 Y51.173 E1.15217 F1080.000
G1 X63.836 Y50.309 E1.37660
G1 X113.745 Y50.309 E4.71082
G1 X115.988 Y50.706 E4.86299
G1 X117.959 Y51.849 E5.01516 F1080.000
G1 X119.669 Y54.083 E5.20310
G1 X142.087 Y102.160 E8.74694
G1 X142.676 Y104.361 E8.89911
G1 X142.473 Y106.629 E9.05128
G1 X141.171 Y109.123 E9.23922
G1 X109.090 Y147.356 E12.57344
G1 X107.344 Y148.819 E12.72561
G1 X105.202 Y149.594 E12.87778
G1 X102.924 Y149.587 E13.02995
G1 X99.882 Y148.162 E13.25438
G1 X91.525 Y141.020 E13.98875
G1 X88.718 Y137.675 E14.28045
G1 X78.199 Y124.984 E15.38163
G1 X70.525 Y111.692 E16.40697
G1 X67.861 Y106.878 E16.77455
G1 X60.823 Y87.252 E18.16743
G1 X60.112 Y83.221 E18.44090
G1 X57.300 Y66.702 E19.56031
G1 X57.300 Y56.845 E20.21883
G1 X57.697 Y54.602 E20.37100
G1 X58.817 Y52.670 E20.52017
G1 F1800.000 E19.52017
G92 E0
G1 X134.232 Y105.091 F7800.000
G1 E1.00000 F1800.000
G1 X103.914 Y141.223 E4.15100 F540.000
G1 X97.505 Y135.845 E4.70990
G1 X84.987 Y120.927 E6.01092
G1 X75.250 Y104.061 E7.31193
G1 X68.589 Y85.761 E8.61295
G1 X65.207 Y66.582 E9.91396
G1 X65.207 Y58.216 E10.47286
G1 X112.374 Y58.216 E13.62387
G1 X112.374 Y62.456 E13.90709
G1 X114.323 Y73.507 E14.65675
G1 X118.161 Y84.052 E15.40641
G1 X123.771 Y93.770 E16.15607
G1 X130.985 Y102.366 E16.90573
G1 X134.198 Y105.062 E17.18595
G1 X134.987 Y105.025 F7800.000
G1 X103.980 Y141.978 E20.40852 F540.000
G1 X97.125 Y136.226 E21.00633
G1 X84.547 Y121.235 E22.31361
G1 X74.762 Y104.289 E23.62089
G1 X68.070 Y85.900 E24.92816
G1 X64.672 Y66.629 E26.23544
G1 X64.672 Y57.681 E26.83325
G1 X112.910 Y57.681 E30.05582
G1 X112.910 Y62.409 E30.37170
G1 X114.842 Y73.368 E31.11510
G1 X118.648 Y83.824 E31.85850
G1 X124.212 Y93.461 E32.60189
G1 X131.365 Y101.986 E33.34529
G1 X134.952 Y104.996 E33.65816
G1 X135.741 Y104.959 F7800.000
G1 X104.046 Y142.732 E36.95230 F378.000
G1 X96.745 Y136.606 E37.58902
G1 X84.106 Y121.544 E38.90256
G1 X74.275 Y104.516 E40.21610
G1 X67.550 Y86.040 E41.52963
G1 X64.136 Y66.676 E42.84317
G1 X64.136 Y57.145 E43.47990
G1 X113.445 Y57.145 E46.77403
G1 X113.445 Y62.362 E47.12256
G1 X115.361 Y73.229 E47.85970
G1 X119.135 Y83.597 E48.59684
G1 X124.652 Y93.153 E49.33397
G1 X131.745 Y101.606 E50.07111
G1 X135.707 Y104.930 E50.41663
G1 X135.459 Y105.062 F7800.000
G1 X132.898 Y106.108 F7800.000
G1 X85.374 Y58.585 E54.90653 F1080.000
G1 X84.615 Y58.585 E54.95729
G1 X132.551 Y106.521 E59.48621
G1 X132.205 Y106.934 E59.52224
G1 X83.855 Y58.585 E64.09019
G1 X83.095 Y58.585 E64.14095
G1 X131.858 Y107.348 E68.74793
G1 X131.511 Y107.761 E68.78396
G1 X82.335 Y58.585 E73.42997
G1 X81.576 Y58.585 E73.48073
G1 X131.165 Y108.174 E78.16577
G1 X130.818 Y108.587 E78.20180
G1 X80.816 Y58.585 E82.92587
G1 X80.056 Y58.585 E82.97663
G1 X130.472 Y109.000 E87.73973
G1 X130.125 Y109.413 E87.77576
G1 X79.296 Y58.585 E92.57789
G1 X78.537 Y58.585 E92.62865
G1 X129.778 Y109.826 E97.46981
G1 X129.432 Y110.239 E97.50583
G1 X77.777 Y58.585 E102.38603
G1 X77.017 Y58.585 E102.43678
G1 X129.085 Y110.652 E107.35600
G1 X128.738 Y111.066 E107.39203
G1 X76.257 Y58.585 E112.35028
G1 X75.498 Y58.585 E112.40103
G1 X128.392 Y111.479 E117.39831
G1 X128.045 Y111.892 E117.43434
G1 X74.738 Y58.585 E122.47065
G1 X73.978 Y58.585 E122.52141
G1 X127.698 Y112.305 E127.59675
G1 X127.352 Y112.718 E127.63277
G1 X73.218 Y58.585 E132.74714
G1 X72.459 Y58.585 E132.79790
G1 X127.005 Y113.131 E137.95130
G1 X126.659 Y113.544 E137.98732
G1 X71.699 Y58.585 E143.17975
G1 X70.939 Y58.585 E143.23051
G1 X126.312 Y113.957 E148.46196
G1 X125.965 Y114.370 E148.49799
G1 X70.179 Y58.585 E153.76848
G1 X69.420 Y58.585 E153.81923
G1 X125.619 Y114.784 E159.12875
G1 X125.272 Y115.197 E159.16478
G1 X68.660 Y58.585 E164.51332
G1 X67.900 Y58.585 E164.56408
G1 X124.925 Y115.610 E169.95165
G1 X124.579 Y116.023 E169.98768
G1 X67.140 Y58.585 E175.41428
G1 X66.381 Y58.585 E175.46504
G1 X124.232 Y116.436 E180.93068
G1 X123.885 Y116.849 E180.96670
G1 X65.621 Y58.585 E186.47137
G1 X65.575 Y59.299 E186.51919
G1 X123.539 Y117.262 E191.99539
G1 X123.192 Y117.675 E192.03141
G1 X65.575 Y60.059 E197.47486
G1 X65.575 Y60.818 E197.52562
G1 X122.845 Y118.088 E202.93632
G1 X122.499 Y118.502 E202.97235
G1 X65.575 Y61.578 E208.35030
G1 X65.575 Y62.338 E208.40105
G1 X122.152 Y118.915 E213.74625
G1 X121.806 Y119.328 E213.78228
G1 X65.575 Y63.098 E219.09473
G1 X65.575 Y63.857 E219.14549
G1 X121.459 Y119.741 E224.42519
G1 X121.112 Y120.154 E224.46121
G1 X65.575 Y64.617 E229.70817
G1 X65.575 Y65.377 E229.75892
G1 X120.766 Y120.567 E234.97312
G1 X120.419 Y120.980 E235.00915
G1 X65.575 Y66.137 E240.19060
G1 X65.650 Y66.971 E240.24653
G1 X120.072 Y121.393 E245.38823
G1 X119.726 Y121.806 E245.42425
G1 X65.812 Y67.893 E250.51784
G1 X65.975 Y68.815 E250.58041
G1 X119.379 Y122.220 E255.62587
G1 X119.032 Y122.633 E255.66190
G1 X66.138 Y69.738 E260.65925
G1 X66.300 Y70.660 E260.72182
G1 X118.686 Y123.046 E265.67106
G1 X118.339 Y123.459 E265.70708
G1 X66.463 Y71.583 E270.60820
G1 X66.625 Y72.505 E270.67077
G1 X117.992 Y123.872 E275.52378
G1 X117.646 Y124.285 E275.55980
G1 X66.788 Y73.427 E280.36469
G1 X66.951 Y74.350 E280.42726
G1 X117.299 Y124.698 E285.18403
G1 X116.953 Y125.111 E285.22006
G1 X67.113 Y75.272 E289.92872
G1 X67.276 Y76.195 E289.99129
G1 X116.606 Y125.524 E294.65183
G1 X116.259 Y125.938 E294.68786
G1 X67.439 Y77.117 E299.30028
G1 X67.601 Y78.039 E299.36285
G1 X115.913 Y126.351 E303.92716
G1 X115.566 Y126.764 E303.96319
G1 X67.764 Y78.962 E308.47938
G1 X67.927 Y79.884 E308.54195
G1 X115.219 Y127.177 E313.01003
G1 X114.873 Y127.590 E313.04606
G1 X68.089 Y80.807 E317.46602
G1 X68.252 Y81.729 E317.52859
G1 X114.526 Y128.003 E321.90043
G1 X114.179 Y128.416 E321.93646
G1 X68.415 Y82.651 E326.26019
G1 X68.577 Y83.574 E326.32276
G1 X113.833 Y128.829 E330.59838
G1 X113.486 Y129.242 E330.63440
G1 X68.740 Y84.496 E334.86190
G1 X68.903 Y85.419 E334.92447
G1 X113.139 Y129.656 E339.10385
G1 X112.793 Y130.069 E339.13988
G1 X69.264 Y86.540 E343.25232
G1 X69.699 Y87.735 F7800.000
G1 X112.446 Y130.482 E347.29094 F1080.000
G1 X112.100 Y130.895 E347.32696
G1 X70.134 Y88.929 E351.29175
G1 X70.569 Y90.124 F7800.000
G1 X111.753 Y131.308 E355.18272 F1080.000
G1 X111.406 Y131.721 E355.21874
G1 X71.003 Y91.318 E359.03588
G1 X71.438 Y92.513 F7800.000
G1 X111.060 Y132.134 E362.77919 F1080.000
G1 X110.713 Y132.547 E362.81522
G1 X71.873 Y93.707 E366.48471
G1 X72.308 Y94.902 F7800.000
G1 X110.366 Y132.960 E370.08037 F1080.000
G1 X110.020 Y133.374 E370.11639
G1 X72.743 Y96.096 E373.63823
G1 X73.177 Y97.291 F7800.000
G1 X109.673 Y133.787 E377.08624 F1080.000
G1 X109.326 Y134.200 E377.12227
G1 X73.612 Y98.485 E380.49645
G1 X74.047 Y99.680 F7800.000
G1 X108.980 Y134.613 E383.79681 F1080.000
G1 X108.633 Y135.026 E383.83284
G1 X74.482 Y100.875 E387.05937
G1 X74.916 Y102.069 F7800.000
G1 X108.287 Y135.439 E390.21208 F1080.000
G1 X107.940 Y135.852 E390.24810
G1 X75.351 Y103.264 E393.32698
G1 X76.065 Y104.737 F7800.000
G1 X107.593 Y136.265 E396.30567 F1080.000
G1 X107.247 Y136.678 E396.34170
G1 X77.103 Y106.535 E399.18958
G1 X78.141 Y108.332 F7800.000
G1 X106.900 Y137.092 E401.90666 F1080.000
G1 X106.553 Y137.505 E401.94268
G1 X79.179 Y110.130 E404.52896
G1 X80.216 Y111.928 F7800.000
G1 X106.207 Y137.918 E406.98444 F1080.000
G1 X105.860 Y138.331 E407.02046
G1 X81.254 Y113.725 E409.34514
G1 X82.292 Y115.523 F7800.000
G1 X105.513 Y138.744 E411.53901 F1080.000
G1 X105.167 Y139.157 E411.57504
G1 X83.330 Y117.320 E413.63811
G1 X84.368 Y119.118 F7800.000
G1 X104.820 Y139.570 E415.57037 F1080.000
G1 X104.473 Y139.983 E415.60640
G1 X85.732 Y121.242 E417.37703
G1 X89.694 Y125.964 F7800.000
G1 X104.127 Y140.396 E418.74058 F1080.000
G1 X102.665 Y139.694 F7800.000
G1 X93.656 Y130.686 E419.59168 F1080.000
G1 X97.618 Y135.408 F7800.000
G1 X97.943 Y135.732 E419.62233 F1080.000
G1 X132.052 Y103.742 F7800.000
G1 X133.591 Y105.282 E419.76781 F1080.000
G1 X133.245 Y105.695 E419.80384
G1 X86.134 Y58.585 E424.25470
G1 X86.894 Y58.585 E424.30546
G1 X129.608 Y101.299 E428.34100
G1 X125.646 Y96.577 F7800.000
G1 X87.654 Y58.585 E431.93043 F1080.000
G1 X88.413 Y58.585 E431.98119
G1 X123.001 Y93.172 E435.24894
G1 X121.963 Y91.375 F7800.000
G1 X89.173 Y58.585 E438.34686 F1080.000
G1 X89.933 Y58.585 E438.39762
G1 X120.926 Y89.577 E441.32571
G1 X119.888 Y87.780 F7800.000
G1 X90.693 Y58.585 E444.08397 F1080.000
G1 X91.452 Y58.585 E444.13472
G1 X118.850 Y85.982 E446.72315
G1 X117.820 Y84.192 F7800.000
G1 X92.212 Y58.585 E449.14249 F1080.000
G1 X92.972 Y58.585 E449.19325
G1 X117.385 Y82.998 E451.49973
G1 X116.950 Y81.803 F7800.000
G1 X93.732 Y58.585 E453.69337 F1080.000
G1 X94.491 Y58.585 E453.74412
G1 X116.516 Y80.609 E455.82490
G1 X116.081 Y79.414 F7800.000
G1 X95.251 Y58.585 E457.79282 F1080.000
G1 X96.011 Y58.585 E457.84358
G1 X115.646 Y78.220 E459.69864
G1 X115.211 Y77.025 F7800.000
G1 X96.771 Y58.585 E461.44085 F1080.000
G1 X97.530 Y58.585 E461.49161
G1 X114.776 Y75.831 E463.12096
G1 X114.342 Y74.636 F7800.000
G1 X98.290 Y58.585 E464.63747 F1080.000
G1 X99.050 Y58.585 E464.68822
G1 X113.944 Y73.478 E466.09533
G1 X113.781 Y72.556 E466.15790
G1 X99.810 Y58.585 E467.47787
G1 X100.569 Y58.585 E467.52862
G1 X113.618 Y71.633 E468.76144
G1 X113.456 Y70.711 E468.82402
G1 X101.329 Y58.585 E469.96969
G1 X102.089 Y58.585 E470.02045
G1 X113.293 Y69.789 E471.07898
G1 X113.130 Y68.866 E471.14155
G1 X102.849 Y58.585 E472.11293
G1 X103.608 Y58.585 E472.16369
G1 X112.968 Y67.944 E473.04793
G1 X112.805 Y67.021 E473.11050
G1 X104.368 Y58.585 E473.90759
G1 X105.128 Y58.585 E473.95835
G1 X112.642 Y66.099 E474.66830
G1 X112.480 Y65.177 E474.73087
G1 X105.888 Y58.585 E475.35367
G1 X106.647 Y58.585 E475.40443
G1 X112.317 Y64.254 E475.94008
G1 X112.155 Y63.332 E476.00266
G1 X107.407 Y58.585 E476.45117
G1 X108.167 Y58.585 E476.50192
G1 X112.006 Y62.423 E476.86460
G1 X112.006 Y61.664 E476.91535
G1 X108.927 Y58.585 E477.20625
G1 X109.687 Y58.585 E477.25701
G1 X112.006 Y60.904 E477.47612
G1 X112.006 Y60.144 E477.52688
G1 X110.446 Y58.585 E477.67422
G1 X111.206 Y58.585 E477.72497
G1 X112.006 Y59.384 E477.80053
G1 X112.006 Y58.625 E477.85129
G1 X111.966 Y58.585 E477.85507
M104 S230 ; set temperature
M140 S95 ; set bed temperature
G1 F1800.000 E476.85507
G92 E0
G1 Z0.600 F7800.000
G1 X135.107 Y105.015 F7800.000
G1 E1.00000 F1800.000
G1 X103.990 Y142.098 E2.81136 F1800.000
G1 X97.064 Y136.286 E3.14968
G1 X84.476 Y121.285 E3.88245
G1 X74.684 Y104.325 E4.61521
G1 X67.987 Y85.923 E5.34798
G1 X64.586 Y66.637 E6.08074
G1 X64.586 Y57.595 E6.41906
G1 X112.995 Y57.595 E8.23043
G1 X112.995 Y62.401 E8.41027
G1 X114.925 Y73.345 E8.82609
G1 X118.726 Y83.788 E9.24191
G1 X124.282 Y93.412 E9.65772
G1 X131.425 Y101.925 E10.07354
G1 X135.073 Y104.986 E10.25170
G1 X135.530 Y104.978 F7800.000
G1 X104.027 Y142.521 E12.08552 F1800.000
G1 X96.851 Y136.499 E12.43604
G1 X84.229 Y121.457 E13.17077
G1 X74.412 Y104.452 E13.90550
G1 X67.696 Y86.001 E14.64023
G1 X64.286 Y66.663 E15.37496
G1 X64.286 Y57.295 E15.72548
G1 X113.295 Y57.295 E17.55930
G1 X113.295 Y62.375 E17.74939
G1 X115.216 Y73.268 E18.16324
G1 X118.999 Y83.661 E18.57709
G1 X124.529 Y93.239 E18.99095
G1 X131.638 Y101.712 E19.40480
G1 X135.496 Y104.949 E19.59320
G1 X135.953 Y104.941 F7800.000
G1 X104.064 Y142.944 E21.44947 F1260.000
G1 X96.638 Y136.712 E21.81220
G1 X83.983 Y121.630 E22.54890
G1 X74.139 Y104.580 E23.28559
G1 X67.405 Y86.078 E24.02228
G1 X63.986 Y66.689 E24.75898
G1 X63.986 Y56.995 E25.12171
G1 X113.595 Y56.995 E26.97798
G1 X113.595 Y62.349 E27.17831
G1 X115.507 Y73.190 E27.59020
G1 X119.272 Y83.534 E28.00209
G1 X124.776 Y93.067 E28.41397
G1 X131.851 Y101.499 E28.82586
G1 X135.918 Y104.912 E29.02451
G1 X135.671 Y105.043 F7800.000
G1 X134.667 Y104.906 F7800.000
G1 X100.590 Y138.983 E30.89857 F3600.000
G1 X100.350 Y138.782 E30.91076
G1 X134.427 Y104.705 E32.78482
G1 X134.187 Y104.503 E32.79700
G1 X100.110 Y138.581 E34.67106
G1 X99.870 Y138.379 E34.68325
G1 X133.947 Y104.302 E36.55731
G1 X133.707 Y104.101 E36.56949
G1 X99.630 Y138.178 E38.44355
G1 X99.390 Y137.977 E38.45573
G1 X133.467 Y103.899 E40.32980
G1 X133.227 Y103.698 E40.34198
G1 X99.150 Y137.775 E42.21604
G1 X98.910 Y137.574 E42.22822
G1 X132.987 Y103.497 E44.10229
G1 X132.747 Y103.295 E44.11447
G1 X98.670 Y137.373 E45.98853
G1 X98.430 Y137.171 E46.00071
G1 X132.507 Y103.094 E47.87478
G1 X132.267 Y102.893 E47.88696
G1 X98.190 Y136.970 E49.76102
G1 X97.950 Y136.768 E49.77320
G1 X132.027 Y102.691 E51.64727
G1 X131.787 Y102.490 E51.65945
G1 X97.710 Y136.567 E53.53351
G1 X97.470 Y136.366 E53.54569
G1 X131.547 Y102.289 E55.41976
G1 X131.307 Y102.087 E55.43194
G1 X97.242 Y136.152 E57.30532
G1 X97.025 Y135.928 E57.31746
G1 X131.102 Y101.851 E59.19152
G1 X130.901 Y101.611 E59.20371
G1 X96.823 Y135.688 E61.07777
G1 X96.622 Y135.448 E61.08995
G1 X130.699 Y101.371 E62.96401
G1 X130.498 Y101.131 E62.97619
G1 X96.421 Y135.208 E64.85026
G1 X96.219 Y134.968 E64.86244
G1 X130.297 Y100.891 E66.73650
G1 X130.095 Y100.651 E66.74868
G1 X96.018 Y134.728 E68.62275
G1 X95.817 Y134.488 E68.63493
G1 X129.894 Y100.411 E70.50899
G1 X129.693 Y100.171 E70.52117
G1 X95.615 Y134.248 E72.39524
G1 X95.414 Y134.008 E72.40742
G1 X129.491 Y99.931 E74.28148
G1 X129.290 Y99.691 E74.29366
G1 X95.213 Y133.769 E76.16773
G1 X95.011 Y133.529 E76.17991
G1 X129.088 Y99.451 E78.05397
G1 X128.887 Y99.211 E78.06615
G1 X94.810 Y133.289 E79.94022
G1 X94.609 Y133.049 E79.95240
G1 X128.686 Y98.971 E81.82646
G1 X128.484 Y98.731 E81.83864
G1 X94.407 Y132.809 E83.71271
G1 X94.206 Y132.569 E83.72489
G1 X128.283 Y98.491 E85.59895
G1 X128.082 Y98.251 E85.61113
G1 X94.004 Y132.329 E87.48520
G1 X93.803 Y132.089 E87.49738
G1 X127.880 Y98.012 E89.37144
G1 X127.679 Y97.772 E89.38362
G1 X93.602 Y131.849 E91.25769
G1 X93.400 Y131.609 E91.26987
G1 X127.478 Y97.532 E93.14393
G1 X127.276 Y97.292 E93.15611
G1 X93.199 Y131.369 E95.03018
G1 X92.998 Y131.129 E95.04236
G1 X127.075 Y97.052 E96.91642
G1 X126.874 Y96.812 E96.92860
G1 X92.796 Y130.889 E98.80267
G1 X92.595 Y130.649 E98.81485
G1 X126.672 Y96.572 E100.68891
G1 X126.471 Y96.332 E100.70109
G1 X92.394 Y130.409 E102.57516
G1 X92.192 Y130.169 E102.58734
G1 X126.269 Y96.092 E104.46140
G1 X126.068 Y95.852 E104.47358
G1 X91.991 Y129.929 E106.34765
G1 X91.790 Y129.689 E106.35983
G1 X125.867 Y95.612 E108.23389
G1 X125.665 Y95.372 E108.24607
G1 X91.588 Y129.449 E110.12014
G1 X91.387 Y129.209 E110.13232
G1 X125.464 Y95.132 E112.00638
G1 X125.263 Y94.892 E112.01856
G1 X91.185 Y128.969 E113.89263
G1 X90.984 Y128.729 E113.90481
G1 X125.061 Y94.652 E115.77887
G1 X124.860 Y94.412 E115.79105
G1 X90.783 Y128.489 E117.66512
G1 X90.581 Y128.249 E117.67730
G1 X124.659 Y94.172 E119.55136
G1 X124.457 Y93.932 E119.56354
G1 X90.380 Y128.009 E121.43761
G1 X90.179 Y127.769 E121.44979
G1 X124.256 Y93.692 E123.32385
G1 X124.067 Y93.440 E123.33611
G1 X89.977 Y127.529 E125.21086
G1 X89.776 Y127.289 E125.22305
G1 X123.905 Y93.160 E127.09999
G1 X123.744 Y92.880 E127.11255
G1 X89.575 Y127.049 E128.99168
G1 X89.373 Y126.809 E129.00386
G1 X123.582 Y92.600 E130.88518
G1 X123.421 Y92.320 E130.89775
