; generated by Slic3r 1.2.9 on 2017-07-19 at 08:03:04

; external perimeters extrusion width = 0.30mm
; perimeters extrusion width = 0.32mm
; infill extrusion width = 0.32mm
; solid infill extrusion width = 0.32mm
; top infill extrusion width = 0.32mm
; support material extrusion width = 0.30mm

M107
M190 S105 ; set bed temperature
M104 S240 ; set temperature
G28 ; home all axes
G1 Z5 F5000 ; lift nozzle

M109 S240 ; wait for temperature to be reached
G21 ; set units to millimeters
G90 ; use absolute coordinates
M82 ; use absolute distances for extrusion
G92 E0
G1 E-1.00000 F1800.00000
G92 E0
G1 Z0.270 F7800.000
G1 X76.782 Y65.078 F7800.000
G1 E1.00000 F1800.00000
G1 X94.282 Y50.078 E2.30959 F1080.000
G1 X96.236 Y48.926 E2.43848
G1 X98.500 Y48.518 E2.56921
G1 X101.500 Y48.518 E2.73967
G1 X103.733 Y48.915 E2.86855
G1 X105.718 Y50.078 E2.99929 F1080.000
G1 X123.218 Y65.078 E4.30888
G1 X124.656 Y66.833 E4.43776
G1 X125.482 Y70.000 E4.62371
G1 X125.482 Y130.000 E8.03279
G1 X125.085 Y132.233 E8.16168
G1 X123.218 Y134.922 E8.34763
G1 X105.718 Y149.922 E9.65722
G1 X103.764 Y151.074 E9.78610
G1 X101.500 Y151.482 E9.91684
G1 X98.500 Y151.482 E10.08729
G1 X96.267 Y151.085 E10.21618
G1 X94.282 Y149.922 E10.34692
G1 X76.782 Y134.922 E11.65651
G1 X75.344 Y133.167 E11.78539
G1 X74.518 Y130.000 E11.97134
G1 X74.518 Y70.000 E15.38042
G1 X74.915 Y67.767 E15.50931
G1 X76.756 Y65.115 E15.69270
G1 E14.69270 F1800.00000
G92 E0
G1 X90.097 Y74.387 F7800.000
G1 E1.00000 F1800.00000
G1 X90.602 Y74.661 E1.03259 F1080.000
G1 X92.044 Y73.738 E1.12991
G1 X93.168 Y73.165 E1.20158
G1 X93.954 Y72.851 E1.24967
G1 X94.048 Y72.787 E1.25614
G1 X94.196 Y72.607 E1.26935
G1 X94.295 Y72.430 E1.28087
G1 X94.356 Y72.259 E1.29121
G1 X94.393 Y72.060 E1.30273
G1 X94.403 Y71.854 E1.31442
G1 X94.403 Y53.303 E2.36847
G1 X96.803 Y50.903 E2.56133
G1 X103.197 Y50.903 E2.92465
G1 X105.597 Y53.303 E3.11752
G1 X105.598 Y71.865 E4.17217
G1 X105.621 Y72.160 E4.18901
G1 X105.705 Y72.430 E4.20509
G1 X105.865 Y72.689 E4.22234
G1 X105.952 Y72.787 E4.22980
G1 X106.046 Y72.851 E4.23627
G1 X106.832 Y73.165 E4.28436
G1 X107.956 Y73.738 E4.35603
G1 X109.398 Y74.661 E4.45335
G1 X109.903 Y74.387 E4.48594
G1 X109.903 Y68.303 E4.83165
G1 X112.303 Y65.903 E5.02452
G1 X120.697 Y65.903 E5.50147
G1 X123.097 Y68.303 E5.69434
G1 X123.097 Y131.697 E9.29629
G1 X120.697 Y134.097 E9.48916
G1 X112.303 Y134.097 E9.96611
G1 X109.903 Y131.697 E10.15898
G1 X109.903 Y125.613 E10.50469
G1 X109.398 Y125.339 E10.53728
G1 X107.956 Y126.262 E10.63460
G1 X106.832 Y126.835 E10.70627
G1 X106.046 Y127.149 E10.75436
G1 X105.952 Y127.213 E10.76083
G1 X105.804 Y127.393 E10.77404
G1 X105.675 Y127.644 E10.79012
G1 X105.617 Y127.860 E10.80282
G1 X105.597 Y128.146 E10.81908
G1 X105.597 Y146.697 E11.87313
G1 X103.197 Y149.097 E12.06599
G1 X96.803 Y149.097 E12.42932
G1 X94.403 Y146.697 E12.62218
G1 X94.402 Y128.135 E13.67682
G1 X94.379 Y127.840 E13.69367
G1 X94.295 Y127.570 E13.70975
G1 X94.135 Y127.311 E13.72700
G1 X94.048 Y127.213 E13.73446
G1 X93.954 Y127.149 E13.74093
G1 X93.168 Y126.835 E13.78902
G1 X92.044 Y126.262 E13.86068
G1 X90.602 Y125.339 E13.95801
G1 X90.097 Y125.613 E13.99060
G1 X90.097 Y131.697 E14.33631
G1 X87.697 Y134.097 E14.52918
G1 X79.303 Y134.097 E15.00613
G1 X76.903 Y131.697 E15.19900
G1 X76.903 Y68.303 E18.80095
G1 X79.303 Y65.903 E18.99382
G1 X87.697 Y65.903 E19.47077
G1 X90.097 Y68.303 E19.66364
G1 X90.097 Y74.342 E20.00680
G1 X89.615 Y75.391 F7800.000
G1 X90.164 Y75.653 E20.04136 F1080.000
G1 X91.074 Y74.929 E20.10738
G1 X92.110 Y74.256 E20.17761
G1 X93.376 Y73.600 E20.25858
G1 X94.208 Y73.270 E20.30946
G1 X94.287 Y73.221 E20.31473
G1 X94.494 Y73.012 E20.33144
G1 X94.593 Y72.882 E20.34075
G1 X94.733 Y72.632 E20.35700
G1 X94.823 Y72.383 E20.37207
G1 X94.874 Y72.101 E20.38832
G1 X94.885 Y71.865 E20.40179
G1 X94.885 Y53.502 E21.44508
G1 X97.002 Y51.385 E21.61526
G1 X102.998 Y51.385 E21.95589
G1 X105.115 Y53.502 E22.12607
G1 X105.116 Y71.875 E23.16996
G1 X105.146 Y72.243 E23.19094
G1 X105.267 Y72.632 E23.21410
G1 X105.342 Y72.778 E23.22342
G1 X105.493 Y72.996 E23.23849
G1 X105.713 Y73.221 E23.25637
G1 X105.792 Y73.270 E23.26164
G1 X106.624 Y73.600 E23.31252
G1 X107.890 Y74.256 E23.39350
G1 X108.926 Y74.929 E23.46373
G1 X109.836 Y75.653 E23.52974
G1 X110.385 Y75.391 E23.56431
G1 X110.385 Y68.502 E23.95569
G1 X112.502 Y66.385 E24.12587
G1 X120.498 Y66.385 E24.58014
G1 X122.615 Y68.502 E24.75031
G1 X122.615 Y131.498 E28.32957
G1 X120.498 Y133.615 E28.49975
G1 X112.502 Y133.615 E28.95401
G1 X110.385 Y131.498 E29.12419
G1 X110.385 Y124.609 E29.51557
G1 X109.836 Y124.347 E29.55014
G1 X108.926 Y125.071 E29.61615
G1 X107.890 Y125.744 E29.68638
G1 X106.624 Y126.400 E29.76736
G1 X105.792 Y126.730 E29.81824
G1 X105.713 Y126.779 E29.82351
G1 X105.493 Y127.004 E29.84139
G1 X105.342 Y127.222 E29.85646
G1 X105.267 Y127.368 E29.86578
G1 X105.146 Y127.757 E29.88894
G1 X105.116 Y128.125 E29.90993
G1 X105.115 Y146.498 E30.95382
G1 X102.998 Y148.615 E31.12399
G1 X97.002 Y148.615 E31.46462
G1 X94.885 Y146.498 E31.63480
G1 X94.884 Y128.125 E32.67869
G1 X94.854 Y127.757 E32.69967
G1 X94.733 Y127.368 E32.72284
G1 X94.658 Y127.222 E32.73215
G1 X94.507 Y127.004 E32.74722
G1 X94.287 Y126.779 E32.76510
G1 X94.208 Y126.730 E32.77037
G1 X93.376 Y126.400 E32.82125
G1 X92.110 Y125.744 E32.90223
G1 X91.074 Y125.071 E32.97246
G1 X90.164 Y124.347 E33.03848
G1 X89.615 Y124.609 E33.07304
G1 X89.615 Y131.498 E33.46443
G1 X87.498 Y133.615 E33.63460
G1 X79.502 Y133.615 E34.08887
G1 X77.385 Y131.498 E34.25905
G1 X77.385 Y68.502 E37.83830
G1 X79.502 Y66.385 E38.00848
G1 X87.498 Y66.385 E38.46275
G1 X89.615 Y68.502 E38.63292
G1 X89.615 Y75.346 E39.02175
G1 X89.133 Y76.471 F7800.000
G1 X89.729 Y76.717 E39.05835 F1080.000
G1 X90.273 Y76.185 E39.10162
G1 X91.214 Y75.423 E39.17042
G1 X92.362 Y74.667 E39.24853
G1 X93.583 Y74.035 E39.32664
G1 X94.503 Y73.662 E39.38303
G1 X94.756 Y73.442 E39.40209
G1 X94.978 Y73.173 E39.42189
G1 X95.162 Y72.853 E39.44287
G1 X95.240 Y72.663 E39.45455
G1 X95.333 Y72.305 E39.47553
G1 X95.367 Y71.875 E39.50007
G1 X95.367 Y53.702 E40.53261
G1 X97.202 Y51.867 E40.68010
G1 X102.798 Y51.867 E40.99804
G1 X104.633 Y53.702 E41.14553
G1 X104.644 Y72.122 E42.19211
G1 X104.711 Y72.506 E42.21427
G1 X104.829 Y72.834 E42.23407
G1 X104.913 Y72.999 E42.24457
G1 X105.134 Y73.320 E42.26673
G1 X105.259 Y73.456 E42.27723
G1 X105.497 Y73.662 E42.29511
G1 X106.417 Y74.035 E42.35151
G1 X107.638 Y74.667 E42.42962
G1 X108.786 Y75.423 E42.50773
G1 X109.727 Y76.185 E42.57652
G1 X110.271 Y76.717 E42.61979
G1 X110.867 Y76.471 E42.65639
G1 X110.867 Y68.702 E43.09780
G1 X112.702 Y66.867 E43.24529
G1 X120.298 Y66.867 E43.67686
G1 X122.133 Y68.702 E43.82435
G1 X122.133 Y131.298 E47.38092
G1 X120.298 Y133.133 E47.52840
G1 X112.702 Y133.133 E47.95998
G1 X110.867 Y131.298 E48.10747
G1 X110.867 Y123.529 E48.54887
G1 X110.271 Y123.283 E48.58548
G1 X109.727 Y123.815 E48.62874
G1 X108.786 Y124.577 E48.69754
G1 X107.638 Y125.333 E48.77565
G1 X106.417 Y125.965 E48.85376
G1 X105.560 Y126.303 E48.90612
G1 X105.379 Y126.432 E48.91873
G1 X105.244 Y126.558 E48.92923
G1 X105.022 Y126.827 E48.94904
G1 X104.829 Y127.166 E48.97119
G1 X104.760 Y127.337 E48.98170
G1 X104.670 Y127.674 E49.00150
G1 X104.634 Y128.115 E49.02662
G1 X104.633 Y146.298 E50.05975
G1 X102.798 Y148.133 E50.20724
G1 X97.202 Y148.133 E50.52518
G1 X95.367 Y146.298 E50.67267
G1 X95.356 Y127.878 E51.71925
G1 X95.289 Y127.494 E51.74141
G1 X95.233 Y127.318 E51.75191
G1 X95.087 Y127.001 E51.77172
G1 X94.866 Y126.680 E51.79387
G1 X94.741 Y126.544 E51.80438
G1 X94.503 Y126.338 E51.82225
G1 X93.583 Y125.965 E51.87865
G1 X92.362 Y125.333 E51.95676
G1 X91.214 Y124.577 E52.03487
G1 X90.273 Y123.815 E52.10366
G1 X89.729 Y123.283 E52.14693
G1 X89.133 Y123.529 E52.18353
G1 X89.133 Y131.298 E52.62494
G1 X87.298 Y133.133 E52.77243
G1 X79.702 Y133.133 E53.20401
G1 X77.867 Y131.298 E53.35149
G1 X77.867 Y68.702 E56.90806
G1 X79.702 Y66.867 E57.05554
G1 X87.298 Y66.867 E57.48712
G1 X89.133 Y68.702 E57.63461
G1 X89.133 Y76.426 E58.07346
G1 X88.651 Y77.678 F7800.000
G1 X89.294 Y77.905 E58.11217 F1080.000
G1 X89.645 Y77.483 E58.14337
G1 X90.483 Y76.645 E58.21073
G1 X91.620 Y75.724 E58.29385
G1 X92.734 Y75.009 E58.36909
G1 X93.791 Y74.471 E58.43645
G1 X94.681 Y74.121 E58.49076
G1 X94.919 Y73.949 E58.50748
G1 X95.100 Y73.780 E58.52153
G1 X95.375 Y73.447 E58.54606
G1 X95.506 Y73.238 E58.56011
G1 X95.694 Y72.826 E58.58582
G1 X95.809 Y72.388 E58.61153
G1 X95.849 Y71.885 E58.64021
G1 X95.849 Y53.902 E59.66200
G1 X97.402 Y52.349 E59.78679
G1 X102.598 Y52.349 E60.08204
G1 X104.151 Y53.902 E60.20684
G1 X104.151 Y71.885 E61.22863
G1 X104.165 Y72.184 E61.24564
G1 X104.244 Y72.630 E61.27135
G1 X104.391 Y73.036 E61.29588
G1 X104.613 Y73.430 E61.32160
G1 X104.900 Y73.780 E61.34731
G1 X105.081 Y73.949 E61.36136
G1 X105.319 Y74.121 E61.37808
G1 X106.209 Y74.471 E61.43238
G1 X107.266 Y75.009 E61.49975
G1 X108.380 Y75.724 E61.57499
G1 X109.517 Y76.645 E61.65811
G1 X110.355 Y77.483 E61.72547
G1 X110.706 Y77.905 E61.75666
G1 X111.349 Y77.678 E61.79537
G1 X111.349 Y68.902 E62.29400
G1 X112.902 Y67.349 E62.41879
G1 X120.098 Y67.349 E62.82768
G1 X121.651 Y68.902 E62.95248
G1 X121.651 Y131.098 E66.48635
G1 X120.098 Y132.651 E66.61115
G1 X112.902 Y132.651 E67.02004
G1 X111.349 Y131.098 E67.14483
G1 X111.349 Y122.322 E67.64346
G1 X110.706 Y122.095 E67.68217
G1 X110.355 Y122.517 E67.71336
G1 X109.517 Y123.355 E67.78072
G1 X108.380 Y124.276 E67.86384
G1 X107.266 Y124.991 E67.93908
G1 X106.209 Y125.529 E68.00645
G1 X105.319 Y125.879 E68.06075
G1 X105.065 Y126.065 E68.07865
G1 X104.900 Y126.220 E68.09152
G1 X104.625 Y126.553 E68.11605
G1 X104.399 Y126.945 E68.14177
G1 X104.244 Y127.370 E68.16748
G1 X104.163 Y127.836 E68.19437
G1 X104.151 Y146.098 E69.23197
G1 X102.598 Y147.651 E69.35677
G1 X97.402 Y147.651 E69.65202
G1 X95.849 Y146.098 E69.77682
G1 X95.849 Y128.115 E70.79860
G1 X95.835 Y127.816 E70.81562
G1 X95.756 Y127.370 E70.84133
G1 X95.609 Y126.964 E70.86586
G1 X95.387 Y126.570 E70.89157
G1 X95.100 Y126.220 E70.91729
G1 X94.919 Y126.051 E70.93133
G1 X94.681 Y125.879 E70.94805
G1 X93.791 Y125.529 E71.00236
G1 X92.734 Y124.991 E71.06972
G1 X91.620 Y124.276 E71.14496
G1 X90.483 Y123.355 E71.22808
G1 X89.645 Y122.517 E71.29545
G1 X89.294 Y122.095 E71.32664
G1 X88.651 Y122.322 E71.36535
G1 X88.651 Y131.098 E71.86398
G1 X87.098 Y132.651 E71.98877
G1 X79.902 Y132.651 E72.39766
G1 X78.349 Y131.098 E72.52245
G1 X78.349 Y68.902 E76.05633
G1 X79.902 Y67.349 E76.18113
G1 X87.098 Y67.349 E76.59001
G1 X88.651 Y68.902 E76.71481
G1 X88.651 Y77.633 E77.21088
G1 X88.169 Y79.092 F7800.000
G1 X88.860 Y79.296 E77.25178 F1080.000
G1 X89.188 Y78.801 E77.28555
G1 X89.918 Y77.899 E77.35148
G1 X90.899 Y76.918 E77.43030
G1 X91.801 Y76.188 E77.49623
G1 X92.866 Y75.489 E77.56861
G1 X93.998 Y74.906 E77.64098
G1 X94.894 Y74.556 E77.69563
G1 X95.037 Y74.468 E77.70517
G1 X95.443 Y74.118 E77.73561
G1 X95.772 Y73.722 E77.76487
G1 X95.926 Y73.477 E77.78129
G1 X96.148 Y72.990 E77.81173
G1 X96.284 Y72.471 E77.84217
G1 X96.331 Y71.896 E77.87499
G1 X96.331 Y54.101 E78.88602
G1 X97.601 Y52.831 E78.98813
G1 X102.399 Y52.831 E79.26069
G1 X103.669 Y54.101 E79.36279
G1 X103.669 Y71.896 E80.37383
G1 X103.684 Y72.226 E80.39262
G1 X103.778 Y72.754 E80.42306
G1 X103.953 Y73.238 E80.45232
G1 X104.085 Y73.495 E80.46874
G1 X104.378 Y73.919 E80.49801
G1 X104.752 Y74.302 E80.52845
G1 X105.106 Y74.556 E80.55318
G1 X106.002 Y74.906 E80.60783
G1 X107.035 Y75.433 E80.67376
G1 X108.199 Y76.188 E80.75258
G1 X109.185 Y76.994 E80.82495
G1 X110.006 Y77.815 E80.89088
G1 X110.812 Y78.801 E80.96325
G1 X111.140 Y79.296 E80.99703
G1 X111.831 Y79.092 E81.03793
G1 X111.831 Y69.101 E81.60557
G1 X113.101 Y67.831 E81.70768
G1 X119.899 Y67.831 E82.09387
G1 X121.169 Y69.101 E82.19598
G1 X121.169 Y130.899 E85.70716
G1 X119.899 Y132.169 E85.80927
G1 X113.101 Y132.169 E86.19547
G1 X111.831 Y130.899 E86.29757
G1 X111.831 Y120.908 E86.86521
G1 X111.140 Y120.704 E86.90611
G1 X110.812 Y121.199 E86.93989
G1 X110.006 Y122.185 E87.01226
G1 X109.101 Y123.082 E87.08464
G1 X108.199 Y123.812 E87.15056
G1 X107.035 Y124.567 E87.22938
G1 X106.002 Y125.094 E87.29531
G1 X105.106 Y125.444 E87.34996
G1 X104.752 Y125.698 E87.37469
G1 X104.377 Y126.081 E87.40514
G1 X104.085 Y126.505 E87.43440
G1 X103.961 Y126.743 E87.44964
G1 X103.778 Y127.246 E87.48008
G1 X103.682 Y127.795 E87.51170
G1 X103.669 Y128.104 E87.52930
G1 X103.669 Y145.899 E88.54034
G1 X102.399 Y147.169 E88.64245
G1 X97.601 Y147.169 E88.91501
G1 X96.331 Y145.899 E89.01711
G1 X96.331 Y128.104 E90.02815
G1 X96.316 Y127.774 E90.04694
G1 X96.222 Y127.246 E90.07738
G1 X96.047 Y126.762 E90.10664
G1 X95.915 Y126.505 E90.12306
G1 X95.609 Y126.065 E90.15350
G1 X95.248 Y125.698 E90.18276
G1 X94.894 Y125.444 E90.20750
G1 X93.998 Y125.094 E90.26215
G1 X92.965 Y124.567 E90.32807
G1 X91.801 Y123.812 E90.40690
G1 X90.899 Y123.082 E90.47282
G1 X89.994 Y122.185 E90.54520
G1 X89.188 Y121.199 E90.61757
G1 X88.860 Y120.704 E90.65134
G1 X88.169 Y120.908 E90.69225
G1 X88.169 Y130.899 E91.25989
G1 X86.899 Y132.169 E91.36199
G1 X80.101 Y132.169 E91.74819
G1 X78.831 Y130.899 E91.85030
G1 X78.831 Y69.101 E95.36148
G1 X80.101 Y67.831 E95.46359
G1 X86.899 Y67.831 E95.84978
G1 X88.169 Y69.101 E95.95189
G1 X88.169 Y79.047 E96.51697
G1 X87.687 Y80.862 F7800.000
G1 X88.426 Y81.039 E96.56015 F1080.000
G1 X88.901 Y80.118 E96.61901
G1 X89.571 Y79.095 E96.68852
G1 X90.285 Y78.213 E96.75302
G1 X91.147 Y77.344 E96.82252
G1 X92.095 Y76.571 E96.89203
G1 X93.118 Y75.901 E96.96154
G1 X94.206 Y75.341 E97.03105
G1 X95.115 Y74.987 E97.08644
G1 X95.318 Y74.860 E97.10006
G1 X95.773 Y74.472 E97.13406
G1 X95.994 Y74.226 E97.15284
G1 X96.181 Y73.979 E97.17044
G1 X96.345 Y73.716 E97.18805
G1 X96.595 Y73.173 E97.22204
G1 X96.688 Y72.877 E97.23964
G1 X96.759 Y72.554 E97.25843
G1 X96.798 Y72.247 E97.27603
G1 X96.813 Y71.906 E97.29541
G1 X96.813 Y54.301 E98.29569
G1 X97.801 Y53.313 E98.37511
G1 X102.199 Y53.313 E98.62498
G1 X103.187 Y54.301 E98.70440
G1 X103.187 Y71.906 E99.70468
G1 X103.202 Y72.247 E99.72406
G1 X103.241 Y72.554 E99.74166
G1 X103.306 Y72.857 E99.75926
G1 X103.398 Y73.153 E99.77687
G1 X103.514 Y73.440 E99.79447
G1 X103.655 Y73.716 E99.81207
G1 X103.831 Y73.996 E99.83086
G1 X104.019 Y74.242 E99.84846
G1 X104.227 Y74.472 E99.86606
G1 X104.682 Y74.860 E99.90006
G1 X104.885 Y74.987 E99.91367
G1 X105.794 Y75.341 E99.96907
G1 X106.882 Y75.901 E100.03858
G1 X107.905 Y76.571 E100.10809
G1 X108.853 Y77.344 E100.17760
G1 X109.715 Y78.213 E100.24710
G1 X110.429 Y79.095 E100.31160
G1 X111.099 Y80.118 E100.38110
G1 X111.574 Y81.039 E100.43997
G1 X112.313 Y80.862 E100.48315
G1 X112.313 Y69.301 E101.13999
G1 X113.301 Y68.313 E101.21941
G1 X119.699 Y68.313 E101.58292
G1 X120.687 Y69.301 E101.66233
G1 X120.687 Y130.699 E105.15083
G1 X119.699 Y131.687 E105.23024
G1 X113.301 Y131.687 E105.59375
G1 X112.313 Y130.699 E105.67317
G1 X112.313 Y119.138 E106.33001
G1 X111.574 Y118.961 E106.37319
G1 X111.099 Y119.882 E106.43206
G1 X110.429 Y120.905 E106.50156
G1 X109.715 Y121.787 E106.56606
G1 X108.853 Y122.656 E106.63556
G1 X107.905 Y123.429 E106.70507
G1 X106.882 Y124.099 E106.77458
G1 X105.794 Y124.659 E106.84408
G1 X104.885 Y125.013 E106.89948
G1 X104.682 Y125.140 E106.91310
G1 X104.439 Y125.331 E106.93070
G1 X104.213 Y125.543 E106.94831
G1 X103.831 Y126.004 E106.98230
G1 X103.655 Y126.284 E107.00109
G1 X103.514 Y126.560 E107.01869
G1 X103.398 Y126.847 E107.03629
G1 X103.306 Y127.143 E107.05390
G1 X103.241 Y127.446 E107.07150
G1 X103.202 Y127.753 E107.08910
G1 X103.187 Y128.094 E107.10848
