; generated by Slic3r 1.1.7 on 2017-05-30 at 13:26:25

; perimeters extrusion width = 0.30mm
; infill extrusion width = 0.32mm
; solid infill extrusion width = 0.32mm
; top infill extrusion width = 0.32mm

G21 ; set units to millimeters
M107
M190 S105 ; wait for bed temperature to be reached
M104 S240 ; set temperature
G28 ; home all axes
G1 Z5 F5000 ; lift nozzle

M109 S240 ; wait for temperature to be reached
G90 ; use absolute coordinates
G92 E0
M82 ; use absolute distances for extrusion
G1 F1800.000 E-1.00000
G92 E0
G1 Z0.300 F7800.000
G1 X65.845 Y67.619 F7800.000
G1 E1.00000 F1800.000
G1 X67.595 Y66.160 E1.15217 F1080.000
G1 X70.841 Y65.297 E1.37660
G1 X120.751 Y65.297 E4.71082
G1 X122.994 Y65.694 E4.86299
G1 X124.964 Y66.837 E5.01516 F1080.000
G1 X126.423 Y68.586 E5.16733
G1 X127.063 Y70.141 E5.27969
G1 X135.472 Y101.521 E7.45000
G1 X135.669 Y103.790 E7.60217
G1 X135.075 Y105.990 E7.75434
G1 X133.763 Y107.851 E7.90652
G1 X132.427 Y108.873 E8.01887
G1 X89.204 Y133.827 E11.35309
G1 X87.063 Y134.605 E11.50526
G1 X84.785 Y134.601 E11.65743
G1 X82.647 Y133.815 E11.80960
G1 X80.276 Y131.435 E12.03403
G1 X74.866 Y121.866 E12.76840
G1 X69.617 Y107.444 E13.79374
G1 X67.828 Y102.240 E14.16132
G1 X65.163 Y87.125 E15.18666
G1 X64.306 Y81.690 E15.55424
G1 X64.306 Y71.833 E16.21277
G1 X64.703 Y69.590 E16.36494
G1 X65.823 Y67.658 E16.51410
G1 F1800.000 E15.51410
G92 E0
G1 X127.286 Y102.711 F7800.000
G1 E1.00000 F1800.000
G1 X86.438 Y126.294 E4.15100 F540.000
G1 X82.255 Y119.049 E4.70990
G1 X75.594 Y100.749 E6.01092
G1 X72.212 Y81.570 E7.31193
G1 X72.212 Y73.204 E7.87083
G1 X119.379 Y73.204 E11.02184
G1 X119.379 Y77.443 E11.30506
G1 X121.328 Y88.494 E12.05472
G1 X125.166 Y99.039 E12.80438
G1 X127.263 Y102.672 E13.08460
G1 X128.017 Y102.907 F7800.000
G1 X86.242 Y127.026 E16.30717 F540.000
G1 X81.768 Y119.276 E16.90498
G1 X75.075 Y100.888 E18.21226
G1 X71.677 Y81.617 E19.51953
G1 X71.677 Y72.668 E20.11735
G1 X119.915 Y72.668 E23.33992
G1 X119.915 Y77.397 E23.65579
G1 X121.847 Y88.355 E24.39919
G1 X125.653 Y98.812 E25.14259
G1 X127.995 Y102.868 E25.45546
G1 X128.749 Y103.103 F7800.000
G1 X86.046 Y127.758 E28.74959 F378.000
G1 X81.280 Y119.503 E29.38632
G1 X74.555 Y101.027 E30.69986
G1 X71.141 Y81.664 E32.01339
G1 X71.141 Y72.133 E32.65012
G1 X120.451 Y72.133 E35.94425
G1 X120.451 Y77.350 E36.29278
G1 X122.367 Y88.216 E37.02992
G1 X126.140 Y98.585 E37.76706
G1 X128.727 Y103.064 E38.11258
G1 X128.449 Y103.103 F7800.000
G1 X125.938 Y101.113 F7800.000
G1 X98.397 Y73.572 E40.71460 F1080.000
G1 X97.635 Y73.572 E40.76551
G1 X126.691 Y102.629 E43.51068
G1 X126.208 Y102.908 E43.54795
G1 X96.873 Y73.572 E46.31948
G1 X96.111 Y73.572 E46.37038
G1 X125.725 Y103.186 E49.16826
G1 X125.242 Y103.465 E49.20553
G1 X95.349 Y73.572 E52.02976
G1 X94.587 Y73.572 E52.08066
G1 X124.759 Y103.744 E54.93124
G1 X124.276 Y104.023 E54.96851
G1 X93.825 Y73.572 E57.84544
G1 X93.063 Y73.572 E57.89635
G1 X123.793 Y104.302 E60.79963
G1 X123.310 Y104.581 E60.83689
G1 X92.301 Y73.572 E63.76653
G1 X91.539 Y73.572 E63.81743
G1 X122.827 Y104.860 E66.77342
G1 X122.344 Y105.139 E66.81068
G1 X90.777 Y73.572 E69.79302
G1 X90.015 Y73.572 E69.84392
G1 X121.860 Y105.418 E72.85261
G1 X121.377 Y105.697 E72.88987
G1 X89.253 Y73.572 E75.92491
G1 X88.491 Y73.572 E75.97582
G1 X120.894 Y105.976 E79.03721
G1 X120.411 Y106.255 E79.07447
G1 X87.729 Y73.572 E82.16221
G1 X86.967 Y73.572 E82.21312
G1 X119.928 Y106.533 E85.32721
G1 X119.445 Y106.812 E85.36447
G1 X86.205 Y73.572 E88.50491
G1 X85.443 Y73.572 E88.55582
G1 X118.962 Y107.091 E91.72261
G1 X118.479 Y107.370 E91.75987
G1 X84.681 Y73.572 E94.95302
G1 X83.919 Y73.572 E95.00392
G1 X117.996 Y107.649 E98.22342
G1 X117.513 Y107.928 E98.26068
G1 X83.157 Y73.572 E101.50653
G1 X82.395 Y73.572 E101.55743
G1 X117.030 Y108.207 E104.82963
G1 X116.546 Y108.486 E104.86689
G1 X81.633 Y73.572 E108.16544
G1 X80.871 Y73.572 E108.21635
G1 X116.063 Y108.765 E111.54124
G1 X115.580 Y109.044 E111.57851
G1 X80.109 Y73.572 E114.92976
G1 X79.347 Y73.572 E114.98066
G1 X115.097 Y109.323 E118.35826
G1 X114.614 Y109.601 E118.39553
G1 X78.585 Y73.572 E121.79948
G1 X77.823 Y73.572 E121.85038
G1 X114.131 Y109.880 E125.28068
G1 X113.648 Y110.159 E125.31795
G1 X77.061 Y73.572 E128.77460
G1 X76.299 Y73.572 E128.82551
G1 X113.165 Y110.438 E132.30851
G1 X112.682 Y110.717 E132.34577
G1 X75.537 Y73.572 E135.85513
G1 X74.775 Y73.572 E135.90603
G1 X112.199 Y110.996 E139.44174
G1 X111.716 Y111.275 E139.47900
G1 X74.013 Y73.572 E143.04106
G1 X73.251 Y73.572 E143.09197
G1 X111.232 Y111.554 E146.68037
G1 X110.749 Y111.833 E146.71764
G1 X72.581 Y73.664 E150.32370
G1 X72.581 Y74.426 E150.37460
G1 X110.266 Y112.112 E153.93502
G1 X109.783 Y112.391 E153.97229
G1 X72.581 Y75.188 E157.48707
G1 X72.581 Y75.950 E157.53797
G1 X109.300 Y112.670 E161.00711
G1 X108.817 Y112.948 E161.04437
G1 X72.581 Y76.712 E164.46787
G1 X72.581 Y77.474 E164.51878
G1 X108.334 Y113.227 E167.89663
G1 X107.851 Y113.506 E167.93390
G1 X72.581 Y78.236 E171.26611
G1 X72.581 Y78.998 E171.31701
G1 X107.368 Y113.785 E174.60359
G1 X106.885 Y114.064 E174.64085
G1 X72.581 Y79.760 E177.88178
G1 X72.581 Y80.522 E177.93269
G1 X106.402 Y114.343 E181.12798
G1 X105.918 Y114.622 E181.16524
G1 X72.581 Y81.284 E184.31489
G1 X72.690 Y82.155 E184.37352
G1 X105.435 Y114.901 E187.46725
G1 X104.952 Y115.180 E187.50451
G1 X72.853 Y83.080 E190.53718
G1 X73.016 Y84.005 E190.59994
G1 X104.469 Y115.459 E193.57155
G1 X103.986 Y115.738 E193.60882
G1 X73.179 Y84.931 E196.51938
G1 X73.342 Y85.856 E196.58214
G1 X103.503 Y116.017 E199.43165
G1 X103.020 Y116.295 E199.46892
G1 X73.505 Y86.781 E202.25738
G1 X73.668 Y87.706 E202.32013
G1 X102.537 Y116.574 E205.04754
G1 X102.054 Y116.853 E205.08480
G1 X73.831 Y88.631 E207.75116
G1 X73.995 Y89.556 E207.81391
G1 X101.571 Y117.132 E210.41921
G1 X101.087 Y117.411 E210.45648
G1 X74.158 Y90.481 E213.00073
G1 X74.321 Y91.406 E213.06348
G1 X100.604 Y117.690 E215.54668
G1 X100.121 Y117.969 E215.58394
G1 X74.484 Y92.332 E218.00608
G1 X74.647 Y93.257 E218.06884
G1 X99.638 Y118.248 E220.42993
G1 X99.155 Y118.527 E220.46720
G1 X74.810 Y94.182 E222.76723
G1 X74.973 Y95.107 E222.82999
G1 X98.672 Y118.806 E225.06897
G1 X98.189 Y119.085 E225.10624
G1 X75.136 Y96.032 E227.28417
G1 X75.300 Y96.957 E227.34693
G1 X97.706 Y119.363 E229.46380
G1 X97.223 Y119.642 E229.50107
G1 X75.463 Y97.882 E231.55689
G1 X75.626 Y98.807 E231.61965
G1 X96.740 Y119.921 E233.61442
G1 X96.257 Y120.200 E233.65169
G1 X75.789 Y99.733 E235.58541
G1 X75.953 Y100.659 E235.64827
G1 X95.773 Y120.479 E237.52081
G1 X95.290 Y120.758 E237.55807
G1 X76.390 Y101.857 E239.34377
G1 X76.826 Y103.055 F7800.000
G1 X94.807 Y121.037 E241.04263 F1080.000
G1 X94.324 Y121.316 E241.07990
G1 X77.262 Y104.253 E242.69192
G1 X77.698 Y105.451 F7800.000
G1 X93.841 Y121.595 E244.21710 F1080.000
G1 X93.358 Y121.874 E244.25437
G1 X78.134 Y106.649 E245.69271
G1 X78.570 Y107.848 F7800.000
G1 X92.875 Y122.153 E247.04421 F1080.000
G1 X92.392 Y122.432 E247.08148
G1 X79.006 Y109.046 E248.34614
G1 X79.442 Y110.244 F7800.000
G1 X91.909 Y122.710 E249.52397 F1080.000
G1 X91.426 Y122.989 E249.56123
G1 X79.878 Y111.442 E250.65222
G1 X80.314 Y112.640 F7800.000
G1 X90.943 Y123.268 E251.65637 F1080.000
G1 X90.459 Y123.547 E251.69364
G1 X80.750 Y113.838 E252.61095
G1 X81.186 Y115.036 F7800.000
G1 X89.976 Y123.826 E253.44142 F1080.000
G1 X89.493 Y124.105 E253.47868
G1 X81.622 Y116.234 E254.22231
G1 X82.058 Y117.432 F7800.000
G1 X89.010 Y124.384 E254.87911 F1080.000
G1 X88.527 Y124.663 E254.91637
G1 X82.494 Y118.630 E255.48633
G1 X83.403 Y120.300 F7800.000
G1 X88.044 Y124.942 E255.92483 F1080.000
G1 X87.561 Y125.221 E255.96209
G1 X84.444 Y122.103 E256.25661
G1 X85.485 Y123.906 F7800.000
G1 X87.078 Y125.500 E256.40714 F1080.000
G1 X86.595 Y125.778 E256.44440
G1 X86.525 Y125.709 E256.45095
G1 X124.897 Y99.311 F7800.000
G1 X99.159 Y73.572 E258.88263 F1080.000
G1 X99.921 Y73.572 E258.93354
G1 X124.423 Y98.074 E261.24839
G1 X123.987 Y96.876 F7800.000
G1 X100.683 Y73.572 E263.45006 F1080.000
G1 X101.445 Y73.572 E263.50096
G1 X123.550 Y95.678 E265.58943
G1 X123.114 Y94.480 F7800.000
G1 X102.207 Y73.572 E267.56472 F1080.000
G1 X102.969 Y73.572 E267.61562
G1 X122.678 Y93.282 E269.47772
G1 X122.242 Y92.084 F7800.000
G1 X103.731 Y73.572 E271.22662 F1080.000
G1 X104.493 Y73.572 E271.27753
G1 X121.806 Y90.885 E272.91324
G1 X121.370 Y89.687 F7800.000
G1 X105.255 Y73.572 E274.43576 F1080.000
G1 X106.017 Y73.572 E274.48667
G1 X120.957 Y88.512 E275.89817
G1 X120.794 Y87.587 E275.96093
G1 X106.779 Y73.572 E277.28503
G1 X107.541 Y73.572 E277.33594
G1 X120.631 Y86.662 E278.57263
G1 X120.468 Y85.737 E278.63539
G1 X108.303 Y73.572 E279.78468
G1 X109.065 Y73.572 E279.83559
G1 X120.305 Y84.812 E280.89748
G1 X120.141 Y83.887 E280.96023
G1 X109.827 Y73.572 E281.93472
G1 X110.589 Y73.572 E281.98562
G1 X119.978 Y82.962 E282.87270
G1 X119.815 Y82.036 E282.93546
G1 X111.351 Y73.572 E283.73514
G1 X112.113 Y73.572 E283.78605
G1 X119.652 Y81.111 E284.49832
G1 X119.489 Y80.186 E284.56108
G1 X112.875 Y73.572 E285.18595
G1 X113.637 Y73.572 E285.23685
G1 X119.326 Y79.261 E285.77432
G1 X119.163 Y78.336 E285.83708
G1 X114.399 Y73.572 E286.28714
G1 X115.161 Y73.572 E286.33804
G1 X119.011 Y77.422 E286.70178
G1 X119.011 Y76.660 E286.75269
G1 X115.923 Y73.572 E287.04444
G1 X116.685 Y73.572 E287.09534
G1 X119.011 Y75.898 E287.31510
G1 X119.011 Y75.136 E287.36600
G1 X117.447 Y73.572 E287.51377
G1 X118.209 Y73.572 E287.56467
G1 X119.011 Y74.374 E287.64045
G1 X119.011 Y73.612 E287.69135
G1 X118.971 Y73.572 E287.69513
M104 S230 ; set temperature
M140 S95 ; set bed temperature
G1 F1800.000 E286.69513
G92 E0
G1 Z0.600 F7800.000
G1 X128.134 Y102.938 F7800.000
G1 E1.00000 F1800.000
G1 X86.211 Y127.143 E2.81136 F1800.000
G1 X81.690 Y119.313 E3.14968
G1 X74.992 Y100.910 E3.88245
G1 X71.591 Y81.624 E4.61521
G1 X71.591 Y72.583 E4.95353
G1 X120.001 Y72.583 E6.76490
G1 X120.001 Y77.389 E6.94474
G1 X121.930 Y88.333 E7.36056
G1 X125.731 Y98.776 E7.77638
G1 X128.112 Y102.899 E7.95454
G1 X128.544 Y103.048 F7800.000
G1 X86.101 Y127.553 E9.78835 F1800.000
G1 X81.417 Y119.440 E10.13888
G1 X74.701 Y100.988 E10.87361
G1 X71.291 Y81.651 E11.60834
G1 X71.291 Y72.283 E11.95886
G1 X120.301 Y72.283 E13.79268
G1 X120.301 Y77.363 E13.98277
G1 X122.221 Y88.255 E14.39662
G1 X126.004 Y98.648 E14.81047
G1 X128.522 Y103.009 E14.99888
G1 X128.954 Y103.158 F7800.000
G1 X85.991 Y127.962 E16.85514 F1260.000
G1 X81.144 Y119.567 E17.21788
G1 X74.410 Y101.066 E17.95457
G1 X70.991 Y81.677 E18.69126
G1 X70.991 Y71.983 E19.05400
G1 X120.601 Y71.983 E20.91026
G1 X120.601 Y77.337 E21.11059
G1 X122.512 Y88.177 E21.52248
G1 X126.277 Y98.521 E21.93437
G1 X128.931 Y103.119 E22.13302
G1 X128.654 Y103.158 F7800.000
G1 X127.848 Y102.843 F7800.000
G1 X127.779 Y102.912 E22.13683 F3600.000
G1 X127.687 Y102.563 E22.15087
G1 X126.735 Y103.515 E22.20323
G1 X125.690 Y104.118 F7800.000
G1 X127.525 Y102.283 E22.30415 F3600.000
G1 X127.364 Y102.003 E22.31671
G1 X124.646 Y104.721 E22.46618
G1 X123.601 Y105.324 F7800.000
G1 X127.202 Y101.724 E22.66420 F3600.000
G1 X127.040 Y101.444 E22.67676
G1 X122.557 Y105.927 E22.92333
G1 X121.512 Y106.530 F7800.000
G1 X126.879 Y101.164 E23.21845 F3600.000
G1 X126.717 Y100.884 E23.23102
G1 X120.468 Y107.133 E23.57469
G1 X119.424 Y107.736 F7800.000
G1 X126.556 Y100.604 E23.96691 F3600.000
G1 X126.394 Y100.324 E23.97948
G1 X118.379 Y108.339 E24.42025
G1 X117.335 Y108.942 F7800.000
G1 X126.233 Y100.045 E24.90958 F3600.000
G1 X126.071 Y99.765 E24.92214
G1 X116.290 Y109.545 E25.46002
G1 X115.246 Y110.148 F7800.000
G1 X125.909 Y99.485 E26.04645 F3600.000
G1 X125.748 Y99.205 E26.05902
G1 X114.202 Y110.751 E26.69400
G1 X113.157 Y111.354 F7800.000
G1 X125.586 Y98.925 E27.37753 F3600.000
G1 X125.458 Y98.612 E27.39070
G1 X112.113 Y111.957 E28.12463
G1 X111.068 Y112.560 F7800.000
G1 X125.341 Y98.288 E28.90953 F3600.000
G1 X125.223 Y97.964 E28.92292
G1 X110.024 Y113.163 E29.75878
G1 X108.980 Y113.766 F7800.000
G1 X125.105 Y97.641 E30.64559 F3600.000
G1 X124.987 Y97.317 E30.65899
G1 X107.935 Y114.369 E31.59676
G1 X106.891 Y114.972 F7800.000
G1 X124.869 Y96.993 E32.58549 F3600.000
G1 X124.752 Y96.670 E32.59889
G1 X105.846 Y115.575 E33.63858
G1 X104.802 Y116.178 F7800.000
G1 X124.634 Y96.346 E34.72923 F3600.000
G1 X124.516 Y96.023 E34.74262
G1 X103.757 Y116.781 E35.88424
G1 X102.713 Y117.384 F7800.000
G1 X124.398 Y95.699 E37.07681 F3600.000
G1 X124.280 Y95.375 E37.09020
G1 X101.669 Y117.987 E38.33373
G1 X100.624 Y118.590 F7800.000
G1 X124.163 Y95.052 E39.62822 F3600.000
G1 X124.045 Y94.728 E39.64161
G1 X99.580 Y119.193 E40.98706
G1 X98.535 Y119.796 F7800.000
G1 X123.927 Y94.404 E42.38346 F3600.000
G1 X123.809 Y94.081 E42.39686
G1 X97.491 Y120.399 E43.84422
G1 X96.447 Y121.002 F7800.000
G1 X123.691 Y93.757 E45.34255 F3600.000
G1 X123.574 Y93.433 E45.35594
G1 X95.402 Y121.605 E46.90523
G1 X94.358 Y122.208 F7800.000
G1 X123.456 Y93.110 E48.50547 F3600.000
G1 X123.338 Y92.786 E48.51886
G1 X93.313 Y122.811 E50.17007
G1 X92.269 Y123.414 F7800.000
G1 X123.220 Y92.463 E51.87223 F3600.000
G1 X123.103 Y92.139 E51.88562
G1 X91.224 Y124.017 E53.63874
G1 X90.180 Y124.620 F7800.000
G1 X122.985 Y91.815 E55.44283 F3600.000
G1 X122.867 Y91.492 E55.45622
G1 X89.136 Y125.223 E57.31126
G1 X88.091 Y125.826 F7800.000
G1 X122.749 Y91.168 E59.21726 F3600.000
G1 X122.631 Y90.844 E59.23065
G1 X87.047 Y126.429 E61.18761
G1 X86.242 Y126.793 F7800.000
G1 X122.514 Y90.521 E63.18237 F3600.000
G1 X122.396 Y90.197 E63.19576
G1 X86.079 Y126.514 E65.19300
G1 X85.917 Y126.234 E65.20557
G1 X122.278 Y89.874 E67.20522
G1 X122.160 Y89.550 E67.21861
G1 X85.756 Y125.955 E69.22067
G1 X85.594 Y125.675 E69.23324
G1 X122.042 Y89.226 E71.23770
G1 X121.925 Y88.903 E71.25109
G1 X85.432 Y125.395 E73.25797
G1 X85.271 Y125.115 E73.27053
G1 X121.807 Y88.579 E75.27981
G1 X121.710 Y88.235 E75.29373
G1 X85.109 Y124.835 E77.30655
G1 X84.948 Y124.555 E77.31912
G1 X121.644 Y87.859 E79.33719
G1 X121.577 Y87.484 E79.35201
G1 X84.786 Y124.275 E81.37533
G1 X84.625 Y123.996 E81.38789
G1 X121.511 Y87.109 E83.41646
G1 X121.445 Y86.734 E83.43128
G1 X84.463 Y123.716 E85.46509
G1 X84.301 Y123.436 E85.47766
G1 X121.379 Y86.358 E87.51672
G1 X121.313 Y85.983 E87.53153
G1 X84.140 Y123.156 E89.57584
G1 X83.978 Y122.876 E89.58840
G1 X121.247 Y85.608 E91.63796
G1 X121.180 Y85.233 E91.65277
G1 X83.817 Y122.596 E93.70757
G1 X83.655 Y122.316 E93.72014
G1 X121.114 Y84.857 E95.78019
G1 X121.048 Y84.482 E95.79500
G1 X83.494 Y122.037 E97.86030
G1 X83.332 Y121.757 E97.87286
G1 X120.982 Y84.107 E99.94340
G1 X120.916 Y83.732 E99.95822
G1 X83.170 Y121.477 E102.03400
G1 X83.009 Y121.197 E102.04657
G1 X120.850 Y83.356 E104.12760
G1 X120.783 Y82.981 E104.14242
G1 X82.847 Y120.917 E106.22870
G1 X82.686 Y120.637 E106.24127
G1 X120.717 Y82.606 E108.33279
G1 X120.651 Y82.231 E108.34761
G1 X82.524 Y120.358 E110.44438
G1 X82.363 Y120.078 E110.45695
G1 X120.585 Y81.855 E112.55897
G1 X120.519 Y81.480 E112.57379
G1 X82.201 Y119.798 E114.68105
G1 X82.039 Y119.518 E114.69362
G1 X120.453 Y81.105 E116.80613
G1 X120.386 Y80.730 E116.82095
G1 X81.878 Y119.238 E118.93871
G1 X81.758 Y118.916 E118.95206
G1 X120.320 Y80.354 E121.07275
G1 X120.254 Y79.979 E121.08757
G1 X81.641 Y118.593 E123.21110
G1 X81.523 Y118.269 E123.22449
G1 X120.188 Y79.604 E125.35086
G1 X120.122 Y79.229 E125.36567
G1 X81.405 Y117.945 E127.49488
G1 X81.287 Y117.622 E127.50827
G1 X120.056 Y78.853 E129.64032
G1 X119.989 Y78.478 E129.65514
G1 X81.169 Y117.298 E131.79002
G1 X81.052 Y116.974 E131.80341
G1 X119.923 Y78.103 E133.94114
G1 X119.857 Y77.728 E133.95595
G1 X80.934 Y116.651 E136.09652
