; generated by Slic3r 1.1.7 on 2017-05-25 at 15:43:01

; perimeters extrusion width = 0.30mm
; infill extrusion width = 0.32mm
; solid infill extrusion width = 0.32mm
; top infill extrusion width = 0.32mm

G21 ; set units to millimeters
M107
M190 S105 ; wait for bed temperature to be reached
M104 S240 ; set temperature
G28 ; home all axes
G1 Z5 F5000 ; lift nozzle

M109 S240 ; wait for temperature to be reached
G90 ; use absolute coordinates
G92 E0
M82 ; use absolute distances for extrusion
G1 F1800.000 E-1.00000
G92 E0
G1 Z0.300 F7800.000
G1 X62.535 Y63.717 F7800.000
G1 E1.00000 F1800.000
G1 X64.172 Y62.110 E1.15327 F1080.000
G1 X66.640 Y60.112 E1.36540
G1 X91.003 Y40.641 E3.44889
G1 X91.858 Y40.128 E3.51555
G1 X92.763 Y39.707 E3.58220
G1 X93.707 Y39.383 E3.64887
G1 X94.679 Y39.160 E3.71552
G1 X95.670 Y39.039 E3.78219
G1 X96.236 Y39.014 E3.82004
G1 X115.655 Y38.762 E5.11742
G1 X116.701 Y38.853 E5.18756
G1 X117.732 Y39.053 E5.25773 F1080.000
G1 X118.736 Y39.359 E5.32787
G1 X119.703 Y39.768 E5.39803
G1 X120.622 Y40.277 E5.46819
G1 X121.483 Y40.878 E5.53833
G1 X122.276 Y41.567 E5.60849
G1 X122.993 Y42.334 E5.67864
G1 X123.625 Y43.172 E5.74879
G1 X124.167 Y44.072 E5.81895
G1 X124.611 Y45.023 E5.88911
G1 X124.830 Y45.606 E5.93065
G1 X128.984 Y57.911 E6.79830
G1 X147.440 Y132.451 E11.92837
G1 X148.003 Y136.233 E12.18380
G1 X148.176 Y139.711 E12.41643
G1 X148.176 Y154.711 E13.41851
G1 X147.779 Y156.954 E13.57068
G1 X146.637 Y158.925 E13.72285
G1 X144.887 Y160.383 E13.87502
G1 X141.641 Y161.247 E14.09945
G1 X88.017 Y161.238 E17.68180
G1 X84.201 Y161.002 E17.93723
G1 X80.430 Y160.368 E18.19266
G1 X76.747 Y159.344 E18.44808
G1 X73.190 Y157.941 E18.70351
G1 X69.800 Y156.173 E18.95894
G1 X66.613 Y154.061 E19.21437
G1 X63.664 Y151.627 E19.46980
G1 X60.986 Y148.898 E19.72523
G1 X58.608 Y145.904 E19.98066
G1 X58.496 Y145.732 E19.99434
G1 X56.555 Y142.678 E20.23609
G1 X54.851 Y139.255 E20.49152
G1 X53.515 Y135.673 E20.74695
G1 X52.560 Y131.971 E21.00238
G1 X52.110 Y129.129 E21.19457
G1 X51.997 Y128.189 E21.25784
G1 X51.824 Y124.711 E21.49047
G1 X51.833 Y89.142 E23.86671
G1 X52.068 Y85.325 E24.12214
G1 X52.702 Y81.555 E24.37756
G1 X53.071 Y80.177 E24.47288
G1 X53.726 Y77.871 E24.63300
G1 X55.130 Y74.314 E24.88843
G1 X56.897 Y70.924 E25.14386
G1 X59.010 Y67.737 E25.39929
G1 X61.444 Y64.788 E25.65472
G1 X62.503 Y63.749 E25.75387
G1 F1800.000 E24.75387
G92 E0
G1 X115.661 Y132.970 F7800.000
G1 E1.00000 F1800.000
G1 X115.661 Y134.527 E1.10401 F540.000
G1 X113.177 Y132.043 E1.33870
G1 X112.988 Y131.810 E1.35878
G1 X112.743 Y131.398 E1.39079
G1 X112.372 Y131.398 E1.41555
G1 X112.455 Y129.820 E1.52108
G1 X112.502 Y129.523 E1.54117
G1 X112.580 Y129.233 E1.56126
G1 X112.688 Y128.952 E1.58135
G1 X112.824 Y128.684 E1.60145
G1 X112.988 Y128.432 E1.62153
G1 X113.177 Y128.198 E1.64163
G1 X113.390 Y127.986 E1.66172
G1 X113.624 Y127.796 E1.68181
G1 X113.876 Y127.633 E1.70190
G1 X114.144 Y127.496 E1.72199
G1 X114.425 Y127.388 E1.74208
G1 X114.715 Y127.310 E1.76217
G1 X115.012 Y127.263 E1.78227
G1 X115.313 Y127.248 E1.80235
G1 X115.613 Y127.263 E1.82245
G1 X115.910 Y127.310 E1.84254
G1 X116.200 Y127.388 E1.86262
G1 X116.481 Y127.496 E1.88272
G1 X116.749 Y127.633 E1.90281
G1 X117.001 Y127.796 E1.92290
G1 X117.235 Y127.986 E1.94299
G1 X117.448 Y128.198 E1.96307
G1 X117.637 Y128.432 E1.98317
G1 X117.801 Y128.684 E2.00326
G1 X117.937 Y128.952 E2.02335
G1 X118.045 Y129.233 E2.04345
G1 X118.123 Y129.523 E2.06353
G1 X118.170 Y129.820 E2.08362
G1 X118.186 Y130.121 E2.10371
G1 X118.170 Y130.421 E2.12380
G1 X118.123 Y130.718 E2.14389
G1 X118.045 Y131.009 E2.16398
G1 X117.937 Y131.289 E2.18407
G1 X117.801 Y131.557 E2.20417
G1 X117.637 Y131.810 E2.22426
G1 X117.448 Y132.043 E2.24435
G1 X117.235 Y132.256 E2.26444
G1 X117.001 Y132.445 E2.28453
G1 X116.749 Y132.609 E2.30462
G1 X116.481 Y132.746 E2.32471
G1 X116.200 Y132.853 E2.34480
G1 X115.910 Y132.931 E2.36489
G1 X115.706 Y132.963 E2.37869
G1 X115.126 Y132.467 F7800.000
G1 X115.126 Y133.234 E2.42993 F540.000
G1 X113.576 Y131.684 E2.57635
G1 X113.422 Y131.494 E2.59269
G1 X113.289 Y131.289 E2.60903
G1 X113.098 Y130.862 E2.64028
G1 X112.937 Y130.862 E2.65101
G1 X112.989 Y129.877 E2.71696
G1 X113.027 Y129.635 E2.73330
G1 X113.090 Y129.399 E2.74964
G1 X113.178 Y129.170 E2.76598
G1 X113.289 Y128.952 E2.78233
G1 X113.422 Y128.747 E2.79866
G1 X113.576 Y128.557 E2.81501
G1 X113.749 Y128.384 E2.83135
G1 X113.939 Y128.230 E2.84769
G1 X114.144 Y128.097 E2.86403
G1 X114.362 Y127.986 E2.88037
G1 X114.590 Y127.898 E2.89670
G1 X114.827 Y127.835 E2.91305
G1 X115.068 Y127.797 E2.92939
G1 X115.313 Y127.784 E2.94573
G1 X115.557 Y127.797 E2.96207
G1 X115.798 Y127.835 E2.97841
G1 X116.035 Y127.898 E2.99475
G1 X116.263 Y127.986 E3.01109
G1 X116.481 Y128.097 E3.02743
G1 X116.686 Y128.230 E3.04377
G1 X116.876 Y128.384 E3.06011
G1 X117.049 Y128.557 E3.07645
G1 X117.307 Y128.907 E3.10548
G1 X117.447 Y129.170 E3.12541
G1 X117.535 Y129.399 E3.14176
G1 X117.598 Y129.635 E3.15810
G1 X117.636 Y129.877 E3.17443
G1 X117.649 Y130.121 E3.19077
G1 X117.636 Y130.365 E3.20711
G1 X117.598 Y130.607 E3.22345
G1 X117.535 Y130.843 E3.23979
G1 X117.447 Y131.071 E3.25613
G1 X117.336 Y131.289 E3.27248
G1 X117.203 Y131.494 E3.28881
G1 X117.049 Y131.684 E3.30516
G1 X116.876 Y131.857 E3.32150
G1 X116.686 Y132.011 E3.33784
G1 X116.481 Y132.144 E3.35418
G1 X116.263 Y132.256 E3.37052
G1 X116.035 Y132.343 E3.38686
G1 X115.798 Y132.406 E3.40320
G1 X115.557 Y132.445 E3.41954
G1 X115.171 Y132.465 E3.44536
G1 X114.590 Y131.789 F7800.000
G1 X114.590 Y131.941 E3.45555 F378.000
G1 X113.975 Y131.325 E3.51372
G1 X113.856 Y131.179 E3.52631
G1 X113.668 Y130.853 E3.55145
G1 X113.501 Y130.327 E3.58833
G1 X113.522 Y129.933 E3.61470
G1 X113.600 Y129.564 E3.63984
G1 X113.753 Y129.221 E3.66499
G1 X113.975 Y128.916 E3.69013
G1 X114.254 Y128.664 E3.71528
G1 X114.412 Y128.562 E3.72787
G1 X114.756 Y128.408 E3.75301
G1 X115.124 Y128.330 E3.77816
G1 X115.501 Y128.330 E3.80330
G1 X115.687 Y128.360 E3.81589
G1 X116.045 Y128.476 E3.84104
G1 X116.371 Y128.664 E3.86618
G1 X116.650 Y128.916 E3.89132
G1 X116.872 Y129.221 E3.91647
G1 X117.025 Y129.564 E3.94161
G1 X117.103 Y129.933 E3.96676
G1 X117.103 Y130.309 E3.99190
G1 X117.025 Y130.677 E4.01705
G1 X116.872 Y131.021 E4.04219
G1 X116.650 Y131.325 E4.06734
G1 X116.371 Y131.577 E4.09248
G1 X116.045 Y131.766 E4.11763
G1 X115.687 Y131.882 E4.14277
G1 X115.313 Y131.921 E4.16792
G1 X114.938 Y131.882 E4.19306
G1 X114.634 Y131.800 E4.21412
G1 X114.655 Y131.927 F7800.000
G1 X63.072 Y113.267 F7800.000
G1 X63.004 Y113.443 E4.22671 F378.000
G1 X62.816 Y113.769 E4.25185
G1 X62.564 Y114.049 E4.27700
G1 X62.259 Y114.270 E4.30214
G1 X62.092 Y114.356 E4.31473
G1 X61.717 Y114.477 E4.34104
G1 X61.717 Y114.493 E4.34212
G1 X61.359 Y114.511 E4.36603
G1 X61.171 Y114.502 E4.37862
G1 X60.828 Y114.430 E4.40204
G1 X60.627 Y114.356 E4.41635
G1 X60.301 Y114.168 E4.44150
G1 X60.155 Y114.049 E4.45408
G1 X59.903 Y113.769 E4.47923
G1 X59.800 Y113.611 E4.49182
G1 X59.647 Y113.267 E4.51696
G1 X59.569 Y112.899 E4.54211
G1 X59.569 Y112.523 E4.56725
G1 X59.598 Y112.337 E4.57984
G1 X59.647 Y112.155 E4.59243
G1 X59.800 Y111.811 E4.61758
G1 X60.021 Y111.506 E4.64272
G1 X60.155 Y111.373 E4.65531
G1 X60.459 Y111.152 E4.68046
G1 X60.803 Y110.999 E4.70560
G1 X60.985 Y110.950 E4.71819
G1 X61.385 Y110.912 E4.74505
G1 X61.734 Y110.950 E4.76846 F378.000
G1 X61.916 Y110.999 E4.78105
G1 X62.259 Y111.152 E4.80620
G1 X62.564 Y111.373 E4.83134
G1 X62.816 Y111.653 E4.85649
G1 X63.004 Y111.979 E4.88163
G1 X63.120 Y112.337 E4.90678
G1 X63.160 Y112.711 E4.93192
G1 X63.150 Y112.899 E4.94451
G1 X63.083 Y113.224 E4.96666
G1 F1800.000 E3.96666
G92 E0
G1 X61.335 Y110.616 F7800.000
G1 X73.748 Y128.347 F7800.000
G1 E1.00000 F1800.000
G1 X73.895 Y127.801 E1.03778 F540.000
G1 X74.040 Y127.422 E1.06486
G1 X74.224 Y127.061 E1.09195
G1 X74.445 Y126.721 E1.11903
G1 X74.700 Y126.406 E1.14612
G1 X74.987 Y126.119 E1.17320
G1 X75.302 Y125.864 E1.20029
G1 X75.642 Y125.643 E1.22737
G1 X76.003 Y125.459 E1.25445
G1 X76.381 Y125.314 E1.28153
G1 X76.773 Y125.209 E1.30862
G1 X77.173 Y125.146 E1.33570
G1 X77.578 Y125.125 E1.36279
G1 X77.983 Y125.146 E1.38987
G1 X78.383 Y125.209 E1.41696
G1 X78.775 Y125.314 E1.44403
G1 X79.153 Y125.459 E1.47112
G1 X79.515 Y125.643 E1.49820
G1 X79.855 Y125.864 E1.52528
G1 X80.170 Y126.119 E1.55237
G1 X80.456 Y126.406 E1.57945
G1 X80.712 Y126.721 E1.60653
G1 X80.932 Y127.061 E1.63362
G1 X81.116 Y127.422 E1.66070
G1 X81.230 Y127.718 E1.68184
G1 X81.367 Y128.192 E1.71484
G1 X81.430 Y128.593 E1.74193
G1 X81.451 Y128.998 E1.76901
G1 X81.430 Y129.403 E1.79610
G1 X81.191 Y130.914 E1.89832
G1 X80.946 Y130.914 E1.91470
G1 X80.712 Y131.274 E1.94340
G1 X80.456 Y131.589 E1.97048
G1 X80.170 Y131.876 E1.99757
G1 X79.924 Y132.075 E2.01871
G1 X79.515 Y132.352 E2.05171
G1 X79.153 Y132.536 E2.07879
G1 X78.858 Y132.649 E2.09993
G1 X78.383 Y132.786 E2.13292
G1 X77.983 Y132.850 E2.16001
G1 X77.578 Y132.871 E2.18710
G1 X77.173 Y132.850 E2.21418
G1 X76.773 Y132.786 E2.24126
G1 X76.381 Y132.681 E2.26835
G1 X76.003 Y132.536 E2.29543
G1 X75.642 Y132.352 E2.32251
G1 X75.302 Y132.131 E2.34959
G1 X74.987 Y131.876 E2.37668
G1 X74.700 Y131.589 E2.40376
G1 X74.445 Y131.274 E2.43084
G1 X74.224 Y130.934 E2.45793
G1 X74.040 Y130.573 E2.48501
G1 X73.185 Y128.347 E2.64429
G1 X73.703 Y128.347 E2.67888
G1 X74.247 Y128.883 F7800.000
G1 X74.260 Y128.649 E2.69452 F540.000
G1 X74.314 Y128.304 E2.71786
G1 X74.405 Y127.967 E2.74119
G1 X74.530 Y127.641 E2.76452
G1 X74.688 Y127.329 E2.78785
G1 X74.879 Y127.036 E2.81119
G1 X75.098 Y126.765 E2.83452
G1 X75.345 Y126.518 E2.85785
G1 X75.617 Y126.298 E2.88119
G1 X75.910 Y126.108 E2.90452
G1 X76.221 Y125.949 E2.92785
G1 X76.547 Y125.824 E2.95118
G1 X76.884 Y125.734 E2.97452
G1 X77.229 Y125.679 E2.99785
G1 X77.578 Y125.661 E3.02118
G1 X77.927 Y125.679 E3.04452
G1 X78.272 Y125.734 E3.06785
G1 X78.609 Y125.824 E3.09118
G1 X78.935 Y125.949 E3.11451
G1 X79.247 Y126.108 E3.13785
G1 X79.539 Y126.298 E3.16118
G1 X79.811 Y126.518 E3.18451
G1 X80.058 Y126.765 E3.20785
G1 X80.278 Y127.036 E3.23118
G1 X80.468 Y127.329 E3.25451
G1 X80.626 Y127.640 E3.27784
G1 X80.730 Y127.910 E3.29711
G1 X80.842 Y128.304 E3.32449
G1 X80.897 Y128.649 E3.34782
G1 X80.915 Y128.998 E3.37116
G1 X80.900 Y129.286 E3.39042
G1 X80.733 Y130.378 E3.46426
G1 X80.614 Y130.378 E3.47219
G1 X80.468 Y130.666 E3.49377
G1 X80.278 Y130.959 E3.51710
G1 X80.058 Y131.230 E3.54043
G1 X79.811 Y131.477 E3.56377
G1 X79.587 Y131.659 E3.58303
G1 X79.247 Y131.887 E3.61041
G1 X78.935 Y132.046 E3.63375
G1 X78.666 Y132.149 E3.65301
G1 X78.272 Y132.262 E3.68039
G1 X77.927 Y132.316 E3.70372
G1 X77.578 Y132.334 E3.72706
G1 X77.229 Y132.316 E3.75039
G1 X76.884 Y132.262 E3.77372
G1 X76.547 Y132.171 E3.79706
G1 X76.221 Y132.046 E3.82039
G1 X75.910 Y131.887 E3.84372
G1 X75.617 Y131.697 E3.86705
G1 X75.345 Y131.477 E3.89038
G1 X75.098 Y131.230 E3.91372
G1 X74.879 Y130.959 E3.93705
G1 X74.688 Y130.666 E3.96038
G1 X74.530 Y130.355 E3.98372
G1 X73.965 Y128.883 E4.08906
G1 X74.202 Y128.883 E4.10493
G1 X74.782 Y128.911 F7800.000
G1 X74.793 Y128.705 E4.11870 F378.000
G1 X74.839 Y128.415 E4.13829
G1 X74.915 Y128.132 E4.15787
G1 X75.020 Y127.859 E4.17745
G1 X75.153 Y127.597 E4.19703
G1 X75.313 Y127.352 E4.21661
G1 X75.497 Y127.124 E4.23620
G1 X75.704 Y126.917 E4.25578
G1 X75.932 Y126.732 E4.27536
G1 X76.178 Y126.572 E4.29494
G1 X76.439 Y126.439 E4.31453
G1 X76.713 Y126.334 E4.33411
G1 X76.996 Y126.258 E4.35369
G1 X77.285 Y126.213 E4.37327
G1 X77.611 Y126.199 E4.39504
G1 X77.871 Y126.213 E4.41243 F378.000
G1 X78.160 Y126.258 E4.43201
G1 X78.444 Y126.334 E4.45159
G1 X78.717 Y126.439 E4.47117
G1 X78.978 Y126.572 E4.49076
G1 X79.224 Y126.732 E4.51034
G1 X79.452 Y126.917 E4.52992
G1 X79.659 Y127.124 E4.54950
G1 X79.844 Y127.352 E4.56909
G1 X80.003 Y127.597 E4.58867
G1 X80.136 Y127.859 E4.60825
G1 X80.242 Y128.132 E4.62783
G1 X80.317 Y128.415 E4.64741
G1 X80.363 Y128.705 E4.66700
G1 X80.379 Y128.998 E4.68658
G1 X80.363 Y129.290 E4.70616
G1 X80.276 Y129.843 E4.74352
G1 X80.249 Y129.843 E4.74528
G1 X80.136 Y130.137 E4.76632
G1 X80.003 Y130.398 E4.78590
G1 X79.844 Y130.644 E4.80549
G1 X79.659 Y130.872 E4.82507
G1 X79.452 Y131.079 E4.84465
G1 X79.224 Y131.263 E4.86423
G1 X79.006 Y131.405 E4.88163
G1 X78.717 Y131.556 E4.90339
G1 X78.444 Y131.661 E4.92297
G1 X78.160 Y131.737 E4.94255
G1 X77.903 Y131.778 E4.95994
G1 X77.578 Y131.798 E4.98171
G1 X77.285 Y131.783 E5.00129
G1 X76.996 Y131.737 E5.02087
G1 X76.744 Y131.669 E5.03826
G1 X76.439 Y131.556 E5.06002
G1 X76.178 Y131.423 E5.07961
G1 X75.932 Y131.263 E5.09919
G1 X75.704 Y131.079 E5.11877
G1 X75.497 Y130.872 E5.13835
G1 X75.313 Y130.644 E5.15794
G1 X75.153 Y130.398 E5.17752
G1 X75.020 Y130.137 E5.19710
G1 X74.744 Y129.418 E5.24850
G1 X74.800 Y129.418 E5.25222
G1 X74.780 Y128.956 E5.28316
G1 F1800.000 E4.28316
G92 E0
G1 X77.681 Y125.948 F7800.000
G1 X92.467 Y144.099 F7800.000
G1 E1.00000 F1800.000
G1 X92.679 Y143.886 E1.02009 F540.000
G1 X92.913 Y143.697 E1.04019
G1 X93.165 Y143.533 E1.06027
G1 X93.433 Y143.397 E1.08036
G1 X93.714 Y143.289 E1.10046
G1 X94.004 Y143.211 E1.12055
G1 X94.301 Y143.164 E1.14064
G1 X94.684 Y143.152 E1.16619
G1 X94.902 Y143.164 E1.18079 F540.000
G1 X95.199 Y143.211 E1.20089
G1 X95.490 Y143.289 E1.22098
G1 X95.770 Y143.397 E1.24107
G1 X96.038 Y143.533 E1.26116
G1 X96.291 Y143.697 E1.28125
G1 X96.524 Y143.886 E1.30134
G1 X96.737 Y144.099 E1.32143
G1 X96.926 Y144.332 E1.34152
G1 X97.090 Y144.585 E1.36161
G1 X97.226 Y144.853 E1.38170
G1 X97.305 Y145.057 E1.39631
G1 X97.412 Y145.424 E1.42186
G1 X97.459 Y145.721 E1.44196
G1 X97.471 Y145.939 E1.45656
G1 X97.459 Y146.322 E1.48210
G1 X97.412 Y146.619 E1.50220
G1 X97.334 Y146.909 E1.52229
G1 X97.226 Y147.190 E1.54238
G1 X97.127 Y147.385 E1.55699
G1 X96.926 Y147.710 E1.58253
G1 X96.737 Y147.944 E1.60263
G1 X96.524 Y148.156 E1.62272
G1 X96.291 Y148.346 E1.64281
G1 X96.038 Y148.509 E1.66290
G1 X95.770 Y148.646 E1.68300
G1 X95.490 Y148.754 E1.70308
G1 X95.199 Y148.832 E1.72317
G1 X94.902 Y148.879 E1.74326
G1 X94.602 Y148.894 E1.76336
G1 X94.301 Y148.879 E1.78344
G1 X94.004 Y148.832 E1.80353
G1 X93.793 Y148.775 E1.81815
G1 X93.433 Y148.646 E1.84369
G1 X93.165 Y148.509 E1.86378
G1 X92.913 Y148.346 E1.88388
G1 X92.679 Y148.156 E1.90397
G1 X92.467 Y147.944 E1.92406
G1 X92.277 Y147.710 E1.94415
G1 X92.114 Y147.458 E1.96424
G1 X91.977 Y147.190 E1.98433
G1 X91.869 Y146.909 E2.00442
G1 X91.791 Y146.619 E2.02451
G1 X91.744 Y146.322 E2.04460
G1 X91.729 Y146.021 E2.06469
G1 X91.757 Y145.640 E2.09024
G1 X91.791 Y145.424 E2.10485
G1 X91.869 Y145.133 E2.12494
G1 X91.977 Y144.853 E2.14503
G1 X92.114 Y144.585 E2.16512
G1 X92.277 Y144.333 E2.18521
G1 X92.438 Y144.134 E2.20230
G1 X92.865 Y144.458 F7800.000
G1 X93.038 Y144.285 E2.21864 F540.000
G1 X93.228 Y144.131 E2.23498
G1 X93.433 Y143.998 E2.25132
G1 X93.651 Y143.887 E2.26766
G1 X93.880 Y143.799 E2.28400
G1 X94.116 Y143.736 E2.30034
G1 X94.411 Y143.694 E2.32027
G1 X94.846 Y143.697 E2.34930 F540.000
G1 X95.088 Y143.736 E2.36565
G1 X95.324 Y143.799 E2.38198
G1 X95.552 Y143.887 E2.39832
G1 X95.770 Y143.998 E2.41467
G1 X95.975 Y144.131 E2.43100
G1 X96.165 Y144.285 E2.44734
G1 X96.338 Y144.458 E2.46368
G1 X96.596 Y144.808 E2.49272
G1 X96.736 Y145.071 E2.51265
G1 X96.824 Y145.299 E2.52899
G1 X96.887 Y145.535 E2.54533
G1 X96.936 Y145.967 E2.57436
G1 X96.926 Y146.265 E2.59429
G1 X96.887 Y146.507 E2.61063
G1 X96.824 Y146.743 E2.62698
G1 X96.650 Y147.142 E2.65601
G1 X96.492 Y147.395 E2.67594
G1 X96.338 Y147.585 E2.69228
G1 X96.165 Y147.758 E2.70862
G1 X95.975 Y147.912 E2.72496
