; generated by Slic3r 1.1.7 on 2017-05-25 at 21:58:23

; perimeters extrusion width = 0.30mm
; infill extrusion width = 0.32mm
; solid infill extrusion width = 0.32mm
; top infill extrusion width = 0.32mm

G21 ; set units to millimeters
M107
M190 S105 ; wait for bed temperature to be reached
M104 S240 ; set temperature
G28 ; home all axes
G1 Z5 F5000 ; lift nozzle

M109 S240 ; wait for temperature to be reached
G90 ; use absolute coordinates
G92 E0
M82 ; use absolute distances for extrusion
G1 F1800.000 E-1.00000
G92 E0
G1 Z0.300 F7800.000
G1 X51.553 Y51.311 F7800.000
G1 E1.00000 F1800.000
G1 X54.168 Y48.842 E1.24025 F1080.000
G1 X56.908 Y46.514 E1.48045
G1 X59.766 Y44.332 E1.72070
G1 X62.735 Y42.303 E1.96091
G1 X65.806 Y40.431 E2.20116
G1 X68.970 Y38.724 E2.44137
G1 X72.220 Y37.183 E2.68162
G1 X75.545 Y35.816 E2.92183
G1 X78.938 Y34.624 E3.16206
G1 X82.388 Y33.611 E3.40229
G1 X85.887 Y32.780 E3.64253
G1 X89.424 Y32.134 E3.88274
G1 X92.991 Y31.673 E4.12299
G1 X96.576 Y31.400 E4.36320
G1 X100.171 Y31.315 E4.60344
G1 X100.877 Y31.333 E4.65064
G1 X103.765 Y31.418 E4.84365 F1080.000
G1 X107.350 Y31.709 E5.08391
G1 X110.914 Y32.187 E5.32411
G1 X114.448 Y32.851 E5.56435
G1 X117.942 Y33.700 E5.80457
G1 X121.388 Y34.729 E6.04481
G1 X124.774 Y35.938 E6.28503
G1 X128.093 Y37.323 E6.52527
G1 X131.335 Y38.879 E6.76548
G1 X134.491 Y40.603 E7.00573
G1 X135.093 Y40.972 E7.05292
G1 X137.552 Y42.489 E7.24594
G1 X140.511 Y44.533 E7.48618
G1 X143.358 Y46.729 E7.72639
G1 X146.086 Y49.072 E7.96664
G1 X148.689 Y51.553 E8.20685
G1 X149.175 Y52.066 E8.25405
G1 X151.158 Y54.168 E8.44710
G1 X153.486 Y56.908 E8.68731
G1 X155.668 Y59.766 E8.92755
G1 X157.697 Y62.735 E9.16776
G1 X159.569 Y65.806 E9.40802
G1 X159.906 Y66.427 E9.45521
G1 X161.276 Y68.970 E9.64822
G1 X162.817 Y72.220 E9.88846
G1 X164.184 Y75.545 E10.12868
G1 X165.376 Y78.938 E10.36892
G1 X166.389 Y82.388 E10.60914
G1 X167.220 Y85.887 E10.84938
G1 X167.866 Y89.424 E11.08959
G1 X168.327 Y92.991 E11.32984
G1 X168.382 Y93.695 E11.37704
G1 X168.600 Y96.576 E11.57005
G1 X168.685 Y100.171 E11.81030
G1 X168.582 Y103.765 E12.05050
G1 X168.291 Y107.350 E12.29076
G1 X167.813 Y110.913 E12.53096
G1 X167.149 Y114.448 E12.77120
G1 X166.300 Y117.942 E13.01143
G1 X165.271 Y121.388 E13.25166
G1 X164.062 Y124.774 E13.49188
G1 X162.677 Y128.093 E13.73212
G1 X162.373 Y128.731 E13.77932
G1 X161.121 Y131.335 E13.97233
G1 X159.397 Y134.491 E14.21258
G1 X157.511 Y137.552 E14.45279
G1 X157.111 Y138.134 E14.49999
G1 X155.467 Y140.511 E14.69304
G1 X153.271 Y143.358 E14.93325
G1 X150.928 Y146.086 E15.17349
G1 X148.447 Y148.688 E15.41370
G1 X145.832 Y151.157 E15.65395
G1 X145.295 Y151.616 E15.70114
G1 X143.092 Y153.486 E15.89417
G1 X140.234 Y155.668 E16.13440
G1 X137.265 Y157.697 E16.37462
G1 X134.194 Y159.569 E16.61486
G1 X131.030 Y161.276 E16.85508
G1 X127.780 Y162.817 E17.09532
G1 X124.455 Y164.184 E17.33554
G1 X121.062 Y165.376 E17.57578
G1 X120.385 Y165.577 E17.62297
G1 X117.612 Y166.389 E17.81600
G1 X114.113 Y167.220 E18.05622
G1 X110.576 Y167.866 E18.29644
G1 X107.009 Y168.327 E18.53669
G1 X103.424 Y168.600 E18.77690
G1 X102.718 Y168.618 E18.82411
G1 X99.829 Y168.685 E19.01715
G1 X96.235 Y168.582 E19.25736
G1 X92.650 Y168.291 E19.49760
G1 X89.086 Y167.813 E19.73782
G1 X85.552 Y167.149 E19.97805
G1 X84.865 Y166.984 E20.02525
G1 X82.058 Y166.300 E20.21828
G1 X78.612 Y165.271 E20.45852
G1 X75.226 Y164.062 E20.69873
G1 X74.573 Y163.791 E20.74593
G1 X71.907 Y162.677 E20.93898
G1 X68.665 Y161.121 E21.17919
G1 X65.509 Y159.397 E21.41943
G1 X62.448 Y157.511 E21.65965
G1 X59.490 Y155.467 E21.89989
G1 X56.642 Y153.271 E22.14010
G1 X53.914 Y150.928 E22.38035
G1 X51.311 Y148.447 E22.62056
G1 X50.825 Y147.934 E22.66776
G1 X48.843 Y145.832 E22.86080
G1 X46.514 Y143.092 E23.10102
G1 X44.332 Y140.234 E23.34126
G1 X42.303 Y137.265 E23.58148
G1 X40.431 Y134.194 E23.82172
G1 X38.724 Y131.030 E24.06193
G1 X37.183 Y127.780 E24.30218
G1 X35.816 Y124.455 E24.54239
G1 X34.624 Y121.062 E24.78263
G1 X33.611 Y117.612 E25.02285
G1 X33.446 Y116.925 E25.07005
G1 X32.780 Y114.113 E25.26309
G1 X32.134 Y110.576 E25.50330
G1 X31.673 Y107.009 E25.74355
G1 X31.400 Y103.424 E25.98376
G1 X31.315 Y99.829 E26.22400
G1 X31.333 Y99.123 E26.27120
G1 X31.418 Y96.235 E26.46421
G1 X31.709 Y92.650 E26.70446
G1 X32.187 Y89.086 E26.94468
G1 X32.851 Y85.552 E27.18491
G1 X33.700 Y82.058 E27.42513
G1 X34.729 Y78.612 E27.66537
G1 X35.938 Y75.226 E27.90559
G1 X37.323 Y71.907 E28.14583
G1 X37.627 Y71.269 E28.19303
G1 X38.879 Y68.665 E28.38605
G1 X40.603 Y65.509 E28.62628
G1 X42.489 Y62.448 E28.86651
G1 X44.533 Y59.489 E29.10674
G1 X46.729 Y56.642 E29.34696
G1 X49.072 Y53.913 E29.58720
G1 X51.522 Y51.344 E29.82441
G1 F1800.000 E28.82441
G92 E0
G1 X148.673 Y64.637 F7800.000
G1 E1.00000 F1800.000
G1 X149.285 Y65.526 E1.07211 F540.000
G1 X150.412 Y67.262 E1.21037
G1 X151.539 Y68.998 E1.34863
G1 X152.103 Y69.918 E1.42075
G1 X152.619 Y70.867 E1.49287
G1 X154.498 Y74.555 E1.76939
G1 X154.962 Y75.529 E1.84150
G1 X155.376 Y76.526 E1.91362
G1 X155.885 Y77.853 E2.00852
G1 X156.859 Y80.391 E2.19014
G1 X157.219 Y81.409 E2.26225
G1 X157.526 Y82.443 E2.33437
G1 X158.597 Y86.442 E2.61089
G1 X158.848 Y87.491 E2.68300
G1 X159.046 Y88.553 E2.75512
G1 X159.693 Y92.641 E3.03164
G1 X159.858 Y94.022 E3.12459
G1 X159.879 Y94.022 E3.12597
G1 X160.136 Y98.921 E3.45366
G1 X160.163 Y100.000 E3.52578
G1 X160.136 Y101.079 E3.59789
G1 X160.027 Y103.146 E3.73615
G1 X159.919 Y105.213 E3.87441
G1 X159.834 Y106.289 E3.94653
G1 X159.693 Y107.359 E4.01864
G1 X159.471 Y108.762 E4.11355
G1 X159.046 Y111.447 E4.29517
G1 X158.848 Y112.509 E4.36728
G1 X158.597 Y113.558 E4.43940
G1 X158.230 Y114.931 E4.53430
G1 X157.526 Y117.557 E4.71592
G1 X157.219 Y118.591 E4.78803
G1 X156.859 Y119.609 E4.86015
G1 X155.376 Y123.473 E5.13667
G1 X154.962 Y124.471 E5.20878
G1 X154.498 Y125.445 E5.28090
G1 X153.853 Y126.711 E5.37580
G1 X152.619 Y129.133 E5.55742
G1 X152.103 Y130.082 E5.62953
G1 X151.539 Y131.002 E5.70165
G1 X149.285 Y134.474 E5.97817
G1 X148.673 Y135.363 E6.05028
G1 X148.017 Y136.220 E6.12240
G1 X147.122 Y137.324 E6.21731
G1 X145.412 Y139.437 E6.39892
G1 X144.710 Y140.257 E6.47104
G1 X143.967 Y141.041 E6.54316
G1 X141.011 Y143.995 E6.82239
G1 X140.257 Y144.710 E6.89179
G1 X139.437 Y145.412 E6.96391
G1 X138.333 Y146.306 E7.05881
G1 X136.220 Y148.016 E7.24043
G1 X135.363 Y148.673 E7.31254
G1 X134.474 Y149.285 E7.38466
G1 X133.282 Y150.059 E7.47956
G1 X131.002 Y151.539 E7.66118
G1 X130.082 Y152.103 E7.73330
G1 X129.133 Y152.619 E7.80541
G1 X126.711 Y153.853 E7.98703
G1 X125.445 Y154.498 E8.08193
G1 X124.471 Y154.962 E8.15404
G1 X123.474 Y155.376 E8.22616
G1 X119.609 Y156.859 E8.50268
G1 X118.591 Y157.219 E8.57480
G1 X117.557 Y157.526 E8.64691
G1 X114.931 Y158.230 E8.82853
G1 X113.558 Y158.597 E8.92344
G1 X112.509 Y158.848 E8.99555
G1 X111.447 Y159.046 E9.06767
G1 X107.359 Y159.693 E9.34418
G1 X106.289 Y159.834 E9.41630
G1 X105.213 Y159.919 E9.48842
G1 X102.498 Y160.061 E9.67003
G1 X101.079 Y160.136 E9.76494
G1 X100.000 Y160.163 E9.83706
G1 X98.921 Y160.136 E9.90917
G1 X94.747 Y159.916 E10.18841
G1 X93.711 Y159.834 E10.25780
G1 X92.641 Y159.693 E10.32992
G1 X91.238 Y159.471 E10.42483
G1 X88.553 Y159.046 E10.60645
G1 X87.491 Y158.848 E10.67855
G1 X86.442 Y158.597 E10.75067
G1 X85.069 Y158.230 E10.84558
G1 X82.443 Y157.526 E11.02719
G1 X81.409 Y157.219 E11.09931
G1 X80.391 Y156.859 E11.17143
G1 X78.459 Y156.117 E11.30968
G1 X76.527 Y155.376 E11.44794
G1 X75.530 Y154.962 E11.52006
G1 X74.555 Y154.498 E11.59218
G1 X70.867 Y152.619 E11.86870
G1 X69.918 Y152.103 E11.94081
G1 X68.998 Y151.539 E12.01293
G1 X66.718 Y150.059 E12.19454
G1 X65.526 Y149.285 E12.28945
G1 X64.637 Y148.673 E12.36156
G1 X63.780 Y148.016 E12.43368
G1 X60.563 Y145.412 E12.71020
G1 X59.743 Y144.710 E12.78232
G1 X58.959 Y143.967 E12.85443
G1 X57.496 Y142.504 E12.99269
G1 X56.033 Y141.041 E13.13095
G1 X55.290 Y140.257 E13.20307
G1 X54.588 Y139.437 E13.27519
G1 X51.959 Y136.188 E13.55443
G1 X51.327 Y135.363 E13.62382
G1 X50.715 Y134.474 E13.69593
G1 X49.941 Y133.282 E13.79084
G1 X48.461 Y131.002 E13.97245
G1 X47.897 Y130.082 E14.04457
G1 X47.381 Y129.133 E14.11669
G1 X46.147 Y126.711 E14.29830
G1 X45.502 Y125.445 E14.39321
G1 X45.038 Y124.471 E14.46532
G1 X44.624 Y123.474 E14.53744
G1 X44.115 Y122.147 E14.63234
G1 X43.141 Y119.609 E14.81396
G1 X42.781 Y118.591 E14.88608
G1 X42.474 Y117.557 E14.95819
G1 X41.770 Y114.931 E15.13981
G1 X41.403 Y113.558 E15.23471
G1 X41.152 Y112.509 E15.30683
G1 X40.961 Y111.487 E15.37622
G1 X40.307 Y107.359 E15.65546
G1 X40.166 Y106.289 E15.72758
G1 X40.081 Y105.213 E15.79969
G1 X39.939 Y102.498 E15.98131
G1 X39.864 Y101.079 E16.07622
G1 X39.837 Y100.000 E16.14833
G1 X39.864 Y98.921 E16.22044
G1 X40.081 Y94.787 E16.49697
G1 X40.166 Y93.711 E16.56908
G1 X40.307 Y92.641 E16.64120
G1 X40.954 Y88.553 E16.91772
G1 X41.152 Y87.491 E16.98984
G1 X41.403 Y86.442 E17.06195
G1 X42.474 Y82.443 E17.33847
G1 X42.781 Y81.409 E17.41059
G1 X43.141 Y80.391 E17.48270
G1 X43.883 Y78.459 E17.62096
G1 X44.624 Y76.526 E17.75922
G1 X45.038 Y75.529 E17.83134
G1 X45.502 Y74.555 E17.90345
G1 X46.147 Y73.289 E17.99836
G1 X47.381 Y70.867 E18.17997
G1 X47.897 Y69.918 E18.25209
G1 X48.461 Y68.998 E18.32421
G1 X49.941 Y66.718 E18.50582
G1 X50.715 Y65.526 E18.60073
G1 X51.327 Y64.637 E18.67284
G1 X51.959 Y63.812 E18.74224
G1 X54.588 Y60.563 E19.02148
G1 X55.290 Y59.743 E19.09360
G1 X56.033 Y58.959 E19.16571
G1 X57.955 Y57.037 E19.34732
G1 X58.959 Y56.033 E19.44223
G1 X59.743 Y55.290 E19.51434
G1 X60.563 Y54.588 E19.58646
G1 X63.780 Y51.983 E19.86298
G1 X64.637 Y51.327 E19.93510
G1 X65.526 Y50.715 E20.00721
G1 X67.806 Y49.234 E20.18883
G1 X68.998 Y48.461 E20.28374
G1 X69.918 Y47.897 E20.35585
G1 X70.867 Y47.381 E20.42796
G1 X74.555 Y45.502 E20.70448
G1 X75.530 Y45.038 E20.77660
G1 X76.527 Y44.624 E20.84872
G1 X77.853 Y44.115 E20.94362
G1 X80.391 Y43.141 E21.12524
G1 X81.409 Y42.781 E21.19735
G1 X82.443 Y42.474 E21.26947
G1 X85.069 Y41.770 E21.45108
G1 X86.442 Y41.403 E21.54599
G1 X87.491 Y41.152 E21.61811
G1 X88.553 Y40.954 E21.69022
G1 X92.641 Y40.307 E21.96674
G1 X93.711 Y40.166 E22.03886
G1 X94.787 Y40.081 E22.11097
G1 X98.921 Y39.864 E22.38749
G1 X100.000 Y39.837 E22.45961
G1 X101.038 Y39.863 E22.52900
G1 X105.213 Y40.081 E22.80824 F540.000
G1 X106.289 Y40.166 E22.88036
G1 X107.359 Y40.307 E22.95248
G1 X111.447 Y40.954 E23.22899
G1 X112.509 Y41.152 E23.30111
G1 X113.558 Y41.403 E23.37323
G1 X117.557 Y42.474 E23.64975
G1 X118.591 Y42.781 E23.72186
G1 X119.609 Y43.141 E23.79398
G1 X122.147 Y44.115 E23.97559
G1 X123.474 Y44.624 E24.07050
G1 X124.471 Y45.038 E24.14262
G1 X125.445 Y45.502 E24.21473
G1 X129.133 Y47.381 E24.49125
G1 X130.082 Y47.897 E24.56337
G1 X131.002 Y48.461 E24.63548
G1 X134.474 Y50.715 E24.91201
G1 X135.363 Y51.327 E24.98412
G1 X136.220 Y51.983 E25.05624
G1 X137.828 Y53.286 E25.19450
G1 X139.437 Y54.588 E25.33276
G1 X140.257 Y55.290 E25.40487
G1 X141.093 Y56.085 E25.48196
G1 X143.967 Y58.959 E25.75350
G1 X144.710 Y59.743 E25.82562
G1 X145.412 Y60.563 E25.89774
G1 X148.017 Y63.780 E26.17426
G1 X148.646 Y64.601 E26.24337
G1 X148.240 Y64.952 F7800.000
G1 X148.840 Y65.824 E26.31406 F378.000
G1 X149.963 Y67.554 E26.45187
G1 X151.087 Y69.284 E26.58968
G1 X151.639 Y70.186 E26.66038
G1 X152.144 Y71.116 E26.73107
G1 X153.376 Y73.532 E26.91223
G1 X154.017 Y74.792 E27.00668
G1 X154.472 Y75.747 E27.07738
G1 X154.865 Y76.694 E27.14584
G1 X156.356 Y80.576 E27.42368
G1 X156.709 Y81.574 E27.49438
G1 X157.010 Y82.589 E27.56508
G1 X157.712 Y85.208 E27.74624
G1 X158.078 Y86.574 E27.84069
G1 X158.324 Y87.603 E27.91138
G1 X158.518 Y88.643 E27.98208
G1 X159.163 Y92.718 E28.25769
G1 X159.301 Y93.767 E28.32839
G1 X159.371 Y94.558 E28.38143
G1 X159.493 Y96.882 E28.53690
G1 X159.601 Y98.976 E28.67694
G1 X159.627 Y100.000 E28.74540
G1 X159.600 Y101.058 E28.81610
G1 X159.385 Y105.178 E29.09171
G1 X159.301 Y106.233 E29.16241
G1 X159.163 Y107.282 E29.23311
G1 X158.942 Y108.678 E29.32756
G1 X158.518 Y111.357 E29.50872
G1 X158.324 Y112.397 E29.57941
G1 X158.078 Y113.426 E29.65011
G1 X157.712 Y114.792 E29.74456
G1 X157.010 Y117.411 E29.92572
G1 X156.709 Y118.426 E29.99642
G1 X156.356 Y119.424 E30.06712
G1 X155.385 Y121.955 E30.24828
G1 X154.878 Y123.275 E30.34272
G1 X154.472 Y124.253 E30.41342
G1 X154.032 Y125.178 E30.48188
G1 X152.144 Y128.884 E30.75973
G1 X151.639 Y129.814 E30.83042
G1 X151.087 Y130.716 E30.90112
G1 X149.963 Y132.446 E31.03893
G1 X148.840 Y134.176 E31.17673
G1 X148.240 Y135.048 E31.24743
G1 X147.596 Y135.888 E31.31813
G1 X145.000 Y139.094 E31.59373
G1 X144.312 Y139.898 E31.66443
G1 X143.607 Y140.642 E31.73290
G1 X142.125 Y142.125 E31.87294
G1 X140.642 Y143.607 E32.01297
G1 X139.899 Y144.312 E32.08143
G1 X139.094 Y145.000 E32.15213
G1 X135.888 Y147.596 E32.42774
G1 X135.048 Y148.240 E32.49844
G1 X134.176 Y148.840 E32.56914
G1 X132.991 Y149.610 E32.66358
G1 X130.716 Y151.086 E32.84474
G1 X129.814 Y151.639 E32.91544
G1 X128.884 Y152.144 E32.98615
G1 X126.468 Y153.376 E33.16730
G1 X125.208 Y154.017 E33.26175
G1 X124.253 Y154.472 E33.33245
G1 X123.275 Y154.878 E33.40315
G1 X121.349 Y155.617 E33.54095
G1 X119.424 Y156.356 E33.67876
G1 X118.426 Y156.709 E33.74945
G1 X117.411 Y157.010 E33.82015
G1 X114.792 Y157.712 E34.00131
G1 X113.426 Y158.078 E34.09576
G1 X112.397 Y158.324 E34.16646
G1 X111.357 Y158.518 E34.23716
G1 X108.678 Y158.942 E34.41832
G1 X107.282 Y159.163 E34.51276
G1 X106.233 Y159.301 E34.58346
G1 X105.178 Y159.384 E34.65416
G1 X102.470 Y159.526 E34.83532
G1 X101.058 Y159.600 E34.92977
G1 X100.000 Y159.627 E35.00047
G1 X98.976 Y159.601 E35.06893
G1 X94.822 Y159.384 E35.34677
G1 X93.767 Y159.301 E35.41747
G1 X92.718 Y159.163 E35.48817
G1 X91.322 Y158.942 E35.58262
G1 X88.643 Y158.518 E35.76378
G1 X87.603 Y158.324 E35.83447
G1 X86.574 Y158.078 E35.90517
G1 X82.589 Y157.010 E36.18078
G1 X81.574 Y156.709 E36.25148
G1 X80.608 Y156.368 E36.31994
G1 X78.651 Y155.617 E36.45998
G1 X76.694 Y154.865 E36.60002
G1 X75.747 Y154.472 E36.66848
G1 X74.792 Y154.017 E36.73918
G1 X71.116 Y152.144 E37.01479
G1 X70.186 Y151.639 E37.08549
G1 X69.284 Y151.086 E37.15618
G1 X67.009 Y149.610 E37.33734
G1 X65.824 Y148.840 E37.43179
G1 X64.952 Y148.240 E37.50249
G1 X64.112 Y147.596 E37.57319
G1 X63.013 Y146.706 E37.66764
G1 X60.906 Y145.000 E37.84880
G1 X60.102 Y144.312 E37.91950
G1 X59.333 Y143.584 E37.99019
G1 X57.875 Y142.125 E38.12799
G1 X56.416 Y140.667 E38.26580
G1 X55.688 Y139.898 E38.33650
G1 X55.000 Y139.094 E38.40720
G1 X53.294 Y136.987 E38.58836
G1 X52.404 Y135.888 E38.68281
G1 X51.761 Y135.048 E38.75350
G1 X51.160 Y134.176 E38.82420
G1 X50.390 Y132.991 E38.91865
G1 X48.913 Y130.716 E39.09981
G1 X48.361 Y129.814 E39.17051
G1 X47.856 Y128.884 E39.24121
G1 X45.983 Y125.208 E39.51681
G1 X45.528 Y124.253 E39.58751
G1 X45.122 Y123.275 E39.65821
G1 X44.615 Y121.955 E39.75266
G1 X43.644 Y119.424 E39.93382
G1 X43.291 Y118.426 E40.00452
G1 X42.990 Y117.411 E40.07521
G1 X41.922 Y113.426 E40.35082
G1 X41.676 Y112.397 E40.42152
G1 X41.482 Y111.357 E40.49222
G1 X40.837 Y107.282 E40.76783
G1 X40.699 Y106.233 E40.83852
G1 X40.615 Y105.178 E40.90922
G1 X40.399 Y101.024 E41.18707
G1 X40.373 Y100.000 E41.25553
G1 X40.400 Y98.942 E41.32623
G1 X40.474 Y97.530 E41.42068
G1 X40.615 Y94.822 E41.60183
G1 X40.699 Y93.767 E41.67253
G1 X40.837 Y92.718 E41.74323
G1 X41.482 Y88.643 E42.01884
G1 X41.676 Y87.603 E42.08954
G1 X41.922 Y86.574 E42.16023
G1 X42.288 Y85.208 E42.25468
G1 X42.990 Y82.589 E42.43585
G1 X43.291 Y81.574 E42.50654
G1 X43.644 Y80.576 E42.57724
G1 X44.383 Y78.651 E42.71504
G1 X45.122 Y76.725 E42.85285
G1 X45.528 Y75.747 E42.92355
